;FLAVOR:Marlin
;TIME:5855
;Filament used: 4.12705m
;Layer height: 0.2
;MINX:33.101
;MINY:66.593
;MINZ:0.28
;MAXX:186.899
;MAXY:153.407
;MAXZ:7.28
;TARGET_MACHINE.NAME:Creality Ender-3 S1
;Generated with Cura_SteamEngine 5.6.0
M82 ;absolute extrusion mode
; Ender 3 S1 Start G-code
; M413 S0 ; Disable power loss recovery
G92 E0 ; Reset Extruder

; Prep surfaces before auto home for better accuracy
M140 S60
M104 S205

G28 ; Home all axes
G1 Z10.0 F3000 ; Move Z Axis up little to prevent scratching of Heat Bed
G1 X0 Y0

M190 S60
M109 S205

G1 X0.1 Y20 Z0.3 F5000.0 ; Move to start position
G1 X0.1 Y200.0 Z0.3 F1500.0 E15 ; Draw the first line
G1 X0.4 Y200.0 Z0.3 F5000.0 ; Move to side a little
G1 X0.4 Y20 Z0.3 F1500.0 E30 ; Draw the second line
G92 E0 ; Reset Extruder
G1 Z2.0 F3000 ; Move Z Axis up little to prevent scratching of Heat Bed
G1 X5 Y20 Z0.3 F5000.0 ; Move over to prevent blob squish

G92 E0
G92 E0
G1 F2700 E-0.8
;LAYER_COUNT:37
;LAYER:0
M107
M204 S2000
G0 F7500 X39.7 Y77.004 Z0.28
M204 S500
;TYPE:SKIRT
G1 F2700 E0
G1 F1500 X40.864 Y76.402 E0.06102
G1 X41.535 Y76.105 E0.09519
G1 X42.3 Y75.802 E0.1335
G1 X43.006 Y75.564 E0.16819
G1 X43.56 Y75.394 E0.19518
G1 X44.275 Y75.201 E0.22966
G1 X45.16 Y74.997 E0.27195
G1 X45.934 Y74.842 E0.30871
G1 X46.389 Y74.769 E0.33017
G1 X47.164 Y74.663 E0.36659
G1 X48.478 Y74.52 E0.42814
G1 X51.023 Y74.207 E0.54754
G1 X53.488 Y73.831 E0.66364
G1 X56.024 Y73.374 E0.78363
G1 X58.407 Y72.873 E0.89702
G1 X60.907 Y72.272 E1.01675
G1 X63.3 Y71.625 E1.13218
G1 X65.737 Y70.891 E1.25069
G1 X68.126 Y70.097 E1.36791
G1 X70.498 Y69.234 E1.48545
G1 X72.874 Y68.293 E1.60445
G1 X74.84 Y67.463 E1.70381
G1 X75.772 Y67.121 E1.75004
G1 X76.712 Y66.867 E1.79538
G1 X77.676 Y66.697 E1.84096
G1 X78.74 Y66.61 E1.89067
G1 X79.43 Y66.593 E1.92281
G1 X144.379 Y66.594 E4.94711
G1 X145.125 Y66.608 E4.98185
G1 X146.096 Y66.671 E5.02716
G1 X147.06 Y66.818 E5.07257
G1 X147.937 Y67.032 E5.1146
G1 X149.295 Y67.519 E5.18178
G1 X150.107 Y67.874 E5.22305
G1 X151.134 Y68.339 E5.27554
G1 X153.428 Y69.299 E5.39133
G1 X155.819 Y70.221 E5.51066
G1 X158.158 Y71.047 E5.62617
G1 X160.552 Y71.817 E5.74326
G1 X162.986 Y72.526 E5.86131
G1 X165.419 Y73.159 E5.97837
G1 X167.865 Y73.723 E6.09526
G1 X170.369 Y74.226 E6.21419
G1 X172.853 Y74.652 E6.33154
G1 X173.525 Y74.754 E6.36319
G1 X174.555 Y74.934 E6.41188
G1 X175.319 Y75.099 E6.44827
G1 X175.914 Y75.247 E6.47682
G1 X176.476 Y75.403 E6.50398
G1 X177.186 Y75.626 E6.53863
G1 X177.582 Y75.762 E6.55813
G1 X178.128 Y75.965 E6.58525
G1 X178.828 Y76.261 E6.62064
G1 X179.333 Y76.494 E6.64654
G1 X180.497 Y77.122 E6.70813
G1 X181.055 Y77.47 E6.73875
G1 X181.86 Y78.024 E6.78425
G1 X182.634 Y78.667 E6.83111
G1 X183.017 Y79.018 E6.8553
G1 X183.68 Y79.683 E6.89902
G1 X184.301 Y80.426 E6.94411
G1 X184.724 Y81.018 E6.97799
G1 X184.996 Y81.427 E7.00086
G1 X185.495 Y82.262 E7.04616
G1 X185.92 Y83.138 E7.0915
G1 X186.243 Y83.982 E7.13358
G1 X186.581 Y85.23 E7.19378
G1 X186.659 Y85.599 E7.21134
G1 X186.805 Y86.49 E7.25339
G1 X186.885 Y87.639 E7.30702
G1 X186.899 Y88.488 E7.34656
G1 X186.899 Y132.282 E9.38579
G1 X186.888 Y132.977 E9.41815
G1 X186.828 Y133.968 E9.46438
G1 X186.686 Y134.907 E9.5086
G1 X186.59 Y135.38 E9.53108
G1 X186.355 Y136.326 E9.57647
G1 X186.038 Y137.244 E9.62169
G1 X185.672 Y138.07 E9.66376
G1 X185.086 Y139.11 E9.71934
G1 X184.871 Y139.446 E9.73792
G1 X184.31 Y140.241 E9.78323
G1 X183.707 Y140.955 E9.82674
G1 X183.161 Y141.507 E9.8629
G1 X182.731 Y141.912 E9.8904
G1 X181.983 Y142.552 E9.93624
G1 X181.027 Y143.221 E9.99057
G1 X180.416 Y143.598 E10.024
G1 X179.364 Y144.165 E10.07965
G1 X178.727 Y144.455 E10.11224
G1 X178.308 Y144.633 E10.13344
G1 X177.763 Y144.846 E10.16069
G1 X176.992 Y145.109 E10.19862
G1 X176.456 Y145.274 E10.22473
G1 X175.824 Y145.446 E10.25523
G1 X175.245 Y145.584 E10.28295
G1 X174.647 Y145.711 E10.31141
G1 X173.56 Y145.906 E10.36284
G1 X171.825 Y146.161 E10.44449
G1 X169.289 Y146.561 E10.56404
G1 X166.827 Y147.021 E10.68067
G1 X164.345 Y147.556 E10.79889
G1 X161.946 Y148.149 E10.91396
G1 X159.451 Y148.837 E11.03448
G1 X157.098 Y149.56 E11.1491
G1 X154.693 Y150.375 E11.26734
G1 X152.316 Y151.255 E11.38536
G1 X149.913 Y152.221 E11.50596
G1 X149.076 Y152.569 E11.54817
G1 X148.228 Y152.878 E11.5902
G1 X147.218 Y153.147 E11.63886
G1 X146.253 Y153.312 E11.68445
G1 X145.194 Y153.394 E11.73391
G1 X144.57 Y153.407 E11.76297
G1 X79.606 Y153.405 E14.78797
G1 X78.858 Y153.39 E14.82281
G1 X77.886 Y153.326 E14.86816
G1 X76.925 Y153.178 E14.91344
G1 X76.047 Y152.964 E14.95552
G1 X75.024 Y152.612 E15.0059
G1 X74.162 Y152.268 E15.04911
G1 X71.713 Y151.324 E15.17133
G1 X69.341 Y150.488 E15.28844
G1 X66.95 Y149.72 E15.40537
G1 X64.525 Y149.015 E15.52297
G1 X62.132 Y148.394 E15.63809
G1 X59.597 Y147.811 E15.75921
G1 X57.176 Y147.325 E15.87419
G1 X54.691 Y146.9 E15.99158
G1 X52.22 Y146.549 E16.1078
G1 X49.65 Y146.256 E16.22824
G1 X47.758 Y146.078 E16.31673
G1 X47.298 Y146.025 E16.33829
G1 X46.408 Y145.902 E16.38013
G1 X45.633 Y145.764 E16.41678
G1 X44.418 Y145.502 E16.47466
G1 X43.526 Y145.269 E16.51759
G1 X42.417 Y144.91 E16.57186
G1 X41.662 Y144.622 E16.60949
G1 X41.156 Y144.404 E16.63515
G1 X40.644 Y144.166 E16.66144
G1 X39.496 Y143.547 E16.72217
G1 X38.949 Y143.206 E16.75218
G1 X38.143 Y142.651 E16.79775
G1 X37.338 Y141.981 E16.84652
G1 X36.98 Y141.651 E16.86919
G1 X36.282 Y140.946 E16.91539
G1 X35.685 Y140.228 E16.95887
G1 X35.269 Y139.642 E16.99233
G1 X34.997 Y139.231 E17.01528
G1 X34.498 Y138.395 E17.06061
G1 X34.075 Y137.52 E17.10587
G1 X33.753 Y136.676 E17.14793
G1 X33.421 Y135.453 E17.20694
G1 X33.343 Y135.085 E17.22446
G1 X33.196 Y134.194 E17.26651
G1 X33.115 Y133.032 E17.32075
G1 X33.101 Y132.178 E17.36052
G1 X33.101 Y88.39 E19.39947
G1 X33.112 Y87.695 E19.43184
G1 X33.172 Y86.708 E19.47788
G1 X33.3 Y85.838 E19.51883
G1 X33.38 Y85.421 E19.5386
G1 X33.605 Y84.475 E19.58388
G1 X33.914 Y83.55 E19.62929
G1 X34.272 Y82.721 E19.67134
G1 X34.844 Y81.679 E19.72669
G1 X35.066 Y81.323 E19.74622
G1 X35.619 Y80.522 E19.79154
G1 X36.194 Y79.825 E19.83362
G1 X36.841 Y79.163 E19.87672
G1 X37.301 Y78.73 E19.90614
G1 X38.053 Y78.086 E19.95224
G1 X39.155 Y77.329 E20.01449
G1 X39.7 Y77.004 E20.04404
M204 S2000
G0 F7500 X39.905 Y77.348
M204 S500
G1 F1500 X41.026 Y76.768 E20.10281
G1 X41.683 Y76.477 E20.13627
G1 X42.428 Y76.181 E20.1736
G1 X43.123 Y75.946 E20.20776
G1 X43.664 Y75.78 E20.23411
G1 X44.365 Y75.591 E20.26792
G1 X45.239 Y75.389 E20.30969
G1 X45.998 Y75.237 E20.34573
G1 X46.443 Y75.165 E20.36672
G1 X47.207 Y75.061 E20.40263
G1 X48.521 Y74.918 E20.46417
G1 X51.072 Y74.604 E20.58385
G1 X53.559 Y74.225 E20.701
G1 X56.095 Y73.767 E20.82099
G1 X58.5 Y73.262 E20.93542
G1 X61 Y72.661 E21.05515
G1 X63.414 Y72.008 E21.1716
G1 X65.863 Y71.271 E21.29068
G1 X68.252 Y70.477 E21.40791
G1 X70.635 Y69.61 E21.52599
G1 X73.03 Y68.662 E21.64593
G1 X74.996 Y67.832 E21.7453
G1 X75.877 Y67.507 E21.78902
G1 X76.782 Y67.261 E21.83269
G1 X77.709 Y67.096 E21.87653
G1 X78.75 Y67.01 E21.92517
G1 X79.43 Y66.993 E21.95685
G1 X144.372 Y66.994 E24.98082
G1 X145.1 Y67.007 E25.01472
G1 X146.036 Y67.066 E25.05839
G1 X146.965 Y67.207 E25.10215
G1 X147.842 Y67.421 E25.14418
G1 X149.135 Y67.886 E25.20816
G1 X149.942 Y68.238 E25.24916
G1 X150.98 Y68.708 E25.30222
G1 X153.284 Y69.672 E25.41851
G1 X155.679 Y70.595 E25.53803
G1 X158.036 Y71.428 E25.65443
G1 X160.433 Y72.199 E25.77168
G1 X162.878 Y72.911 E25.89026
G1 X165.329 Y73.549 E26.00819
G1 X167.775 Y74.113 E26.12508
G1 X170.294 Y74.619 E26.24471
G1 X172.785 Y75.046 E26.3624
G1 X173.456 Y75.148 E26.394
G1 X174.471 Y75.325 E26.44198
G1 X175.223 Y75.487 E26.4778
G1 X175.807 Y75.632 E26.50582
G1 X176.356 Y75.785 E26.53235
G1 X177.066 Y76.008 E26.56701
G1 X177.443 Y76.137 E26.58556
G1 X177.973 Y76.334 E26.61189
G1 X178.661 Y76.624 E26.64665
G1 X179.143 Y76.846 E26.67136
G1 X180.286 Y77.462 E26.73182
G1 X180.829 Y77.8 E26.76161
G1 X181.604 Y78.332 E26.80538
G1 X182.378 Y78.975 E26.85223
G1 X182.734 Y79.301 E26.87471
G1 X183.373 Y79.94 E26.91679
G1 X183.994 Y80.683 E26.96188
G1 X184.391 Y81.239 E26.99369
G1 X184.653 Y81.633 E27.01572
G1 X185.135 Y82.437 E27.05937
G1 X185.546 Y83.281 E27.10309
G1 X185.869 Y84.125 E27.14517
G1 X186.19 Y85.313 E27.20247
G1 X186.264 Y85.664 E27.21917
G1 X186.41 Y86.555 E27.26121
G1 X186.485 Y87.646 E27.31214
G1 X186.499 Y88.495 E27.35167
G1 X186.499 Y132.276 E29.3903
G1 X186.489 Y132.953 E29.42183
G1 X186.432 Y133.908 E29.46638
G1 X186.29 Y134.847 E29.5106
G1 X186.202 Y135.284 E29.53135
G1 X185.977 Y136.196 E29.57509
G1 X185.672 Y137.082 E29.61873
G1 X185.306 Y137.908 E29.66079
G1 X184.749 Y138.895 E29.71357
G1 X184.544 Y139.216 E29.7313
G1 X184.004 Y139.983 E29.77498
G1 X183.401 Y140.697 E29.8185
G1 X182.887 Y141.216 E29.85251
G1 X182.47 Y141.609 E29.87919
G1 X181.754 Y142.224 E29.92314
G1 X180.798 Y142.893 E29.97747
G1 X180.226 Y143.246 E30.00877
G1 X179.174 Y143.813 E30.06442
G1 X178.571 Y144.087 E30.09526
G1 X178.162 Y144.26 E30.11594
G1 X177.617 Y144.473 E30.14319
G1 X176.875 Y144.727 E30.17971
G1 X176.351 Y144.888 E30.20523
G1 X175.731 Y145.057 E30.23515
G1 X175.162 Y145.193 E30.26239
G1 X174.576 Y145.317 E30.29029
G1 X173.502 Y145.51 E30.3411
G1 X171.767 Y145.765 E30.42275
G1 X169.219 Y146.167 E30.54287
G1 X166.748 Y146.629 E30.65992
G1 X164.261 Y147.165 E30.77838
G1 X161.84 Y147.763 E30.8945
G1 X159.345 Y148.452 E31.01503
G1 X156.97 Y149.181 E31.13071
G1 X154.565 Y149.996 E31.24896
G1 X152.177 Y150.88 E31.36753
G1 X149.764 Y151.85 E31.48862
G1 X148.939 Y152.193 E31.53023
G1 X148.091 Y152.502 E31.57225
G1 X147.15 Y152.753 E31.6176
G1 X146.222 Y152.913 E31.66145
G1 X145.186 Y152.994 E31.70984
G1 X144.57 Y153.007 E31.73853
G1 X79.614 Y153.005 E34.76315
G1 X78.884 Y152.991 E34.79715
G1 X77.947 Y152.931 E34.84087
G1 X77.02 Y152.789 E34.88454
G1 X76.142 Y152.575 E34.92662
G1 X75.172 Y152.241 E34.97439
G1 X74.306 Y151.895 E35.01781
G1 X71.857 Y150.951 E35.14003
G1 X69.463 Y150.107 E35.25823
G1 X67.072 Y149.339 E35.37516
G1 X64.632 Y148.63 E35.49348
G1 X62.222 Y148.004 E35.60942
G1 X59.687 Y147.421 E35.73054
G1 X57.255 Y146.933 E35.84605
G1 X54.747 Y146.504 E35.96453
G1 X52.276 Y146.153 E36.08074
G1 X49.687 Y145.858 E36.20208
G1 X47.804 Y145.681 E36.29014
G1 X47.353 Y145.629 E36.31128
G1 X46.478 Y145.508 E36.35241
G1 X45.717 Y145.373 E36.3884
G1 X44.519 Y145.115 E36.44546
G1 X43.649 Y144.888 E36.48733
G1 X42.56 Y144.536 E36.54062
G1 X41.805 Y144.248 E36.57825
G1 X41.324 Y144.041 E36.60263
G1 X40.834 Y143.814 E36.62778
G1 X39.707 Y143.207 E36.68738
G1 X39.175 Y142.876 E36.71656
G1 X38.399 Y142.343 E36.7604
G1 X37.609 Y141.686 E36.80824
G1 X37.264 Y141.369 E36.83006
G1 X36.59 Y140.69 E36.87461
G1 X35.993 Y139.972 E36.91809
G1 X35.602 Y139.421 E36.94955
G1 X35.34 Y139.026 E36.97162
G1 X34.858 Y138.221 E37.01531
G1 X34.449 Y137.377 E37.05898
G1 X34.127 Y136.533 E37.10104
G1 X33.812 Y135.37 E37.15715
G1 X33.738 Y135.02 E37.17381
G1 X33.591 Y134.129 E37.21586
G1 X33.515 Y133.025 E37.26738
G1 X33.501 Y132.171 E37.30716
G1 X33.501 Y88.396 E39.3455
G1 X33.511 Y87.719 E39.37703
G1 X33.568 Y86.766 E39.42149
G1 X33.693 Y85.913 E39.46163
G1 X33.769 Y85.513 E39.48059
G1 X33.985 Y84.601 E39.52423
G1 X34.281 Y83.709 E39.56799
G1 X34.639 Y82.88 E39.61004
G1 X35.183 Y81.891 E39.6626
G1 X35.396 Y81.55 E39.68132
G1 X35.928 Y80.777 E39.72501
G1 X36.503 Y80.08 E39.76709
G1 X37.115 Y79.454 E39.80785
G1 X37.562 Y79.033 E39.83644
G1 X38.28 Y78.416 E39.88053
G1 X39.36 Y77.673 E39.94157
G1 X39.905 Y77.348 E39.97111
M204 S2000
G0 F7500 X40.089 Y77.703
M204 S500
G1 F1500 X41.188 Y77.134 E40.02874
G1 X41.831 Y76.849 E40.06149
G1 X42.556 Y76.56 E40.09783
G1 X43.24 Y76.328 E40.13147
G1 X43.768 Y76.166 E40.15718
G1 X44.455 Y75.981 E40.19031
G1 X45.317 Y75.781 E40.23152
G1 X46.063 Y75.632 E40.26694
G1 X46.497 Y75.561 E40.28742
G1 X47.25 Y75.459 E40.3228
G1 X48.564 Y75.316 E40.38435
G1 X51.121 Y75.001 E40.50431
G1 X53.63 Y74.619 E40.62249
G1 X56.166 Y74.16 E40.74249
G1 X58.593 Y73.651 E40.85796
G1 X61.093 Y73.05 E40.97769
G1 X63.528 Y72.391 E41.09515
G1 X65.989 Y71.651 E41.21481
G1 X68.378 Y70.857 E41.33204
G1 X70.772 Y69.986 E41.45066
G1 X73.177 Y69.034 E41.5711
G1 X75.135 Y68.207 E41.67008
G1 X75.982 Y67.893 E41.71214
G1 X76.853 Y67.655 E41.75418
G1 X77.742 Y67.495 E41.79624
G1 X78.76 Y67.41 E41.84381
G1 X79.43 Y67.393 E41.87502
G1 X144.365 Y67.394 E44.89866
G1 X145.075 Y67.406 E44.93173
G1 X145.977 Y67.462 E44.97381
G1 X146.87 Y67.596 E45.01586
G1 X147.747 Y67.81 E45.05789
G1 X148.975 Y68.253 E45.11868
G1 X149.777 Y68.603 E45.15943
G1 X150.815 Y69.072 E45.21247
G1 X153.14 Y70.045 E45.32983
G1 X155.538 Y70.969 E45.44949
G1 X157.914 Y71.809 E45.56684
G1 X160.314 Y72.581 E45.68423
G1 X162.77 Y73.296 E45.80334
G1 X165.239 Y73.939 E45.92214
G1 X167.685 Y74.503 E46.03903
G1 X170.219 Y75.012 E46.15938
G1 X172.717 Y75.44 E46.27739
G1 X173.387 Y75.542 E46.30895
G1 X174.387 Y75.716 E46.35621
G1 X175.127 Y75.875 E46.39145
G1 X175.699 Y76.017 E46.4189
G1 X176.236 Y76.167 E46.44486
G1 X176.937 Y76.387 E46.47907
G1 X177.304 Y76.512 E46.49712
G1 X177.818 Y76.703 E46.52266
G1 X178.494 Y76.987 E46.5568
G1 X178.953 Y77.198 E46.58032
G1 X180.075 Y77.802 E46.63966
G1 X180.603 Y78.13 E46.6686
G1 X181.349 Y78.64 E46.71068
G1 X182.108 Y79.27 E46.75661
G1 X182.451 Y79.584 E46.77826
G1 X183.09 Y80.223 E46.82034
G1 X183.669 Y80.916 E46.86239
G1 X184.058 Y81.46 E46.89353
G1 X184.31 Y81.839 E46.91472
G1 X184.776 Y82.613 E46.95679
G1 X185.172 Y83.424 E46.99882
G1 X185.495 Y84.268 E47.0409
G1 X185.799 Y85.395 E47.09525
G1 X185.869 Y85.729 E47.11114
G1 X186.015 Y86.62 E47.15318
G1 X186.085 Y87.653 E47.20139
G1 X186.099 Y88.502 E47.24093
G1 X186.099 Y132.27 E49.27895
G1 X186.089 Y132.947 E49.31048
G1 X186.036 Y133.848 E49.35251
G1 X185.894 Y134.787 E49.39673
G1 X185.814 Y135.189 E49.41582
G1 X185.599 Y136.066 E49.45786
G1 X185.306 Y136.92 E49.4999
G1 X184.94 Y137.746 E49.54197
G1 X184.412 Y138.68 E49.59193
G1 X184.217 Y138.986 E49.60883
G1 X183.698 Y139.725 E49.65088
G1 X183.116 Y140.416 E49.69294
G1 X182.613 Y140.925 E49.72627
G1 X182.209 Y141.306 E49.75212
G1 X181.525 Y141.896 E49.79419
G1 X180.569 Y142.565 E49.84852
G1 X180.036 Y142.894 E49.87768
G1 X179.008 Y143.449 E49.93208
G1 X178.415 Y143.719 E49.96242
G1 X178.016 Y143.888 E49.9826
G1 X177.487 Y144.095 E50.00905
G1 X176.758 Y144.345 E50.04494
G1 X176.246 Y144.502 E50.06987
G1 X175.638 Y144.668 E50.09922
G1 X175.08 Y144.802 E50.12594
G1 X174.505 Y144.923 E50.1533
G1 X173.444 Y145.114 E50.2035
G1 X171.709 Y145.369 E50.28516
G1 X169.157 Y145.772 E50.40546
G1 X166.664 Y146.238 E50.52356
G1 X164.177 Y146.774 E50.64202
G1 X161.733 Y147.377 E50.75924
G1 X159.238 Y148.067 E50.87978
G1 X156.842 Y148.802 E50.99647
G1 X154.437 Y149.617 E51.11472
G1 X152.038 Y150.505 E51.23383
G1 X149.615 Y151.479 E51.35543
G1 X148.802 Y151.817 E51.39643
G1 X147.954 Y152.126 E51.43846
G1 X147.081 Y152.359 E51.48053
G1 X146.191 Y152.514 E51.52259
G1 X145.177 Y152.594 E51.56996
G1 X144.57 Y152.607 E51.59823
G1 X79.621 Y152.605 E54.62253
G1 X78.909 Y152.592 E54.65569
G1 X78.007 Y152.536 E54.69777
G1 X77.115 Y152.4 E54.73978
G1 X76.237 Y152.186 E54.78186
G1 X75.303 Y151.863 E54.82788
G1 X74.45 Y151.522 E54.87066
G1 X72.001 Y150.578 E54.99287
G1 X69.585 Y149.726 E55.11216
G1 X67.194 Y148.958 E55.2291
G1 X64.739 Y148.245 E55.34814
G1 X62.312 Y147.614 E55.4649
G1 X59.777 Y147.031 E55.58603
G1 X57.334 Y146.541 E55.70205
G1 X54.803 Y146.108 E55.82161
G1 X52.332 Y145.757 E55.93783
G1 X49.724 Y145.46 E56.06005
G1 X47.85 Y145.284 E56.1477
G1 X47.408 Y145.233 E56.16842
G1 X46.548 Y145.114 E56.20884
G1 X45.801 Y144.982 E56.24417
