;FLAVOR:Marlin
;TIME:3820
;Filament used: 2.61444m
;Layer height: 0.2
;MINX:33.101
;MINY:76.1
;MINZ:0.28
;MAXX:186.9
;MAXY:143.9
;MAXZ:2.08
;TARGET_MACHINE.NAME:Creality Ender-3 S1
;Generated with Cura_SteamEngine 5.6.0
M82 ;absolute extrusion mode
; Ender 3 S1 Start G-code
; M413 S0 ; Disable power loss recovery
G92 E0 ; Reset Extruder

; Prep surfaces before auto home for better accuracy
M140 S60
M104 S205

G28 ; Home all axes
G1 Z10.0 F3000 ; Move Z Axis up little to prevent scratching of Heat Bed
G1 X0 Y0

M190 S60
M109 S205

G1 X0.1 Y20 Z0.3 F5000.0 ; Move to start position
G1 X0.1 Y200.0 Z0.3 F1500.0 E15 ; Draw the first line
G1 X0.4 Y200.0 Z0.3 F5000.0 ; Move to side a little
G1 X0.4 Y20 Z0.3 F1500.0 E30 ; Draw the second line
G92 E0 ; Reset Extruder
G1 Z2.0 F3000 ; Move Z Axis up little to prevent scratching of Heat Bed
G1 X5 Y20 Z0.3 F5000.0 ; Move over to prevent blob squish

G92 E0
G92 E0
G1 F2700 E-0.8
;LAYER_COUNT:10
;LAYER:0
M107
M204 S2000
G0 F7500 X40.584 Y78.114 Z0.28
M204 S500
;TYPE:SKIRT
G1 F2700 E0
G1 F1500 X41.13 Y77.872 E0.02781
G1 X41.662 Y77.653 E0.0546
G1 X42.466 Y77.36 E0.09444
G1 X43.27 Y77.103 E0.13375
G1 X44.051 Y76.883 E0.17153
G1 X44.639 Y76.744 E0.19966
G1 X45.628 Y76.548 E0.24661
G1 X46.502 Y76.406 E0.28784
G1 X47.076 Y76.327 E0.31482
G1 X48.348 Y76.198 E0.37436
G1 X49.136 Y76.146 E0.41113
G1 X49.948 Y76.117 E0.44896
G1 X51.288 Y76.1 E0.51136
G1 X168.714 Y76.1 E5.97921
G1 X170.355 Y76.125 E6.05563
G1 X170.853 Y76.146 E6.07884
G1 X171.727 Y76.204 E6.11963
G1 X172.454 Y76.27 E6.15362
G1 X173.628 Y76.423 E6.20875
G1 X174.211 Y76.518 E6.23625
G1 X175.085 Y76.687 E6.2777
G1 X175.687 Y76.819 E6.3064
G1 X176.346 Y76.989 E6.33809
G1 X176.975 Y77.174 E6.36862
G1 X177.855 Y77.475 E6.41193
G1 X178.789 Y77.84 E6.45862
G1 X179.644 Y78.219 E6.50217
G1 X180.377 Y78.617 E6.54101
G1 X180.827 Y78.887 E6.56544
G1 X181.628 Y79.416 E6.61014
G1 X182.063 Y79.748 E6.63562
G1 X182.472 Y80.078 E6.66009
G1 X183.189 Y80.711 E6.70463
G1 X183.884 Y81.445 E6.7517
G1 X184.493 Y82.216 E6.79745
G1 X184.771 Y82.604 E6.81967
G1 X185.301 Y83.421 E6.86502
G1 X185.756 Y84.282 E6.91037
G1 X186.134 Y85.178 E6.95565
G1 X186.422 Y86.068 E6.99921
G1 X186.628 Y86.927 E7.04034
G1 X186.792 Y87.855 E7.08422
G1 X186.889 Y89.129 E7.14371
G1 X186.899 Y89.744 E7.17236
G1 X186.9 Y129.991 E9.04642
G1 X186.887 Y130.873 E9.0875
G1 X186.826 Y131.855 E9.13331
G1 X186.635 Y133.036 E9.18902
G1 X186.554 Y133.403 E9.20652
G1 X186.311 Y134.31 E9.25024
G1 X185.964 Y135.259 E9.29729
G1 X185.543 Y136.149 E9.34314
G1 X184.888 Y137.235 E9.40219
G1 X184.678 Y137.542 E9.41951
G1 X184.135 Y138.263 E9.46154
G1 X183.44 Y139.033 E9.50984
G1 X182.878 Y139.562 E9.54578
G1 X182.462 Y139.925 E9.57149
G1 X181.727 Y140.512 E9.61529
G1 X180.803 Y141.119 E9.66677
G1 X180.219 Y141.462 E9.6983
G1 X179.421 Y141.884 E9.74034
G1 X178.87 Y142.128 E9.7684
G1 X178.338 Y142.347 E9.79519
G1 X177.534 Y142.64 E9.83503
G1 X176.73 Y142.897 E9.87434
G1 X175.945 Y143.118 E9.91231
G1 X175.371 Y143.253 E9.93977
G1 X174.372 Y143.452 E9.9872
G1 X173.498 Y143.594 E10.02843
G1 X172.924 Y143.673 E10.05541
G1 X171.652 Y143.802 E10.11494
G1 X170.864 Y143.854 E10.15172
G1 X170.052 Y143.883 E10.18955
G1 X168.702 Y143.9 E10.25242
G1 X51.142 Y143.899 E15.7265
G1 X49.647 Y143.875 E15.79613
G1 X49.148 Y143.854 E15.81938
G1 X48.272 Y143.796 E15.86026
G1 X47.55 Y143.73 E15.89402
G1 X46.371 Y143.577 E15.94938
G1 X45.802 Y143.484 E15.97623
G1 X44.918 Y143.314 E16.01814
G1 X44.006 Y143.105 E16.06171
G1 X43.4 Y142.94 E16.09096
G1 X42.903 Y142.788 E16.11516
G1 X42.163 Y142.531 E16.15163
G1 X41.241 Y142.172 E16.1977
G1 X40.355 Y141.78 E16.24282
G1 X39.623 Y141.382 E16.28162
G1 X39.178 Y141.116 E16.30576
G1 X38.377 Y140.588 E16.35043
G1 X37.937 Y140.252 E16.37621
G1 X37.528 Y139.922 E16.40068
G1 X36.811 Y139.289 E16.44521
G1 X36.116 Y138.555 E16.49228
G1 X35.507 Y137.784 E16.53803
G1 X35.229 Y137.396 E16.56026
G1 X34.699 Y136.579 E16.6056
G1 X34.244 Y135.718 E16.65095
G1 X33.866 Y134.822 E16.69623
G1 X33.578 Y133.932 E16.73979
G1 X33.366 Y133.041 E16.78244
G1 X33.199 Y132.072 E16.82822
G1 X33.111 Y130.868 E16.88444
G1 X33.101 Y130.272 E16.91219
G1 X33.101 Y89.848 E18.7945
G1 X33.114 Y89.106 E18.82906
G1 X33.176 Y88.126 E18.87478
G1 X33.368 Y86.949 E18.93031
G1 X33.445 Y86.604 E18.94677
G1 X33.703 Y85.646 E18.99297
G1 X34.026 Y84.765 E19.03666
G1 X34.461 Y83.843 E19.08414
G1 X35.106 Y82.773 E19.14231
G1 X35.318 Y82.465 E19.15972
G1 X35.906 Y81.688 E19.20509
G1 X36.532 Y80.994 E19.24861
G1 X37.134 Y80.426 E19.28715
G1 X37.55 Y80.062 E19.31289
G1 X38.256 Y79.498 E19.35497
G1 X39.203 Y78.877 E19.4077
G1 X39.786 Y78.535 E19.43917
G1 X40.584 Y78.114 E19.48119
M204 S2000
G0 F7500 X40.771 Y78.468
M204 S500
G1 F1500 X41.282 Y78.242 E19.5072
G1 X41.799 Y78.029 E19.53324
G1 X42.588 Y77.741 E19.57235
G1 X43.379 Y77.488 E19.61102
G1 X44.143 Y77.272 E19.64799
G1 X44.717 Y77.136 E19.67546
G1 X45.692 Y76.943 E19.72174
G1 X46.556 Y76.802 E19.7625
G1 X47.117 Y76.725 E19.78887
G1 X48.374 Y76.597 E19.8477
G1 X49.15 Y76.546 E19.88392
G1 X49.953 Y76.517 E19.92133
G1 X51.293 Y76.5 E19.98373
G1 X168.708 Y76.5 E25.45107
G1 X170.339 Y76.525 E25.52702
G1 X170.827 Y76.545 E25.54976
G1 X171.691 Y76.602 E25.59008
G1 X172.402 Y76.667 E25.62333
G1 X173.564 Y76.818 E25.67789
G1 X174.135 Y76.911 E25.70483
G1 X175 Y77.078 E25.74585
G1 X175.587 Y77.206 E25.77383
G1 X176.233 Y77.373 E25.8049
G1 X176.862 Y77.558 E25.83543
G1 X177.71 Y77.848 E25.87716
G1 X178.627 Y78.206 E25.923
G1 X179.453 Y78.571 E25.96505
G1 X180.186 Y78.969 E26.00388
G1 X180.607 Y79.221 E26.02673
G1 X181.385 Y79.734 E26.07012
G1 X181.812 Y80.06 E26.09514
G1 X182.207 Y80.378 E26.11875
G1 X182.924 Y81.011 E26.16329
G1 X183.57 Y81.693 E26.20703
G1 X184.168 Y82.449 E26.25191
G1 X184.436 Y82.822 E26.2733
G1 X184.948 Y83.609 E26.31702
G1 X185.388 Y84.438 E26.36072
G1 X185.753 Y85.301 E26.40435
G1 X186.041 Y86.191 E26.44791
G1 X186.234 Y86.997 E26.4865
G1 X186.393 Y87.886 E26.52855
G1 X186.489 Y89.136 E26.58693
G1 X186.499 Y89.744 E26.61525
G1 X186.5 Y129.985 E28.48904
G1 X186.488 Y130.849 E28.52927
G1 X186.431 Y131.791 E28.57321
G1 X186.244 Y132.95 E28.62788
G1 X186.167 Y133.3 E28.64457
G1 X185.935 Y134.173 E28.68663
G1 X185.602 Y135.089 E28.73201
G1 X185.2 Y135.943 E28.77596
G1 X184.558 Y137.009 E28.83391
G1 X184.358 Y137.301 E28.85039
G1 X183.815 Y138.022 E28.89242
G1 X183.165 Y138.742 E28.93758
G1 X182.615 Y139.261 E28.9728
G1 X182.212 Y139.613 E28.99771
G1 X181.507 Y140.178 E29.03978
G1 X180.601 Y140.774 E29.09028
G1 X180.032 Y141.108 E29.121
G1 X179.234 Y141.53 E29.16304
G1 X178.718 Y141.758 E29.1893
G1 X178.201 Y141.971 E29.21534
G1 X177.412 Y142.259 E29.25445
G1 X176.621 Y142.512 E29.29312
G1 X175.853 Y142.729 E29.33028
G1 X175.293 Y142.861 E29.35707
G1 X174.308 Y143.057 E29.40384
G1 X173.444 Y143.198 E29.4446
G1 X172.883 Y143.275 E29.47097
G1 X171.626 Y143.403 E29.5298
G1 X170.85 Y143.454 E29.56601
G1 X170.047 Y143.483 E29.60343
G1 X168.702 Y143.5 E29.66606
G1 X51.148 Y143.499 E35.13987
G1 X49.663 Y143.475 E35.20903
G1 X49.174 Y143.455 E35.23182
G1 X48.309 Y143.398 E35.27218
G1 X47.601 Y143.333 E35.30529
G1 X46.435 Y143.182 E35.36004
G1 X45.877 Y143.091 E35.38636
G1 X45.007 Y142.924 E35.42761
G1 X44.111 Y142.719 E35.47041
G1 X43.517 Y142.558 E35.49907
G1 X43.034 Y142.41 E35.52259
G1 X42.308 Y142.158 E35.55838
G1 X41.402 Y141.806 E35.60363
G1 X40.546 Y141.429 E35.64719
G1 X39.828 Y141.039 E35.68523
G1 X39.398 Y140.782 E35.70856
G1 X38.62 Y140.27 E35.75193
G1 X38.188 Y139.94 E35.77724
G1 X37.793 Y139.622 E35.80085
G1 X37.076 Y138.989 E35.84539
G1 X36.43 Y138.307 E35.88913
G1 X35.832 Y137.551 E35.93402
G1 X35.564 Y137.178 E35.9554
G1 X35.052 Y136.391 E35.99912
G1 X34.612 Y135.562 E36.04282
G1 X34.247 Y134.699 E36.08645
G1 X33.959 Y133.809 E36.13001
G1 X33.76 Y132.972 E36.17007
G1 X33.598 Y132.043 E36.21398
G1 X33.511 Y130.861 E36.26917
G1 X33.501 Y130.265 E36.29693
G1 X33.501 Y89.855 E38.17859
G1 X33.513 Y89.131 E38.2123
G1 X33.571 Y88.19 E38.2562
G1 X33.759 Y87.035 E38.31069
G1 X33.831 Y86.708 E38.32629
G1 X34.079 Y85.784 E38.37083
G1 X34.402 Y84.903 E38.41453
G1 X34.804 Y84.049 E38.45848
G1 X35.436 Y82.999 E38.51554
G1 X35.637 Y82.706 E38.53209
G1 X36.203 Y81.956 E38.57584
G1 X36.807 Y81.285 E38.61788
G1 X37.398 Y80.727 E38.65573
G1 X37.8 Y80.375 E38.68061
G1 X38.506 Y79.811 E38.72268
G1 X39.405 Y79.222 E38.77273
G1 X39.973 Y78.889 E38.80339
G1 X40.771 Y78.468 E38.8454
M204 S2000
G0 F7500 X40.958 Y78.822
M204 S500
G1 F1500 X41.434 Y78.612 E38.86963
G1 X41.937 Y78.405 E38.89495
G1 X42.71 Y78.122 E38.93328
G1 X43.488 Y77.873 E38.97132
G1 X44.235 Y77.661 E39.00748
G1 X44.795 Y77.528 E39.03428
G1 X45.757 Y77.338 E39.07994
G1 X46.61 Y77.198 E39.12019
G1 X47.158 Y77.123 E39.14594
G1 X48.4 Y76.996 E39.20408
G1 X49.165 Y76.946 E39.23978
G1 X49.958 Y76.917 E39.27673
G1 X51.298 Y76.9 E39.33913
G1 X168.702 Y76.9 E44.80595
G1 X170.323 Y76.925 E44.88144
G1 X170.801 Y76.944 E44.90371
G1 X171.654 Y77 E44.94352
G1 X172.351 Y77.064 E44.97611
G1 X173.5 Y77.213 E45.03006
G1 X174.059 Y77.304 E45.05643
G1 X174.915 Y77.469 E45.09703
G1 X175.487 Y77.593 E45.12428
G1 X176.12 Y77.757 E45.15473
G1 X176.733 Y77.937 E45.18448
G1 X177.565 Y78.221 E45.22541
G1 X178.465 Y78.572 E45.2704
G1 X179.291 Y78.937 E45.31245
G1 X179.981 Y79.313 E45.34904
G1 X180.387 Y79.555 E45.37104
G1 X181.142 Y80.052 E45.41313
G1 X181.561 Y80.372 E45.43768
G1 X181.956 Y80.69 E45.4613
G1 X182.634 Y81.287 E45.50336
G1 X183.256 Y81.941 E45.54539
G1 X183.843 Y82.682 E45.58941
G1 X184.101 Y83.041 E45.60999
G1 X184.595 Y83.797 E45.65204
G1 X185.02 Y84.594 E45.6941
G1 X185.373 Y85.425 E45.73614
G1 X185.652 Y86.284 E45.7782
G1 X185.84 Y87.067 E45.81569
G1 X185.999 Y87.956 E45.85775
G1 X186.089 Y89.143 E45.91318
G1 X186.099 Y89.744 E45.94117
G1 X186.1 Y129.98 E47.81472
G1 X186.089 Y130.826 E47.85412
G1 X186.036 Y131.727 E47.89615
G1 X185.853 Y132.864 E47.94977
G1 X185.78 Y133.197 E47.96564
G1 X185.548 Y134.07 E48.00771
G1 X185.24 Y134.919 E48.04976
G1 X184.857 Y135.737 E48.09182
G1 X184.228 Y136.783 E48.14865
G1 X184.038 Y137.06 E48.16429
G1 X183.495 Y137.781 E48.20632
G1 X182.89 Y138.451 E48.24836
G1 X182.351 Y138.96 E48.28288
G1 X181.962 Y139.301 E48.30697
G1 X181.257 Y139.866 E48.34903
G1 X180.399 Y140.429 E48.39682
G1 X179.845 Y140.754 E48.42673
G1 X179.047 Y141.176 E48.46876
G1 X178.566 Y141.388 E48.49324
G1 X178.063 Y141.595 E48.51857
G1 X177.29 Y141.878 E48.5569
G1 X176.512 Y142.127 E48.59493
G1 X175.761 Y142.34 E48.63128
G1 X175.215 Y142.469 E48.65741
G1 X174.243 Y142.662 E48.70355
G1 X173.39 Y142.802 E48.7438
G1 X172.842 Y142.877 E48.76956
G1 X171.6 Y143.004 E48.82769
G1 X170.835 Y143.054 E48.86339
G1 X170.042 Y143.083 E48.90034
G1 X168.702 Y143.1 E48.96274
G1 X51.155 Y143.099 E54.43622
G1 X49.679 Y143.075 E54.50496
G1 X49.2 Y143.056 E54.52728
G1 X48.346 Y143 E54.56713
G1 X47.652 Y142.936 E54.59958
G1 X46.499 Y142.787 E54.65372
G1 X45.952 Y142.698 E54.67952
G1 X45.096 Y142.534 E54.72011
G1 X44.216 Y142.333 E54.76214
G1 X43.634 Y142.175 E54.79022
G1 X43.165 Y142.032 E54.81305
G1 X42.453 Y141.785 E54.84814
G1 X41.563 Y141.44 E54.89259
G1 X40.737 Y141.077 E54.9346
G1 X40.033 Y140.695 E54.9719
G1 X39.618 Y140.448 E54.99439
G1 X38.863 Y139.952 E55.03645
G1 X38.439 Y139.628 E55.0613
G1 X38.044 Y139.31 E55.08491
G1 X37.366 Y138.713 E55.12698
G1 X36.744 Y138.059 E55.169
G1 X36.157 Y137.318 E55.21302
G1 X35.899 Y136.959 E55.23361
G1 X35.405 Y136.203 E55.27566
G1 X34.98 Y135.406 E55.31772
G1 X34.627 Y134.575 E55.35976
G1 X34.348 Y133.716 E55.40181
G1 X34.154 Y132.902 E55.44078
G1 X33.997 Y132.013 E55.48281
G1 X33.911 Y130.854 E55.53693
G1 X33.901 Y130.258 E55.56469
G1 X33.901 Y89.861 E57.44574
G1 X33.912 Y89.155 E57.47862
G1 X33.966 Y88.254 E57.52065
G1 X34.15 Y87.121 E57.5741
G1 X34.222 Y86.794 E57.58969
G1 X34.455 Y85.921 E57.63176
G1 X34.764 Y85.073 E57.67379
G1 X35.147 Y84.255 E57.71585
G1 X35.766 Y83.225 E57.7718
G1 X35.957 Y82.946 E57.78755
G1 X36.5 Y82.224 E57.82961
G1 X37.104 Y81.553 E57.87165
G1 X37.661 Y81.028 E57.90729
G1 X38.05 Y80.688 E57.93135
G1 X38.756 Y80.124 E57.97343
G1 X39.607 Y79.567 E58.02078
G1 X40.16 Y79.243 E58.05063
G1 X40.958 Y78.822 E58.09264
M204 S2000
G1 F2700 E57.29264
;MESH:base thing v2.stl
G0 F7500 X59.863 Y99.256
G0 X65.364 Y106.052
G0 X65.649 Y106.269
G0 X65.978 Y105.637
M204 S500
;TYPE:WALL-OUTER
G1 F2700 E58.09264
G1 F1500 X65.79 Y105.549 E58.10231
G1 X55.718 Y92.129 E58.88362
G1 X55.744 Y91.836 E58.89731
G1 X55.963 Y91.7 E58.90932
G1 X76.054 Y91.698 E59.84484
G1 X76.248 Y91.836 E59.85592
G1 X76.301 Y91.975 E59.86285
G1 X76.255 Y92.16 E59.87173
G1 X66.218 Y105.542 E60.65064
G1 X65.978 Y105.637 E60.66266
M204 S2000
G1 F2700 E59.86266
G0 F7500 X65.649 Y106.269
G0 X63.709 Y104.385
G0 X62.881 Y108.371
G0 X63.919 Y110.328
G0 X63.919 Y111.006
G0 X53.388 Y125.038
G0 X52.92 Y124.999
G0 X53.079 Y124.303
M204 S500
G1 F2700 E60.66266
G1 F1500 X52.82 Y124.244 E60.67503
G1 X52.7 Y124.039 E60.68609
G1 X52.698 Y97.277 E61.93224
G1 X52.735 Y97.16 E61.93796
G1 X52.973 Y97.032 E61.95054
G1 X53.207 Y97.117 E61.96213
G1 X63.254 Y110.503 E62.74148
G1 X63.264 Y110.813 E62.75592
G1 X53.183 Y124.252 E63.53819
G1 X53.079 Y124.303 E63.54358
M204 S2000
G1 F2700 E62.74358
G0 F7500 X52.92 Y124.999
G0 X52.673 Y125.231
G0 X51.298 Y125.231
G0 X50.324 Y130.693
G0 X49.919 Y130.125
M204 S500
G1 F2700 E63.54358
G1 F1500 X49.657 Y130.303 E63.55833
G1 X46.342 Y130.303 E63.71269
G1 X46.079 Y130.117 E63.72769
G1 X45.946 Y129.779 E63.74461
G1 X45.859 Y129.242 E63.76994
G1 X45.776 Y128.398 E63.80943
G1 X45.715 Y127.214 E63.86463
G1 X45.702 Y126.631 E63.89179
G1 X45.697 Y93.993 E65.41155
G1 X45.716 Y92.785 E65.4678
G1 X45.741 Y92.163 E65.49679
G1 X45.816 Y91.132 E65.54493
G1 X45.874 Y90.659 E65.56712
G1 X45.957 Y90.177 E65.58989
G1 X46.076 Y89.885 E65.60457
G1 X46.341 Y89.698 E65.61967
G1 X49.611 Y89.698 E65.77194
G1 X49.72 Y89.735 E65.7773
G1 X49.943 Y89.933 E65.79119
G1 X50.053 Y90.215 E65.80528
G1 X50.132 Y90.697 E65.82802
G1 X50.189 Y91.177 E65.85053
G1 X50.259 Y92.164 E65.89661
G1 X50.298 Y93.325 E65.9507
G1 X50.298 Y126.635 E67.50175
G1 X50.259 Y127.838 E67.5578
G1 X50.187 Y128.832 E67.6042
G1 X50.135 Y129.282 E67.6253
G1 X50.043 Y129.823 E67.65085
G1 X49.919 Y130.125 E67.66605
M204 S2000
G1 F2700 E66.86605
G0 F7500 X50.324 Y130.693
G0 X48.763 Y131.449
G0 X49.035 Y131.471
G0 X50.626 Y132
G0 X50.626 Y132.7
M204 S500
G1 F2700 E67.66605
G1 F1500 X169.524 Y132.697 E73.20244
G1 X170.409 Y132.672 E73.24366
G1 X171.407 Y132.587 E73.2903
G1 X172.343 Y132.452 E73.33434
G1 X173.203 Y132.269 E73.37528
G1 X173.961 Y132.044 E73.4121
G1 X174.618 Y131.775 E73.44516
G1 X175.109 Y131.497 E73.47143
G1 X175.45 Y131.209 E73.49221
G1 X175.638 Y130.937 E73.50761
G1 X175.7 Y130.662 E73.52074
G1 X175.7 Y89.338 E75.44496
G1 X175.638 Y89.063 E75.45808
G1 X175.45 Y88.791 E75.47348
G1 X175.109 Y88.503 E75.49426
G1 X174.619 Y88.225 E75.52049
G1 X173.961 Y87.957 E75.55358
G1 X173.203 Y87.732 E75.5904
G1 X172.343 Y87.548 E75.63135
G1 X171.407 Y87.413 E75.67538
G1 X170.409 Y87.328 E75.72202
G1 X169.907 Y87.321 E75.7454
G1 X169.374 Y87.3 E75.77024
G1 X50.589 Y87.3 E81.30136
G1 X49.591 Y87.328 E81.34785
G1 X48.593 Y87.413 E81.39449
G1 X47.657 Y87.548 E81.43853
G1 X46.797 Y87.731 E81.47947
G1 X46.039 Y87.957 E81.5163
G1 X45.381 Y88.225 E81.54938
G1 X44.891 Y88.503 E81.57562
G1 X44.55 Y88.791 E81.5964
G1 X44.362 Y89.063 E81.6118
G1 X44.3 Y89.338 E81.62492
G1 X44.3 Y130.662 E83.54914
G1 X44.362 Y130.937 E83.56227
G1 X44.55 Y131.209 E83.57766
G1 X44.891 Y131.497 E83.59845
