;FLAVOR:Marlin
;TIME:2128
;Filament used: 1.48874m
;Layer height: 0.2
;MINX:64.1
;MINY:73.6
;MINZ:0.28
;MAXX:155.9
;MAXY:146.4
;MAXZ:2.08
;TARGET_MACHINE.NAME:Creality Ender-3 S1
;Generated with Cura_SteamEngine 5.6.0
M82 ;absolute extrusion mode
; Ender 3 S1 Start G-code
; M413 S0 ; Disable power loss recovery
G92 E0 ; Reset Extruder

; Prep surfaces before auto home for better accuracy
M140 S60
M104 S205

G28 ; Home all axes
G1 Z10.0 F3000 ; Move Z Axis up little to prevent scratching of Heat Bed
G1 X0 Y0

M190 S60
M109 S205

G1 X0.1 Y20 Z0.3 F5000.0 ; Move to start position
G1 X0.1 Y200.0 Z0.3 F1500.0 E15 ; Draw the first line
G1 X0.4 Y200.0 Z0.3 F5000.0 ; Move to side a little
G1 X0.4 Y20 Z0.3 F1500.0 E30 ; Draw the second line
G92 E0 ; Reset Extruder
G1 Z2.0 F3000 ; Move Z Axis up little to prevent scratching of Heat Bed
G1 X5 Y20 Z0.3 F5000.0 ; Move over to prevent blob squish

G92 E0
G92 E0
G1 F2700 E-0.8
;LAYER_COUNT:10
;LAYER:0
M107
M204 S2000
G0 F7500 X69.335 Y78.257 Z0.28
M204 S500
;TYPE:SKIRT
G1 F2700 E0
G1 F1500 X69.963 Y77.725 E0.03832
G1 X71.09 Y76.888 E0.10369
G1 X71.975 Y76.322 E0.15261
G1 X72.313 Y76.12 E0.17094
G1 X73.274 Y75.609 E0.22162
G1 X73.706 Y75.406 E0.24385
G1 X74.532 Y75.047 E0.28579
G1 X75.389 Y74.722 E0.32847
G1 X76.192 Y74.466 E0.36771
G1 X76.829 Y74.286 E0.39854
G1 X77.722 Y74.073 E0.44128
G1 X78.462 Y73.932 E0.47636
G1 X79.186 Y73.811 E0.51054
G1 X80.111 Y73.704 E0.5539
G1 X80.984 Y73.644 E0.59465
G1 X81.829 Y73.612 E0.63402
G1 X82.742 Y73.6 E0.67654
G1 X137.297 Y73.6 E3.21685
G1 X138.109 Y73.61 E3.25466
G1 X139.076 Y73.649 E3.29972
G1 X139.89 Y73.704 E3.33771
G1 X140.792 Y73.808 E3.37999
G1 X141.692 Y73.956 E3.42246
G1 X142.133 Y74.04 E3.44337
G1 X143.068 Y74.26 E3.48809
G1 X143.755 Y74.456 E3.52136
G1 X144.36 Y74.642 E3.55083
G1 X145.286 Y74.982 E3.59677
G1 X146.114 Y75.331 E3.63861
G1 X146.674 Y75.583 E3.6672
G1 X147.716 Y76.135 E3.72211
G1 X148.391 Y76.547 E3.75893
G1 X148.833 Y76.833 E3.78345
G1 X149.827 Y77.558 E3.84073
G1 X150.343 Y77.983 E3.87186
G1 X150.916 Y78.481 E3.90721
G1 X151.566 Y79.109 E3.9493
G1 X152.034 Y79.631 E3.98194
G1 X152.558 Y80.258 E4.01999
G1 X153.107 Y80.975 E4.06204
G1 X153.601 Y81.747 E4.10472
G1 X154.07 Y82.551 E4.14806
G1 X154.491 Y83.35 E4.19011
G1 X154.993 Y84.595 E4.25262
G1 X155.235 Y85.326 E4.28848
G1 X155.5 Y86.271 E4.33418
G1 X155.704 Y87.418 E4.38842
G1 X155.811 Y88.295 E4.42956
G1 X155.888 Y89.412 E4.4817
G1 X155.9 Y90.179 E4.51742
G1 X155.899 Y129.851 E6.36471
G1 X155.889 Y130.577 E6.39852
G1 X155.854 Y131.291 E6.43181
G1 X155.785 Y132.013 E6.46558
G1 X155.733 Y132.452 E6.48617
G1 X155.57 Y133.415 E6.53164
G1 X155.306 Y134.419 E6.57998
G1 X155.039 Y135.265 E6.62129
G1 X154.73 Y136.113 E6.66332
G1 X154.132 Y137.341 E6.72692
G1 X153.736 Y138.039 E6.76429
G1 X153.221 Y138.859 E6.80938
G1 X152.749 Y139.491 E6.84611
G1 X152.29 Y140.06 E6.88015
G1 X151.798 Y140.633 E6.91531
G1 X151.118 Y141.336 E6.96086
G1 X150.659 Y141.747 E6.98955
G1 X149.983 Y142.318 E7.03075
G1 X148.904 Y143.118 E7.0933
G1 X148.083 Y143.644 E7.1387
G1 X147.69 Y143.879 E7.16002
G1 X146.73 Y144.39 E7.21066
G1 X146.037 Y144.709 E7.24618
G1 X145.592 Y144.9 E7.26873
G1 X144.653 Y145.254 E7.31546
G1 X143.779 Y145.537 E7.35824
G1 X143.208 Y145.706 E7.38597
G1 X142.278 Y145.927 E7.43048
G1 X141.538 Y146.068 E7.46555
G1 X140.814 Y146.189 E7.49973
G1 X139.889 Y146.296 E7.54309
G1 X139.016 Y146.356 E7.58384
G1 X138.171 Y146.388 E7.62321
G1 X137.248 Y146.4 E7.6662
G1 X82.56 Y146.399 E10.2127
G1 X81.891 Y146.39 E10.24385
G1 X80.925 Y146.351 E10.28887
G1 X80.11 Y146.296 E10.32691
G1 X79.208 Y146.192 E10.36919
G1 X78.308 Y146.044 E10.41166
G1 X77.85 Y145.956 E10.43337
G1 X76.93 Y145.739 E10.47739
G1 X75.969 Y145.464 E10.52393
G1 X75.521 Y145.322 E10.54582
G1 X74.63 Y144.997 E10.58998
G1 X73.911 Y144.688 E10.62642
G1 X73.273 Y144.391 E10.65919
G1 X72.362 Y143.91 E10.70716
G1 X71.661 Y143.487 E10.74528
G1 X71.176 Y143.174 E10.77216
G1 X70.152 Y142.426 E10.83121
G1 X69.646 Y142.007 E10.8618
G1 X69.09 Y141.524 E10.89609
G1 X68.44 Y140.897 E10.93815
G1 X67.961 Y140.363 E10.97155
G1 X67.436 Y139.734 E11.0097
G1 X66.869 Y138.989 E11.05329
G1 X66.396 Y138.248 E11.09423
G1 X65.929 Y137.447 E11.1374
G1 X65.508 Y136.648 E11.17946
G1 X65.007 Y135.405 E11.24186
G1 X64.764 Y134.671 E11.27786
G1 X64.499 Y133.725 E11.32361
G1 X64.294 Y132.569 E11.37828
G1 X64.188 Y131.695 E11.41927
G1 X64.111 Y130.582 E11.47122
G1 X64.101 Y129.965 E11.49996
G1 X64.1 Y90.297 E13.34706
G1 X64.111 Y89.425 E13.38767
G1 X64.145 Y88.721 E13.42049
G1 X64.214 Y87.995 E13.45445
G1 X64.266 Y87.556 E13.47503
G1 X64.421 Y86.629 E13.5188
G1 X64.687 Y85.606 E13.56802
G1 X64.955 Y84.756 E13.60952
G1 X65.295 Y83.83 E13.65545
G1 X65.839 Y82.713 E13.7133
G1 X66.26 Y81.968 E13.75315
G1 X66.756 Y81.175 E13.7967
G1 X67.256 Y80.504 E13.83567
G1 X67.717 Y79.932 E13.86987
G1 X68.226 Y79.341 E13.90619
G1 X68.853 Y78.691 E13.94825
G1 X69.335 Y78.257 E13.97845
M204 S2000
G0 F7500 X69.594 Y78.562
M204 S500
G1 F1500 X70.222 Y78.03 E14.01677
G1 X71.306 Y77.225 E14.07964
G1 X72.18 Y76.665 E14.12798
G1 X72.501 Y76.473 E14.1454
G1 X73.444 Y75.971 E14.19514
G1 X73.866 Y75.773 E14.21685
G1 X74.674 Y75.421 E14.25788
G1 X75.511 Y75.103 E14.29958
G1 X76.301 Y74.851 E14.33819
G1 X76.922 Y74.675 E14.36824
G1 X77.797 Y74.466 E14.41013
G1 X78.528 Y74.326 E14.44479
G1 X79.232 Y74.208 E14.47803
G1 X80.138 Y74.103 E14.5205
G1 X80.999 Y74.044 E14.56068
G1 X81.834 Y74.012 E14.59959
G1 X82.747 Y74 E14.64211
G1 X137.292 Y74 E17.18195
G1 X138.093 Y74.01 E17.21926
G1 X139.049 Y74.048 E17.26381
G1 X139.844 Y74.101 E17.30091
G1 X140.727 Y74.203 E17.3423
G1 X141.617 Y74.349 E17.38429
G1 X142.058 Y74.433 E17.4052
G1 X142.959 Y74.645 E17.4483
G1 X143.638 Y74.838 E17.48117
G1 X144.222 Y75.017 E17.50961
G1 X145.131 Y75.351 E17.5547
G1 X145.95 Y75.696 E17.59608
G1 X146.51 Y75.948 E17.62468
G1 X147.508 Y76.477 E17.67727
G1 X148.174 Y76.883 E17.71359
G1 X148.597 Y77.156 E17.73704
G1 X149.573 Y77.867 E17.79326
G1 X150.081 Y78.285 E17.8239
G1 X150.638 Y78.769 E17.85826
G1 X151.288 Y79.397 E17.90034
G1 X151.727 Y79.888 E17.93101
G1 X152.24 Y80.501 E17.96823
G1 X152.789 Y81.218 E18.01028
G1 X153.256 Y81.949 E18.05067
G1 X153.716 Y82.737 E18.09316
G1 X154.137 Y83.536 E18.13521
G1 X154.613 Y84.721 E18.19468
G1 X154.85 Y85.435 E18.22971
G1 X155.106 Y86.341 E18.27355
G1 X155.307 Y87.467 E18.32681
G1 X155.412 Y88.323 E18.36696
G1 X155.488 Y89.418 E18.41807
G1 X155.5 Y90.179 E18.45351
G1 X155.499 Y129.845 E20.30053
G1 X155.489 Y130.557 E20.33369
G1 X155.454 Y131.271 E20.36697
G1 X155.388 Y131.966 E20.39948
G1 X155.338 Y132.386 E20.41918
G1 X155.183 Y133.313 E20.46294
G1 X154.924 Y134.299 E20.51041
G1 X154.663 Y135.128 E20.55088
G1 X154.354 Y135.976 E20.59291
G1 X153.784 Y137.144 E20.65342
G1 X153.397 Y137.827 E20.68998
G1 X152.9 Y138.62 E20.73356
G1 X152.438 Y139.24 E20.76956
G1 X151.987 Y139.799 E20.803
G1 X151.495 Y140.372 E20.83817
G1 X150.831 Y141.058 E20.88263
G1 X150.401 Y141.442 E20.90947
G1 X149.745 Y141.997 E20.94948
G1 X148.688 Y142.781 E21.01076
G1 X147.867 Y143.307 E21.05616
G1 X147.502 Y143.526 E21.07598
G1 X146.562 Y144.027 E21.12558
G1 X145.879 Y144.342 E21.16061
G1 X145.451 Y144.526 E21.1823
G1 X144.53 Y144.873 E21.22813
G1 X143.665 Y145.153 E21.27046
G1 X143.094 Y145.322 E21.29819
G1 X142.203 Y145.534 E21.34084
G1 X141.472 Y145.674 E21.3755
G1 X140.768 Y145.792 E21.40873
G1 X139.862 Y145.897 E21.4512
G1 X139.001 Y145.956 E21.49139
G1 X138.166 Y145.988 E21.5303
G1 X137.248 Y146 E21.57305
G1 X82.565 Y145.999 E24.11932
G1 X81.907 Y145.99 E24.14996
G1 X80.952 Y145.952 E24.19446
G1 X80.156 Y145.899 E24.23161
G1 X79.273 Y145.797 E24.273
G1 X78.383 Y145.651 E24.315
G1 X77.942 Y145.567 E24.3359
G1 X77.04 Y145.354 E24.37906
G1 X76.079 Y145.079 E24.4256
G1 X75.658 Y144.946 E24.44616
G1 X74.788 Y144.629 E24.48928
G1 X74.08 Y144.325 E24.52515
G1 X73.46 Y144.037 E24.55699
G1 X72.549 Y143.556 E24.60496
G1 X71.878 Y143.151 E24.64145
G1 X71.412 Y142.851 E24.66726
G1 X70.407 Y142.118 E24.72518
G1 X69.908 Y141.705 E24.75534
G1 X69.368 Y141.236 E24.78865
G1 X68.718 Y140.609 E24.8307
G1 X68.268 Y140.106 E24.86213
G1 X67.754 Y139.491 E24.89945
G1 X67.206 Y138.773 E24.94151
G1 X66.741 Y138.046 E24.98169
G1 X66.283 Y137.261 E25.02401
G1 X65.862 Y136.462 E25.06606
G1 X65.387 Y135.279 E25.12542
G1 X65.149 Y134.562 E25.1606
G1 X64.893 Y133.655 E25.20448
G1 X64.691 Y132.521 E25.25812
G1 X64.587 Y131.667 E25.29818
G1 X64.511 Y130.575 E25.34915
G1 X64.501 Y129.965 E25.37756
G1 X64.5 Y90.302 E27.22443
G1 X64.511 Y89.444 E27.26439
G1 X64.545 Y88.74 E27.29721
G1 X64.611 Y88.042 E27.32986
G1 X64.661 Y87.622 E27.34955
G1 X64.816 Y86.695 E27.39331
G1 X65.069 Y85.726 E27.43995
G1 X65.331 Y84.893 E27.48061
G1 X65.655 Y84.005 E27.52462
G1 X66.199 Y82.888 E27.58248
G1 X66.599 Y82.18 E27.62034
G1 X67.095 Y81.387 E27.6639
G1 X67.567 Y80.755 E27.70063
G1 X68.02 Y80.193 E27.73424
G1 X68.514 Y79.619 E27.7695
G1 X69.141 Y78.969 E27.81155
G1 X69.594 Y78.562 E27.83991
M204 S2000
G0 F7500 X69.853 Y78.867
M204 S500
G1 F1500 X70.481 Y78.335 E27.87824
G1 X71.522 Y77.562 E27.93861
G1 X72.386 Y77.008 E27.9864
G1 X72.689 Y76.826 E28.00286
G1 X73.614 Y76.333 E28.05167
G1 X74.026 Y76.14 E28.07285
G1 X74.816 Y75.795 E28.11299
G1 X75.633 Y75.484 E28.1537
G1 X76.41 Y75.236 E28.19168
G1 X77.015 Y75.064 E28.22097
G1 X77.873 Y74.859 E28.26204
G1 X78.594 Y74.72 E28.29623
G1 X79.278 Y74.605 E28.32853
G1 X80.165 Y74.502 E28.37011
G1 X81.015 Y74.444 E28.40978
G1 X81.839 Y74.412 E28.44818
G1 X82.752 Y74.4 E28.4907
G1 X137.287 Y74.4 E31.03008
G1 X138.077 Y74.41 E31.06686
G1 X139.023 Y74.447 E31.11095
G1 X139.798 Y74.498 E31.14711
G1 X140.662 Y74.598 E31.18761
G1 X141.543 Y74.742 E31.22918
G1 X141.966 Y74.822 E31.24923
G1 X142.85 Y75.03 E31.29151
G1 X143.521 Y75.22 E31.32399
G1 X144.084 Y75.393 E31.35141
G1 X144.976 Y75.72 E31.39565
G1 X145.786 Y76.061 E31.43657
G1 X146.323 Y76.302 E31.46398
G1 X147.3 Y76.819 E31.51545
G1 X147.958 Y77.219 E31.55131
G1 X148.362 Y77.479 E31.57368
G1 X149.319 Y78.176 E31.62881
G1 X149.819 Y78.587 E31.65894
G1 X150.36 Y79.057 E31.69231
G1 X151.01 Y79.685 E31.7344
G1 X151.42 Y80.145 E31.76309
G1 X151.922 Y80.744 E31.79948
G1 X152.471 Y81.461 E31.84153
G1 X152.911 Y82.151 E31.87964
G1 X153.362 Y82.923 E31.92127
G1 X153.783 Y83.722 E31.96333
G1 X154.233 Y84.847 E32.01975
G1 X154.465 Y85.544 E32.05395
G1 X154.712 Y86.412 E32.09597
G1 X154.91 Y87.516 E32.1482
G1 X155.013 Y88.351 E32.18738
G1 X155.088 Y89.424 E32.23746
G1 X155.1 Y90.179 E32.27262
G1 X155.099 Y129.839 E34.11936
G1 X155.089 Y130.537 E34.15186
G1 X155.054 Y131.251 E34.18515
G1 X154.991 Y131.919 E34.21639
G1 X154.943 Y132.321 E34.23524
G1 X154.796 Y133.212 E34.27729
G1 X154.543 Y134.179 E34.32384
G1 X154.287 Y134.991 E34.36348
G1 X153.978 Y135.839 E34.40551
G1 X153.436 Y136.947 E34.46294
G1 X153.058 Y137.615 E34.49868
G1 X152.579 Y138.381 E34.54075
G1 X152.126 Y138.989 E34.57606
G1 X151.684 Y139.538 E34.60887
G1 X151.192 Y140.111 E34.64404
G1 X150.564 Y140.76 E34.68609
G1 X150.143 Y141.137 E34.71241
G1 X149.506 Y141.676 E34.75126
G1 X148.472 Y142.444 E34.81124
G1 X147.661 Y142.964 E34.8561
G1 X147.314 Y143.173 E34.87496
G1 X146.374 Y143.674 E34.92456
G1 X145.72 Y143.975 E34.95808
G1 X145.31 Y144.152 E34.97888
G1 X144.407 Y144.492 E35.02381
G1 X143.551 Y144.769 E35.0657
G1 X142.98 Y144.938 E35.09343
G1 X142.127 Y145.141 E35.13426
G1 X141.406 Y145.28 E35.16845
G1 X140.722 Y145.395 E35.20075
G1 X139.835 Y145.498 E35.24233
G1 X138.985 Y145.556 E35.282
G1 X138.161 Y145.588 E35.3204
G1 X137.248 Y145.6 E35.36291
G1 X82.571 Y145.599 E37.9089
G1 X81.923 Y145.59 E37.93908
G1 X80.978 Y145.553 E37.98312
G1 X80.202 Y145.502 E38.01933
G1 X79.338 Y145.402 E38.05983
G1 X78.457 Y145.258 E38.10139
G1 X78.034 Y145.178 E38.12144
G1 X77.15 Y144.97 E38.16373
G1 X76.199 Y144.697 E38.2098
G1 X75.795 Y144.57 E38.22952
G1 X74.946 Y144.261 E38.27159
G1 X74.248 Y143.962 E38.30695
G1 X73.647 Y143.683 E38.3378
G1 X72.736 Y143.202 E38.38577
G1 X72.094 Y142.814 E38.4207
G1 X71.648 Y142.528 E38.44537
G1 X70.662 Y141.809 E38.50219
G1 X70.17 Y141.403 E38.5319
G1 X69.646 Y140.948 E38.56421
G1 X68.996 Y140.321 E38.60626
G1 X68.575 Y139.849 E38.63571
G1 X68.072 Y139.248 E38.67221
G1 X67.524 Y138.53 E38.71427
G1 X67.086 Y137.844 E38.75216
G1 X66.637 Y137.075 E38.79363
G1 X66.216 Y136.276 E38.83568
G1 X65.767 Y135.153 E38.892
G1 X65.534 Y134.453 E38.92635
G1 X65.287 Y133.585 E38.96837
G1 X65.088 Y132.472 E39.02102
G1 X64.986 Y131.639 E39.0601
G1 X64.911 Y130.568 E39.11009
G1 X64.901 Y129.965 E39.13817
G1 X64.9 Y90.307 E40.98482
G1 X64.911 Y89.463 E41.02412
G1 X64.945 Y88.759 E41.05694
G1 X65.008 Y88.089 E41.08827
G1 X65.056 Y87.687 E41.10713
G1 X65.203 Y86.796 E41.14918
G1 X65.451 Y85.846 E41.19489
G1 X65.707 Y85.029 E41.23476
G1 X66.015 Y84.18 E41.27682
G1 X66.559 Y83.063 E41.33467
G1 X66.938 Y82.392 E41.37055
G1 X67.416 Y81.626 E41.4126
G1 X67.878 Y81.006 E41.4486
G1 X68.323 Y80.454 E41.48161
G1 X68.802 Y79.897 E41.51582
G1 X69.429 Y79.247 E41.55788
G1 X69.853 Y78.867 E41.58439
M204 S2000
G1 F2700 E40.78439
;MESH:base thing.stl
G0 F7500 X90.459 Y88.654
G0 X105.677 Y104.942
G0 X106.471 Y105.374
G0 X106.114 Y104.775
M204 S500
;TYPE:WALL-OUTER
G1 F2700 E41.58439
G1 F1503.8 X105.937 Y104.788 E41.59263
G1 X105.809 Y104.73 E41.59916
G1 F1500 X90.695 Y88.613 E42.628
G1 X90.745 Y88.335 E42.64115
G1 X90.962 Y88.199 E42.65307
G1 X106.101 Y88.197 E43.35801
G1 X106.18 Y88.242 E43.36224
G1 X106.297 Y88.45 E43.37335
G1 X106.3 Y104.583 E44.12457
G1 X106.219 Y104.711 E44.13163
G1 X106.114 Y104.775 E44.13735
M204 S2000
G1 F2700 E43.33735
G0 F7500 X106.471 Y105.374
G0 X106.036 Y105.665
G0 X107.015 Y107.216
G0 X106.806 Y108.139
G0 X106.545 Y108.338
G0 X106.232 Y107.695
M204 S500
G1 F2700 E44.13735
G1 F1500 X106.048 Y107.797 E44.14715
G1 X90.947 Y107.803 E44.85032
G1 X90.814 Y107.752 E44.85695
G1 X90.699 Y107.535 E44.86838
G1 X90.698 Y91.422 E45.61867
G1 X90.727 Y91.344 E45.62255
G1 X90.885 Y91.224 E45.63179
G1 X91.062 Y91.21 E45.64005
G1 X91.19 Y91.269 E45.64662
G1 X106.249 Y107.329 E46.67177
G1 X106.304 Y107.466 E46.67864
G1 X106.232 Y107.695 E46.68982
M204 S2000
G1 F2700 E45.88982
G0 F7500 X106.545 Y108.338
G0 X106.806 Y108.139
G0 X107.015 Y107.216
G0 X106.036 Y105.665
G0 X116.717 Y107.653
G0 X117.165 Y108.049
G0 X117.801 Y107.739
M204 S500
G1 F2700 E46.68982
G1 F1500 X117.7 Y107.535 E46.70042
G1 X117.698 Y91.401 E47.45168
G1 X117.863 Y91.236 E47.46255
G1 X118.033 Y91.205 E47.4706
G1 X118.171 Y91.251 E47.47737
G1 X136.238 Y107.309 E48.60291
G1 X136.306 Y107.458 E48.61054
G1 X136.233 Y107.694 E48.62204
G1 X136.05 Y107.797 E48.63182
G1 X117.948 Y107.803 E49.47472
G1 X117.801 Y107.739 E49.48219
M204 S2000
G1 F2700 E48.68219
G0 F7500 X117.165 Y108.049
G0 X117.427 Y108.435
G0 X136.196 Y108.44
G0 X136.807 Y108.14
G0 X137.028 Y107.164
G0 X136.51 Y106.706
G0 X135.781 Y105.467
G0 X135.968 Y104.794
M204 S500
G1 F2700 E49.48219
G1 F1500 X135.83 Y104.748 E49.48896
G1 X117.742 Y88.669 E50.61588
G1 X117.699 Y88.501 E50.62396
G1 X117.769 Y88.304 E50.63369
G1 X117.962 Y88.199 E50.64392
G1 X136.105 Y88.197 E51.48874
G1 X136.202 Y88.263 E51.4942
G1 X136.299 Y88.457 E51.5043
G1 X136.301 Y104.618 E52.25682
G1 X136.138 Y104.763 E52.26698
G1 X135.968 Y104.794 E52.27503
M204 S2000
G1 F2700 E51.47503
G0 F7500 X135.781 Y105.467
G0 X136.674 Y106.851
G0 X137.028 Y107.164
G0 X136.807 Y108.14
G0 X135.786 Y108.782
G0 X135.786 Y110.198
G0 X136.324 Y110.964
G0 X136.541 Y111.395
G0 X136.538 Y127.763
G0 X135.781 Y128.468
G0 X135.968 Y127.795
M204 S500
G1 F2700 E52.27503
