;FLAVOR:Marlin
;TIME:310
;Filament used: 0.214488m
;Layer height: 0.2
;MINX:70.983
;MINY:65.499
;MINZ:0.28
;MAXX:158.739
;MAXY:143.258
;MAXZ:0.68
;TARGET_MACHINE.NAME:Creality Ender-3 S1
;Generated with Cura_SteamEngine 5.6.0
M82 ;absolute extrusion mode
; Ender 3 S1 Start G-code
; M413 S0 ; Disable power loss recovery
G92 E0 ; Reset Extruder

; Prep surfaces before auto home for better accuracy
M140 S60
M104 S205

G28 ; Home all axes
G1 Z10.0 F3000 ; Move Z Axis up little to prevent scratching of Heat Bed
G1 X0 Y0

M190 S60
M109 S205

G1 X0.1 Y20 Z0.3 F5000.0 ; Move to start position
G1 X0.1 Y200.0 Z0.3 F1500.0 E15 ; Draw the first line
G1 X0.4 Y200.0 Z0.3 F5000.0 ; Move to side a little
G1 X0.4 Y20 Z0.3 F1500.0 E30 ; Draw the second line
G92 E0 ; Reset Extruder
G1 Z2.0 F3000 ; Move Z Axis up little to prevent scratching of Heat Bed
G1 X5 Y20 Z0.3 F5000.0 ; Move over to prevent blob squish

G92 E0
G92 E0
G1 F2700 E-0.8
;LAYER_COUNT:3
;LAYER:0
M107
M204 S2000
G0 F7500 X76.687 Y88.179 Z0.28
M204 S500
;TYPE:SKIRT
G1 F2700 E0
G1 F1500 X77.234 Y87.756 E0.0322
G1 X79.178 Y86.208 E0.14791
G1 X81.148 Y84.549 E0.26784
G1 X83.005 Y82.894 E0.38366
G1 X84.847 Y81.151 E0.50175
G1 X86.617 Y79.38 E0.61834
G1 X88.357 Y77.542 E0.73619
G1 X90.032 Y75.664 E0.85337
G1 X91.649 Y73.748 E0.97011
G1 X93.261 Y71.724 E1.0906
G1 X93.697 Y71.162 E1.12372
G1 X94.355 Y70.394 E1.17081
G1 X94.88 Y69.847 E1.20611
G1 X95.722 Y69.019 E1.2611
G1 X96.448 Y68.369 E1.30648
G1 X97.228 Y67.786 E1.35182
G1 X98.056 Y67.275 E1.39713
G1 X98.926 Y66.839 E1.44244
G1 X99.821 Y66.483 E1.48729
G1 X100.404 Y66.3 E1.51574
G1 X101.524 Y65.99 E1.56986
G1 X102.25 Y65.81 E1.60469
G1 X103.205 Y65.619 E1.65003
G1 X104.103 Y65.519 E1.69211
G1 X105.282 Y65.499 E1.74701
G1 X107.028 Y65.564 E1.82837
G1 X109.545 Y65.611 E1.94559
G1 X112.112 Y65.585 E2.06513
G1 X114.469 Y65.499 E2.17496
G1 X115.281 Y65.499 E2.21277
G1 X117.028 Y65.564 E2.29417
G1 X119.545 Y65.611 E2.41139
G1 X122.101 Y65.585 E2.53042
G1 X124.525 Y65.501 E2.64336
G1 X125.498 Y65.513 E2.68867
G1 X126.434 Y65.607 E2.73247
G1 X127.58 Y65.832 E2.78685
G1 X128.39 Y66.04 E2.82579
G1 X129.345 Y66.309 E2.87199
G1 X130.268 Y66.619 E2.91733
G1 X131.161 Y67.01 E2.96272
G1 X132.014 Y67.478 E3.00803
G1 X132.8 Y68.003 E3.05204
G1 X133.807 Y68.836 E3.11289
G1 X134.403 Y69.408 E3.15136
G1 X135.229 Y70.249 E3.20625
G1 X135.96 Y71.035 E3.25623
G1 X136.873 Y72.054 E3.31994
G1 X138.639 Y73.923 E3.43967
G1 X140.378 Y75.659 E3.55409
G1 X143.229 Y78.314 E3.73549
G1 X143.623 Y78.665 E3.76006
G1 X144.109 Y79.118 E3.791
G1 X144.407 Y79.41 E3.81043
G1 X145.474 Y80.507 E3.88169
G1 X146.872 Y82.054 E3.97878
G1 X148.652 Y83.938 E4.09947
G1 X150.386 Y85.666 E4.21346
G1 X153.247 Y88.331 E4.39552
G1 X153.656 Y88.696 E4.42104
G1 X154.381 Y89.385 E4.46762
G1 X155.231 Y90.251 E4.52412
G1 X155.88 Y90.977 E4.56946
G1 X156.462 Y91.758 E4.61482
G1 X156.974 Y92.588 E4.66023
G1 X157.415 Y93.473 E4.70627
G1 X157.885 Y94.734 E4.76893
G1 X158.098 Y95.47 E4.80461
G1 X158.4 Y96.636 E4.8607
G1 X158.6 Y97.588 E4.90599
G1 X158.716 Y98.566 E4.95185
G1 X158.739 Y99.761 E5.00751
G1 X158.677 Y101.505 E5.08877
G1 X158.629 Y104.055 E5.20753
G1 X158.655 Y106.617 E5.32683
G1 X158.739 Y109.041 E5.43977
G1 X158.727 Y110.015 E5.48513
G1 X158.628 Y110.986 E5.53057
G1 X158.426 Y112.022 E5.57972
G1 X158.242 Y112.745 E5.61446
G1 X157.95 Y113.795 E5.66521
G1 X157.646 Y114.721 E5.71059
G1 X157.256 Y115.624 E5.75639
G1 X156.66 Y116.697 E5.81355
G1 X155.844 Y117.989 E5.8847
G1 X154.523 Y120.165 E6.00324
G1 X153.266 Y122.376 E6.12166
G1 X152.085 Y124.594 E6.23867
G1 X150.974 Y126.831 E6.35497
G1 X149.914 Y129.132 E6.47294
G1 X148.93 Y131.433 E6.58947
G1 X147.932 Y133.963 E6.71611
G1 X147.64 Y134.738 E6.75468
G1 X147.284 Y135.568 E6.79673
G1 X146.787 Y136.488 E6.84542
G1 X146.239 Y137.311 E6.89146
G1 X145.415 Y138.309 E6.95172
G1 X144.855 Y138.898 E6.98957
G1 X144.002 Y139.737 E7.04528
G1 X143.276 Y140.387 E7.09066
G1 X142.496 Y140.97 E7.136
G1 X141.669 Y141.481 E7.18127
G1 X140.798 Y141.919 E7.22666
G1 X139.959 Y142.253 E7.26871
G1 X139.284 Y142.466 E7.30167
G1 X138.244 Y142.756 E7.35195
G1 X137.539 Y142.934 E7.3858
G1 X136.655 Y143.116 E7.42783
G1 X135.617 Y143.236 E7.47649
G1 X134.639 Y143.258 E7.52204
G1 X133.576 Y143.185 E7.57165
G1 X131.703 Y142.955 E7.65952
G1 X129.191 Y142.693 E7.77712
G1 X126.704 Y142.502 E7.89327
G1 X124.174 Y142.381 E8.01121
G1 X121.664 Y142.331 E8.12811
G1 X119.12 Y142.354 E8.24658
G1 X116.734 Y142.441 E8.35775
G1 X115.639 Y142.493 E8.4088
G1 X114.745 Y142.499 E8.45043
G1 X113.819 Y142.466 E8.49357
G1 X111.22 Y142.411 E8.61462
G1 X108.718 Y142.428 E8.73113
G1 X106.045 Y142.52 E8.85567
G1 X105.003 Y142.503 E8.90419
G1 X103.973 Y142.439 E8.95225
G1 X101.315 Y142.308 E9.07616
G1 X98.805 Y142.255 E9.19307
G1 X96.259 Y142.272 E9.31162
G1 X95.287 Y142.232 E9.35692
G1 X94.391 Y142.118 E9.39898
G1 X93.732 Y141.987 E9.43026
G1 X92.999 Y141.807 E9.46541
G1 X91.809 Y141.477 E9.52291
G1 X90.885 Y141.174 E9.56819
G1 X90.021 Y140.806 E9.61192
G1 X89.131 Y140.328 E9.65896
G1 X88.306 Y139.782 E9.70503
G1 X87.246 Y138.908 E9.769
G1 X86.671 Y138.355 E9.80615
G1 X85.839 Y137.508 E9.86143
G1 X85.214 Y136.809 E9.90509
G1 X84.61 Y136.001 E9.95207
G1 X84.134 Y135.234 E9.9941
G1 X83.78 Y134.552 E10.02988
G1 X82.463 Y131.783 E10.17266
G1 X81.327 Y129.568 E10.28857
G1 X80.117 Y127.363 E10.40569
G1 X78.85 Y125.203 E10.52229
G1 X77.519 Y123.073 E10.63925
G1 X76.129 Y120.983 E10.75612
G1 X74.652 Y118.894 E10.87525
G1 X74.011 Y118.038 E10.92505
G1 X73.458 Y117.279 E10.96878
G1 X72.922 Y116.466 E11.01412
G1 X72.475 Y115.641 E11.05781
G1 X72.075 Y114.714 E11.10483
G1 X71.787 Y113.844 E11.1475
G1 X71.477 Y112.726 E11.20152
G1 X71.297 Y112.004 E11.23617
G1 X71.117 Y111.119 E11.27822
G1 X70.999 Y110.073 E11.32724
G1 X70.983 Y108.96 E11.37907
G1 X71.048 Y107.212 E11.46052
G1 X71.095 Y104.687 E11.57812
G1 X71.069 Y102.121 E11.69761
G1 X70.985 Y99.717 E11.80961
G1 X70.997 Y98.744 E11.85492
G1 X71.085 Y97.845 E11.89699
G1 X71.323 Y96.637 E11.95432
G1 X71.596 Y95.58 E12.00515
G1 X71.787 Y94.911 E12.03755
G1 X72.103 Y93.972 E12.08368
G1 X72.494 Y93.079 E12.12907
G1 X72.962 Y92.226 E12.17438
G1 X73.488 Y91.439 E12.21845
G1 X74.351 Y90.4 E12.28135
G1 X74.879 Y89.849 E12.31688
G1 X75.696 Y89.044 E12.37029
G1 X76.687 Y88.179 E12.43154
M204 S2000
G0 F7500 X76.932 Y88.495
M204 S500
G1 F1500 X77.479 Y88.072 E12.46374
G1 X79.436 Y86.514 E12.58022
G1 X81.406 Y84.855 E12.70014
G1 X83.279 Y83.184 E12.81702
G1 X85.122 Y81.442 E12.93511
G1 X86.9 Y79.663 E13.05222
G1 X88.656 Y77.808 E13.17116
G1 X90.331 Y75.93 E13.28834
G1 X91.955 Y74.006 E13.40558
G1 X93.574 Y71.973 E13.52659
G1 X94.001 Y71.422 E13.55905
G1 X94.644 Y70.671 E13.60509
G1 X95.161 Y70.132 E13.63987
G1 X95.989 Y69.317 E13.69396
G1 X96.688 Y68.689 E13.73772
G1 X97.439 Y68.126 E13.78142
G1 X98.236 Y67.632 E13.82509
G1 X99.074 Y67.211 E13.86876
G1 X99.941 Y66.865 E13.91222
G1 X100.524 Y66.682 E13.94068
G1 X101.62 Y66.378 E13.99364
G1 X102.329 Y66.202 E14.02765
G1 X103.249 Y66.017 E14.07135
G1 X104.147 Y65.917 E14.11342
G1 X105.267 Y65.899 E14.16558
G1 X107.013 Y65.964 E14.24694
G1 X109.542 Y66.011 E14.36472
G1 X112.127 Y65.985 E14.48509
G1 X114.484 Y65.899 E14.59492
G1 X115.266 Y65.899 E14.63133
G1 X117.013 Y65.964 E14.71274
G1 X119.542 Y66.011 E14.83052
G1 X122.115 Y65.985 E14.95033
G1 X124.521 Y65.901 E15.06243
G1 X125.459 Y65.911 E15.10611
G1 X126.357 Y66 E15.14813
G1 X127.503 Y66.225 E15.20252
G1 X128.282 Y66.425 E15.23997
G1 X129.218 Y66.688 E15.28524
G1 X130.108 Y66.986 E15.32894
G1 X130.969 Y67.361 E15.37267
G1 X131.792 Y67.811 E15.41635
G1 X132.578 Y68.336 E15.46036
G1 X133.552 Y69.144 E15.51929
G1 X134.118 Y69.688 E15.55584
G1 X134.936 Y70.521 E15.61021
G1 X135.662 Y71.302 E15.65986
G1 X136.582 Y72.329 E15.72406
G1 X138.356 Y74.206 E15.84432
G1 X140.105 Y75.952 E15.9594
G1 X142.956 Y78.607 E16.1408
G1 X143.35 Y78.957 E16.16534
G1 X143.829 Y79.404 E16.19585
G1 X144.12 Y79.689 E16.21482
G1 X145.177 Y80.775 E16.28538
G1 X146.581 Y82.329 E16.3829
G1 X148.361 Y84.213 E16.50359
G1 X150.113 Y85.959 E16.61877
G1 X152.974 Y88.624 E16.80083
G1 X153.38 Y88.986 E16.82616
G1 X154.105 Y89.675 E16.87273
G1 X154.933 Y90.518 E16.92775
G1 X155.56 Y91.217 E16.97147
G1 X156.122 Y91.968 E17.01515
G1 X156.616 Y92.767 E17.05889
G1 X157.04 Y93.613 E17.10296
G1 X157.51 Y94.874 E17.16562
G1 X157.711 Y95.57 E17.19935
G1 X158.009 Y96.719 E17.25463
G1 X158.203 Y97.636 E17.29827
G1 X158.316 Y98.574 E17.34226
G1 X158.339 Y99.747 E17.39689
G1 X158.277 Y101.491 E17.47815
G1 X158.229 Y104.047 E17.59719
G1 X158.255 Y106.631 E17.71752
G1 X158.339 Y109.037 E17.82962
G1 X158.329 Y109.975 E17.8733
G1 X158.235 Y110.91 E17.91706
G1 X158.038 Y111.924 E17.96516
G1 X157.857 Y112.638 E17.99946
G1 X157.57 Y113.671 E18.04938
G1 X157.279 Y114.563 E18.09307
G1 X156.906 Y115.43 E18.13702
G1 X156.322 Y116.483 E18.19308
G1 X155.506 Y117.775 E18.26424
G1 X154.181 Y119.957 E18.38311
G1 X152.918 Y122.178 E18.50208
G1 X151.732 Y124.406 E18.61961
G1 X150.616 Y126.653 E18.73643
G1 X149.546 Y128.975 E18.85548
G1 X148.562 Y131.276 E18.97201
G1 X147.56 Y133.816 E19.09915
G1 X147.272 Y134.58 E19.13717
G1 X146.916 Y135.41 E19.17923
G1 X146.454 Y136.267 E19.22456
G1 X145.931 Y137.056 E19.26864
G1 X145.107 Y138.054 E19.3289
G1 X144.574 Y138.613 E19.36487
G1 X143.735 Y139.439 E19.41969
G1 X143.036 Y140.067 E19.46345
G1 X142.285 Y140.63 E19.50715
G1 X141.489 Y141.124 E19.55077
G1 X140.65 Y141.547 E19.59453
G1 X139.811 Y141.881 E19.63658
G1 X139.177 Y142.081 E19.66753
G1 X138.146 Y142.368 E19.71736
G1 X137.458 Y142.542 E19.75041
G1 X136.574 Y142.724 E19.79244
G1 X135.607 Y142.836 E19.83776
G1 X134.666 Y142.859 E19.88159
G1 X133.625 Y142.788 E19.93018
G1 X131.745 Y142.557 E20.01838
G1 X129.227 Y142.294 E20.13627
G1 X126.723 Y142.102 E20.2532
G1 X124.193 Y141.981 E20.37115
G1 X121.668 Y141.931 E20.48874
G1 X119.105 Y141.954 E20.60809
G1 X116.715 Y142.041 E20.71945
G1 X115.636 Y142.093 E20.76976
G1 X114.759 Y142.099 E20.81059
G1 X113.833 Y142.066 E20.85374
G1 X111.225 Y142.011 E20.97521
G1 X108.704 Y142.028 E21.0926
G1 X106.051 Y142.12 E21.21621
G1 X105.028 Y142.104 E21.26385
G1 X103.993 Y142.039 E21.31214
G1 X101.335 Y141.908 E21.43605
G1 X98.81 Y141.855 E21.55365
G1 X96.275 Y141.872 E21.6717
G1 X95.337 Y141.835 E21.71541
G1 X94.441 Y141.721 E21.75747
G1 X93.827 Y141.599 E21.78662
G1 X93.106 Y141.422 E21.82118
G1 X91.933 Y141.097 E21.87786
G1 X91.042 Y140.806 E21.92151
G1 X90.178 Y140.438 E21.96524
G1 X89.351 Y139.994 E22.00894
G1 X88.56 Y139.473 E22.05305
G1 X87.523 Y138.619 E22.1156
G1 X86.956 Y138.075 E22.15219
G1 X86.137 Y137.241 E22.20662
G1 X85.512 Y136.542 E22.25028
G1 X84.95 Y135.79 E22.294
G1 X84.474 Y135.023 E22.33603
G1 X84.141 Y134.38 E22.36975
G1 X82.824 Y131.611 E22.51252
G1 X81.678 Y129.375 E22.62952
G1 X80.467 Y127.17 E22.74666
G1 X79.195 Y125.001 E22.86374
G1 X77.852 Y122.851 E22.98178
G1 X76.462 Y120.761 E23.09866
G1 X74.979 Y118.663 E23.21829
G1 X74.334 Y117.802 E23.26839
G1 X73.792 Y117.058 E23.31125
G1 X73.274 Y116.275 E23.35496
G1 X72.827 Y115.45 E23.39866
G1 X72.455 Y114.588 E23.44237
G1 X72.167 Y113.718 E23.48505
G1 X71.865 Y112.629 E23.53767
G1 X71.689 Y111.924 E23.5715
G1 X71.509 Y111.039 E23.61356
G1 X71.399 Y110.067 E23.65911
G1 X71.383 Y108.975 E23.70996
G1 X71.448 Y107.227 E23.79141
G1 X71.495 Y104.694 E23.90938
G1 X71.469 Y102.117 E24.02938
G1 X71.385 Y99.721 E24.14102
G1 X71.395 Y98.783 E24.1847
G1 X71.483 Y97.884 E24.22676
G1 X71.71 Y96.737 E24.2812
G1 X71.981 Y95.69 E24.33156
G1 X72.172 Y95.021 E24.36396
G1 X72.47 Y94.132 E24.40762
G1 X72.845 Y93.271 E24.45135
G1 X73.295 Y92.448 E24.49502
G1 X73.821 Y91.661 E24.5391
G1 X74.64 Y90.677 E24.59871
G1 X75.16 Y90.134 E24.63372
G1 X75.977 Y89.329 E24.68713
G1 X76.932 Y88.495 E24.74617
M204 S2000
G0 F7500 X77.177 Y88.811
M204 S500
G1 F1500 X77.724 Y88.388 E24.77837
G1 X79.694 Y86.82 E24.89561
G1 X81.664 Y85.161 E25.01553
G1 X83.553 Y83.474 E25.13346
G1 X85.397 Y81.733 E25.25155
G1 X87.183 Y79.946 E25.3692
G1 X88.946 Y78.082 E25.48866
G1 X90.637 Y76.188 E25.60689
G1 X92.261 Y74.264 E25.72413
G1 X93.887 Y72.222 E25.84568
G1 X94.305 Y71.682 E25.87747
G1 X94.948 Y70.931 E25.92351
G1 X95.442 Y70.417 E25.95671
G1 X96.257 Y69.614 E26.00998
G1 X96.928 Y69.009 E26.05205
G1 X97.65 Y68.466 E26.09412
G1 X98.416 Y67.989 E26.13614
G1 X99.222 Y67.582 E26.17818
G1 X100.061 Y67.247 E26.22025
G1 X100.644 Y67.064 E26.2487
G1 X101.717 Y66.766 E26.30055
G1 X102.408 Y66.594 E26.33371
G1 X103.293 Y66.415 E26.37576
G1 X104.191 Y66.315 E26.41783
G1 X105.252 Y66.299 E26.46724
G1 X106.998 Y66.364 E26.5486
G1 X109.539 Y66.411 E26.66694
G1 X112.142 Y66.385 E26.78815
G1 X114.499 Y66.299 E26.89797
G1 X115.251 Y66.299 E26.93299
G1 X116.998 Y66.364 E27.01439
G1 X119.539 Y66.411 E27.13273
G1 X122.129 Y66.385 E27.25334
G1 X124.517 Y66.301 E27.3646
G1 X125.42 Y66.309 E27.40665
G1 X126.318 Y66.398 E27.44867
G1 X127.404 Y66.613 E27.50022
G1 X128.174 Y66.81 E27.53723
G1 X129.092 Y67.068 E27.58163
G1 X129.949 Y67.353 E27.62369
G1 X130.778 Y67.712 E27.66575
G1 X131.571 Y68.144 E27.7078
G1 X132.323 Y68.644 E27.74985
G1 X133.275 Y69.433 E27.80743
G1 X133.833 Y69.968 E27.84342
G1 X134.643 Y70.793 E27.89726
G1 X135.364 Y71.569 E27.94658
G1 X136.291 Y72.604 E28.01128
G1 X138.073 Y74.489 E28.13207
G1 X139.832 Y76.245 E28.2478
G1 X142.683 Y78.9 E28.42921
G1 X143.077 Y79.25 E28.45375
G1 X143.549 Y79.69 E28.48379
G1 X143.833 Y79.968 E28.5023
G1 X144.88 Y81.043 E28.57217
G1 X146.29 Y82.604 E28.67012
G1 X148.071 Y84.488 E28.79084
G1 X149.84 Y86.252 E28.90717
G1 X152.701 Y88.917 E29.08923
G1 X153.104 Y89.276 E29.11437
G1 X153.829 Y89.965 E29.16094
G1 X154.636 Y90.786 E29.21454
G1 X155.24 Y91.457 E29.25658
G1 X155.782 Y92.179 E29.29862
G1 X156.259 Y92.947 E29.34072
G1 X156.665 Y93.753 E29.38274
G1 X157.135 Y95.014 E29.4454
G1 X157.324 Y95.671 E29.47724
G1 X157.618 Y96.802 E29.53165
G1 X157.806 Y97.685 E29.57369
G1 X157.916 Y98.582 E29.61577
G1 X157.939 Y99.733 E29.66938
G1 X157.877 Y101.477 E29.75064
G1 X157.829 Y104.04 E29.87
G1 X157.855 Y106.645 E29.99131
G1 X157.939 Y109.033 E30.10257
G1 X157.931 Y109.936 E30.14462
G1 X157.842 Y110.834 E30.18664
G1 X157.65 Y111.826 E30.23369
G1 X157.472 Y112.531 E30.26755
G1 X157.19 Y113.547 E30.31664
G1 X156.911 Y114.406 E30.3587
G1 X156.556 Y115.236 E30.40073
G1 X155.984 Y116.269 E30.45572
G1 X155.168 Y117.561 E30.52687
G1 X153.839 Y119.749 E30.64608
G1 X152.57 Y121.98 E30.76559
G1 X151.379 Y124.218 E30.88364
G1 X150.258 Y126.475 E31.00098
G1 X149.178 Y128.818 E31.12112
G1 X148.194 Y131.119 E31.23765
G1 X147.188 Y133.669 E31.36529
G1 X146.904 Y134.422 E31.40276
G1 X146.548 Y135.252 E31.44482
G1 X146.12 Y136.047 E31.48686
G1 X145.623 Y136.801 E31.52891
G1 X144.799 Y137.799 E31.58917
G1 X144.293 Y138.328 E31.62326
G1 X143.467 Y139.142 E31.67726
G1 X142.796 Y139.747 E31.71933
G1 X142.074 Y140.29 E31.7614
G1 X141.308 Y140.767 E31.80341
G1 X140.502 Y141.175 E31.84548
G1 X139.663 Y141.509 E31.88753
G1 X139.07 Y141.696 E31.91648
G1 X138.048 Y141.98 E31.96587
G1 X137.377 Y142.15 E31.99811
G1 X136.493 Y142.332 E32.04013
G1 X135.596 Y142.436 E32.08218
G1 X134.693 Y142.46 E32.12424
G1 X133.674 Y142.391 E32.1718
G1 X131.787 Y142.159 E32.26033
G1 X129.263 Y141.895 E32.3785
G1 X126.742 Y141.702 E32.49623
G1 X124.212 Y141.581 E32.61417
G1 X121.672 Y141.531 E32.73247
G1 X119.09 Y141.554 E32.8527
G1 X116.695 Y141.641 E32.9643
G1 X115.633 Y141.693 E33.01381
G1 X114.773 Y141.699 E33.05385
G1 X113.847 Y141.666 E33.097
G1 X111.23 Y141.611 E33.21888
G1 X108.69 Y141.628 E33.33716
G1 X106.057 Y141.72 E33.45984
