;FLAVOR:Marlin
;TIME:4404
;Filament used: 3.12955m
;Layer height: 0.2
;MINX:64.1
;MINY:73.6
;MINZ:0.28
;MAXX:155.9
;MAXY:146.4
;MAXZ:5.08
;TARGET_MACHINE.NAME:Creality Ender-3 S1
;Generated with Cura_SteamEngine 5.6.0
M82 ;absolute extrusion mode
; Ender 3 S1 Start G-code
; M413 S0 ; Disable power loss recovery
G92 E0 ; Reset Extruder

; Prep surfaces before auto home for better accuracy
M140 S60
M104 S205

G28 ; Home all axes
G1 Z10.0 F3000 ; Move Z Axis up little to prevent scratching of Heat Bed
G1 X0 Y0

M190 S60
M109 S205

G1 X0.1 Y20 Z0.3 F5000.0 ; Move to start position
G1 X0.1 Y200.0 Z0.3 F1500.0 E15 ; Draw the first line
G1 X0.4 Y200.0 Z0.3 F5000.0 ; Move to side a little
G1 X0.4 Y20 Z0.3 F1500.0 E30 ; Draw the second line
G92 E0 ; Reset Extruder
G1 Z2.0 F3000 ; Move Z Axis up little to prevent scratching of Heat Bed
G1 X5 Y20 Z0.3 F5000.0 ; Move over to prevent blob squish

G92 E0
G92 E0
G1 F2700 E-0.8
;LAYER_COUNT:25
;LAYER:0
M107
M204 S2000
G0 F7500 X69.335 Y78.257 Z0.28
M204 S500
;TYPE:SKIRT
G1 F2700 E0
G1 F1500 X69.963 Y77.725 E0.03832
G1 X71.09 Y76.888 E0.10369
G1 X71.975 Y76.322 E0.15261
G1 X72.313 Y76.12 E0.17094
G1 X73.274 Y75.609 E0.22162
G1 X73.706 Y75.406 E0.24385
G1 X74.532 Y75.047 E0.28579
G1 X75.389 Y74.722 E0.32847
G1 X76.192 Y74.466 E0.36771
G1 X76.829 Y74.286 E0.39854
G1 X77.722 Y74.073 E0.44128
G1 X78.462 Y73.932 E0.47636
G1 X79.186 Y73.811 E0.51054
G1 X80.111 Y73.704 E0.5539
G1 X80.984 Y73.644 E0.59465
G1 X81.829 Y73.612 E0.63402
G1 X82.742 Y73.6 E0.67654
G1 X137.297 Y73.6 E3.21685
G1 X138.109 Y73.61 E3.25466
G1 X139.076 Y73.649 E3.29972
G1 X139.89 Y73.704 E3.33771
G1 X140.792 Y73.808 E3.37999
G1 X141.692 Y73.956 E3.42246
G1 X142.133 Y74.04 E3.44337
G1 X143.068 Y74.26 E3.48809
G1 X143.755 Y74.456 E3.52136
G1 X144.36 Y74.642 E3.55083
G1 X145.286 Y74.982 E3.59677
G1 X146.114 Y75.331 E3.63861
G1 X146.674 Y75.583 E3.6672
G1 X147.716 Y76.135 E3.72211
G1 X148.391 Y76.547 E3.75893
G1 X148.833 Y76.833 E3.78345
G1 X149.827 Y77.558 E3.84073
G1 X150.343 Y77.983 E3.87186
G1 X150.916 Y78.481 E3.90721
G1 X151.566 Y79.109 E3.9493
G1 X152.034 Y79.631 E3.98194
G1 X152.558 Y80.258 E4.01999
G1 X153.107 Y80.975 E4.06204
G1 X153.601 Y81.747 E4.10472
G1 X154.07 Y82.551 E4.14806
G1 X154.491 Y83.35 E4.19011
G1 X154.993 Y84.595 E4.25262
G1 X155.235 Y85.326 E4.28848
G1 X155.5 Y86.272 E4.33422
G1 X155.705 Y87.428 E4.38889
G1 X155.813 Y88.318 E4.43064
G1 X155.89 Y89.44 E4.483
G1 X155.9 Y90.178 E4.51737
G1 X155.898 Y129.867 E6.36546
G1 X155.888 Y130.596 E6.39941
G1 X155.857 Y131.264 E6.43054
G1 X155.787 Y132.001 E6.46502
G1 X155.727 Y132.485 E6.48773
G1 X155.563 Y133.447 E6.53317
G1 X155.316 Y134.384 E6.57829
G1 X155.035 Y135.273 E6.6217
G1 X154.696 Y136.193 E6.66736
G1 X154.207 Y137.209 E6.71986
G1 X153.999 Y137.589 E6.74003
G1 X153.636 Y138.211 E6.77357
G1 X153.111 Y139.016 E6.81832
G1 X152.749 Y139.491 E6.84613
G1 X152.29 Y140.06 E6.88017
G1 X151.798 Y140.633 E6.91534
G1 X151.118 Y141.336 E6.96088
G1 X150.659 Y141.747 E6.98957
G1 X149.983 Y142.318 E7.03077
G1 X148.904 Y143.118 E7.09332
G1 X148.083 Y143.644 E7.13872
G1 X147.69 Y143.879 E7.16004
G1 X146.73 Y144.39 E7.21068
G1 X146.037 Y144.709 E7.2462
G1 X145.592 Y144.9 E7.26875
G1 X144.653 Y145.254 E7.31548
G1 X143.779 Y145.537 E7.35826
G1 X143.208 Y145.706 E7.38599
G1 X142.278 Y145.927 E7.4305
G1 X141.538 Y146.068 E7.46558
G1 X140.814 Y146.189 E7.49976
G1 X139.889 Y146.296 E7.54311
G1 X139.016 Y146.356 E7.58386
G1 X138.171 Y146.388 E7.62324
G1 X137.248 Y146.4 E7.66622
G1 X82.534 Y146.398 E10.21393
G1 X81.553 Y146.38 E10.25962
G1 X80.633 Y146.335 E10.30251
G1 X80.1 Y146.295 E10.3274
G1 X79.198 Y146.191 E10.36968
G1 X78.331 Y146.048 E10.41059
G1 X77.861 Y145.958 E10.43288
G1 X76.93 Y145.739 E10.47741
G1 X75.969 Y145.464 E10.52395
G1 X75.521 Y145.322 E10.54584
G1 X74.63 Y144.997 E10.59
G1 X73.911 Y144.688 E10.62644
G1 X73.273 Y144.391 E10.65921
G1 X72.362 Y143.91 E10.70718
G1 X71.661 Y143.487 E10.7453
G1 X71.176 Y143.174 E10.77218
G1 X70.152 Y142.426 E10.83123
G1 X69.646 Y142.007 E10.86182
G1 X69.09 Y141.524 E10.89612
G1 X68.44 Y140.897 E10.93817
G1 X67.961 Y140.363 E10.97157
G1 X67.447 Y139.748 E11.00889
G1 X66.85 Y138.961 E11.05489
G1 X66.398 Y138.253 E11.094
G1 X65.931 Y137.453 E11.13714
G1 X65.511 Y136.654 E11.17917
G1 X65.003 Y135.394 E11.24243
G1 X64.759 Y134.653 E11.27876
G1 X64.495 Y133.707 E11.32449
G1 X64.292 Y132.562 E11.37864
G1 X64.188 Y131.701 E11.41902
G1 X64.113 Y130.597 E11.47054
G1 X64.1 Y129.77 E11.50906
G1 X64.101 Y90.15 E13.35393
G1 X64.113 Y89.419 E13.38797
G1 X64.151 Y88.666 E13.42308
G1 X64.215 Y87.98 E13.45516
G1 X64.269 Y87.538 E13.4759
G1 X64.432 Y86.575 E13.52138
G1 X64.689 Y85.599 E13.56837
G1 X64.956 Y84.753 E13.60968
G1 X65.296 Y83.827 E13.65561
G1 X65.839 Y82.713 E13.71332
G1 X66.26 Y81.968 E13.75317
G1 X66.756 Y81.175 E13.79672
G1 X67.256 Y80.504 E13.83568
G1 X67.717 Y79.932 E13.86989
G1 X68.226 Y79.341 E13.90621
G1 X68.853 Y78.691 E13.94827
G1 X69.335 Y78.257 E13.97847
M204 S2000
G0 F7500 X69.594 Y78.562
M204 S500
G1 F1500 X70.222 Y78.03 E14.01679
G1 X71.306 Y77.225 E14.07966
G1 X72.18 Y76.665 E14.128
G1 X72.501 Y76.473 E14.14541
G1 X73.444 Y75.971 E14.19516
G1 X73.866 Y75.773 E14.21686
G1 X74.674 Y75.421 E14.2579
G1 X75.511 Y75.103 E14.2996
G1 X76.301 Y74.851 E14.33821
G1 X76.922 Y74.675 E14.36826
G1 X77.797 Y74.466 E14.41015
G1 X78.528 Y74.326 E14.44481
G1 X79.232 Y74.208 E14.47805
G1 X80.138 Y74.103 E14.52052
G1 X80.999 Y74.044 E14.5607
G1 X81.834 Y74.012 E14.59961
G1 X82.747 Y74 E14.64213
G1 X137.292 Y74 E17.18197
G1 X138.093 Y74.01 E17.21927
G1 X139.049 Y74.048 E17.26382
G1 X139.844 Y74.101 E17.30093
G1 X140.727 Y74.203 E17.34231
G1 X141.617 Y74.349 E17.38431
G1 X142.058 Y74.433 E17.40521
G1 X142.959 Y74.645 E17.44831
G1 X143.638 Y74.838 E17.48118
G1 X144.222 Y75.017 E17.50963
G1 X145.131 Y75.351 E17.55472
G1 X145.95 Y75.696 E17.5961
G1 X146.51 Y75.948 E17.6247
G1 X147.508 Y76.477 E17.67729
G1 X148.174 Y76.883 E17.71361
G1 X148.597 Y77.156 E17.73705
G1 X149.573 Y77.867 E17.79328
G1 X150.081 Y78.285 E17.82391
G1 X150.638 Y78.769 E17.85827
G1 X151.288 Y79.397 E17.90036
G1 X151.727 Y79.888 E17.93103
G1 X152.24 Y80.501 E17.96825
G1 X152.789 Y81.218 E18.0103
G1 X153.256 Y81.949 E18.05069
G1 X153.716 Y82.737 E18.09318
G1 X154.137 Y83.536 E18.13523
G1 X154.613 Y84.721 E18.19469
G1 X154.85 Y85.435 E18.22973
G1 X155.106 Y86.342 E18.27361
G1 X155.308 Y87.476 E18.32724
G1 X155.414 Y88.346 E18.36805
G1 X155.49 Y89.445 E18.41935
G1 X155.5 Y90.178 E18.45349
G1 X155.498 Y129.861 E20.30129
G1 X155.488 Y130.577 E20.33464
G1 X155.457 Y131.245 E20.36577
G1 X155.39 Y131.952 E20.39884
G1 X155.333 Y132.418 E20.4207
G1 X155.176 Y133.345 E20.46448
G1 X154.929 Y134.282 E20.5096
G1 X154.66 Y135.135 E20.55125
G1 X154.335 Y136.02 E20.59515
G1 X153.856 Y137.017 E20.64666
G1 X153.653 Y137.388 E20.66635
G1 X153.301 Y137.993 E20.69894
G1 X152.792 Y138.774 E20.74235
G1 X152.438 Y139.24 E20.7696
G1 X151.987 Y139.799 E20.80304
G1 X151.495 Y140.372 E20.83821
G1 X150.831 Y141.058 E20.88267
G1 X150.401 Y141.442 E20.90951
G1 X149.745 Y141.997 E20.94952
G1 X148.688 Y142.781 E21.0108
G1 X147.867 Y143.307 E21.0562
G1 X147.502 Y143.526 E21.07602
G1 X146.562 Y144.027 E21.12562
G1 X145.879 Y144.342 E21.16065
G1 X145.451 Y144.526 E21.18234
G1 X144.53 Y144.873 E21.22817
G1 X143.665 Y145.153 E21.2705
G1 X143.094 Y145.322 E21.29823
G1 X142.203 Y145.534 E21.34088
G1 X141.472 Y145.674 E21.37554
G1 X140.768 Y145.792 E21.40877
G1 X139.862 Y145.897 E21.45124
G1 X139.001 Y145.956 E21.49143
G1 X138.166 Y145.988 E21.53034
G1 X137.248 Y146 E21.57309
G1 X82.541 Y145.998 E24.12048
G1 X81.572 Y145.98 E24.1656
G1 X80.662 Y145.936 E24.20803
G1 X80.146 Y145.898 E24.23212
G1 X79.263 Y145.796 E24.27351
G1 X78.406 Y145.655 E24.31395
G1 X77.953 Y145.569 E24.33542
G1 X77.04 Y145.354 E24.3791
G1 X76.079 Y145.079 E24.42564
G1 X75.658 Y144.946 E24.4462
G1 X74.788 Y144.629 E24.48932
G1 X74.08 Y144.325 E24.52519
G1 X73.46 Y144.037 E24.55703
G1 X72.549 Y143.556 E24.605
G1 X71.878 Y143.151 E24.64149
G1 X71.412 Y142.851 E24.6673
G1 X70.407 Y142.118 E24.72522
G1 X69.908 Y141.705 E24.75538
G1 X69.368 Y141.236 E24.78869
G1 X68.718 Y140.609 E24.83074
G1 X68.268 Y140.106 E24.86217
G1 X67.754 Y139.491 E24.89949
G1 X67.187 Y138.746 E24.94308
G1 X66.743 Y138.051 E24.98148
G1 X66.285 Y137.267 E25.02376
G1 X65.865 Y136.468 E25.0658
G1 X65.383 Y135.268 E25.12601
G1 X65.144 Y134.545 E25.16147
G1 X64.889 Y133.637 E25.20539
G1 X64.689 Y132.514 E25.2585
G1 X64.587 Y131.674 E25.2979
G1 X64.513 Y130.591 E25.34845
G1 X64.5 Y129.77 E25.38668
G1 X64.501 Y90.156 E27.23128
G1 X64.512 Y89.439 E27.26467
G1 X64.549 Y88.703 E27.29898
G1 X64.612 Y88.028 E27.33055
G1 X64.663 Y87.604 E27.35043
G1 X64.819 Y86.677 E27.3942
G1 X65.071 Y85.719 E27.44033
G1 X65.332 Y84.89 E27.4808
G1 X65.656 Y84.002 E27.52482
G1 X66.199 Y82.888 E27.58252
G1 X66.599 Y82.18 E27.62039
G1 X67.095 Y81.387 E27.66394
G1 X67.567 Y80.755 E27.70067
G1 X68.02 Y80.193 E27.73428
G1 X68.514 Y79.619 E27.76955
G1 X69.141 Y78.969 E27.8116
G1 X69.594 Y78.562 E27.83996
M204 S2000
G0 F7500 X69.853 Y78.867
M204 S500
G1 F1500 X70.481 Y78.335 E27.87828
G1 X71.522 Y77.562 E27.93866
G1 X72.386 Y77.008 E27.98645
G1 X72.689 Y76.826 E28.00291
G1 X73.614 Y76.333 E28.05171
G1 X74.026 Y76.14 E28.0729
G1 X74.816 Y75.795 E28.11304
G1 X75.633 Y75.484 E28.15375
G1 X76.41 Y75.236 E28.19172
G1 X77.015 Y75.064 E28.22101
G1 X77.873 Y74.859 E28.26209
G1 X78.594 Y74.72 E28.29628
G1 X79.278 Y74.605 E28.32858
G1 X80.165 Y74.502 E28.37016
G1 X81.015 Y74.444 E28.40983
G1 X81.839 Y74.412 E28.44823
G1 X82.752 Y74.4 E28.49074
G1 X137.287 Y74.4 E31.03012
G1 X138.077 Y74.41 E31.06691
G1 X139.023 Y74.447 E31.11099
G1 X139.798 Y74.498 E31.14716
G1 X140.662 Y74.598 E31.18766
G1 X141.543 Y74.742 E31.22923
G1 X141.966 Y74.822 E31.24927
G1 X142.85 Y75.03 E31.29156
G1 X143.521 Y75.22 E31.32403
G1 X144.084 Y75.393 E31.35146
G1 X144.976 Y75.72 E31.39569
G1 X145.786 Y76.061 E31.43662
G1 X146.323 Y76.302 E31.46403
G1 X147.3 Y76.819 E31.5155
G1 X147.958 Y77.219 E31.55135
G1 X148.362 Y77.479 E31.57372
G1 X149.319 Y78.176 E31.62885
G1 X149.819 Y78.587 E31.65899
G1 X150.36 Y79.057 E31.69236
G1 X151.01 Y79.685 E31.73444
G1 X151.42 Y80.145 E31.76314
G1 X151.922 Y80.744 E31.79953
G1 X152.471 Y81.461 E31.84158
G1 X152.911 Y82.151 E31.87968
G1 X153.362 Y82.923 E31.92132
G1 X153.783 Y83.722 E31.96337
G1 X154.233 Y84.847 E32.01979
G1 X154.465 Y85.544 E32.054
G1 X154.712 Y86.412 E32.09602
G1 X154.911 Y87.525 E32.14867
G1 X155.015 Y88.374 E32.1885
G1 X155.09 Y89.451 E32.23877
G1 X155.1 Y90.178 E32.27262
G1 X155.098 Y129.855 E34.12015
G1 X155.088 Y130.558 E34.15289
G1 X155.057 Y131.226 E34.18403
G1 X154.993 Y131.903 E34.21569
G1 X154.938 Y132.352 E34.23675
G1 X154.789 Y133.243 E34.27882
G1 X154.542 Y134.18 E34.32394
G1 X154.284 Y134.998 E34.36388
G1 X153.974 Y135.847 E34.40596
G1 X153.505 Y136.825 E34.45647
G1 X153.307 Y137.187 E34.47568
G1 X152.966 Y137.775 E34.50733
G1 X152.473 Y138.532 E34.5494
G1 X152.126 Y138.989 E34.57612
G1 X151.684 Y139.538 E34.60894
G1 X151.192 Y140.111 E34.6441
G1 X150.564 Y140.76 E34.68616
G1 X150.143 Y141.137 E34.71247
G1 X149.506 Y141.676 E34.75133
G1 X148.472 Y142.444 E34.8113
G1 X147.661 Y142.964 E34.85616
G1 X147.314 Y143.173 E34.87502
G1 X146.374 Y143.674 E34.92462
G1 X145.72 Y143.975 E34.95815
G1 X145.31 Y144.152 E34.97894
G1 X144.407 Y144.492 E35.02387
G1 X143.551 Y144.769 E35.06576
G1 X142.98 Y144.938 E35.09349
G1 X142.127 Y145.141 E35.13432
G1 X141.406 Y145.28 E35.16851
G1 X140.722 Y145.395 E35.20081
G1 X139.835 Y145.498 E35.24239
G1 X138.985 Y145.556 E35.28206
G1 X138.161 Y145.588 E35.32046
G1 X137.248 Y145.6 E35.36297
G1 X82.549 Y145.598 E37.90999
G1 X81.591 Y145.58 E37.9546
G1 X80.691 Y145.537 E37.99656
G1 X80.192 Y145.501 E38.01986
G1 X79.328 Y145.401 E38.06036
G1 X78.48 Y145.262 E38.10037
G1 X78.044 Y145.18 E38.12103
G1 X77.15 Y144.97 E38.16379
G1 X76.199 Y144.697 E38.20986
G1 X75.795 Y144.57 E38.22958
G1 X74.946 Y144.261 E38.27165
G1 X74.248 Y143.962 E38.30701
G1 X73.647 Y143.683 E38.33786
G1 X72.736 Y143.202 E38.38583
G1 X72.094 Y142.814 E38.42076
G1 X71.648 Y142.528 E38.44543
G1 X70.662 Y141.809 E38.50225
G1 X70.17 Y141.403 E38.53196
G1 X69.646 Y140.948 E38.56427
G1 X68.996 Y140.321 E38.60632
G1 X68.575 Y139.849 E38.63578
G1 X68.072 Y139.248 E38.67227
G1 X67.524 Y138.53 E38.71433
G1 X67.088 Y137.849 E38.75198
G1 X66.639 Y137.081 E38.7934
G1 X66.219 Y136.282 E38.83544
G1 X65.763 Y135.142 E38.89261
G1 X65.529 Y134.436 E38.92724
G1 X65.283 Y133.567 E38.9693
G1 X65.086 Y132.465 E39.02142
G1 X64.986 Y131.647 E39.0598
G1 X64.913 Y130.585 E39.10936
G1 X64.9 Y129.77 E39.14732
G1 X64.901 Y90.162 E40.99163
G1 X64.911 Y89.459 E41.02437
G1 X64.947 Y88.74 E41.05789
G1 X65.009 Y88.076 E41.08894
G1 X65.058 Y87.67 E41.10799
G1 X65.206 Y86.779 E41.15004
G1 X65.453 Y85.839 E41.1953
G1 X65.708 Y85.026 E41.23498
G1 X66.016 Y84.177 E41.27703
G1 X66.559 Y83.063 E41.33474
G1 X66.938 Y82.392 E41.37062
G1 X67.416 Y81.626 E41.41266
G1 X67.878 Y81.006 E41.44867
G1 X68.323 Y80.454 E41.48168
G1 X68.802 Y79.897 E41.51589
G1 X69.429 Y79.247 E41.55794
G1 X69.853 Y78.867 E41.58446
M204 S2000
G1 F2700 E40.78446
;MESH:base thing.stl
G0 F7500 X79.53 Y85.952
G0 X79.972 Y86.942
G0 X87.762 Y86.96
G0 X90.418 Y87.352
G0 X90.05 Y89.331
G0 X105.677 Y104.942
G0 X106.471 Y105.374
G0 X106.114 Y104.775
M204 S500
;TYPE:WALL-OUTER
G1 F2700 E41.58446
G1 F1503.8 X105.937 Y104.788 E41.5927
G1 X105.809 Y104.73 E41.59923
G1 F1500 X90.722 Y88.641 E42.62625
G1 X90.696 Y88.547 E42.63079
G1 X90.737 Y88.351 E42.64012
G1 X90.831 Y88.255 E42.64637
G1 X90.962 Y88.199 E42.65301
G1 X106.052 Y88.197 E43.35566
G1 X106.166 Y88.232 E43.36121
G1 X106.297 Y88.452 E43.37314
G1 X106.3 Y104.583 E44.12426
G1 X106.219 Y104.711 E44.13132
G1 X106.114 Y104.775 E44.13704
M204 S2000
G1 F2700 E43.33704
G0 F7500 X106.471 Y105.374
G0 X106.036 Y105.665
G0 X107.015 Y107.216
G0 X106.806 Y108.139
G0 X106.545 Y108.338
G0 X106.232 Y107.695
M204 S500
G1 F2700 E44.13704
G1 F1500 X106.048 Y107.797 E44.14684
G1 X90.947 Y107.803 E44.85001
G1 X90.814 Y107.752 E44.85664
G1 X90.699 Y107.535 E44.86807
G1 X90.698 Y91.422 E45.61836
G1 X90.727 Y91.344 E45.62224
G1 X90.885 Y91.224 E45.63148
G1 X91.062 Y91.21 E45.63974
G1 X91.19 Y91.269 E45.64631
G1 X106.249 Y107.329 E46.67146
G1 X106.304 Y107.466 E46.67833
G1 X106.232 Y107.695 E46.68951
M204 S2000
G1 F2700 E45.88951
G0 F7500 X106.545 Y108.338
G0 X106.684 Y106.913
G0 X105.7 Y105.535
G0 X106.922 Y104.581
G0 X106.192 Y87.31
G0 X109.239 Y86.96
G0 X112.762 Y86.96
G0 X117.754 Y87.228
G0 X117.399 Y89.174
G0 X118.436 Y90.392
G0 X117.323 Y90.956
G0 X117.165 Y108.049
G0 X117.801 Y107.739
M204 S500
G1 F2700 E46.68951
G1 F1500 X117.7 Y107.535 E46.70011
G1 X117.698 Y91.401 E47.45137
G1 X117.863 Y91.236 E47.46224
G1 X118.033 Y91.205 E47.47029
G1 X118.171 Y91.251 E47.47706
G1 X136.238 Y107.309 E48.6026
G1 X136.306 Y107.459 E48.61027
G1 X136.233 Y107.694 E48.62173
G1 X136.05 Y107.797 E48.63151
G1 X117.948 Y107.803 E49.47441
G1 X117.801 Y107.739 E49.48188
M204 S2000
G1 F2700 E48.68188
G0 F7500 X117.165 Y108.049
G0 X117.427 Y108.435
G0 X136.196 Y108.44
G0 X136.807 Y108.14
G0 X137.028 Y107.164
G0 X136.51 Y106.706
G0 X135.781 Y105.467
G0 X135.968 Y104.794
M204 S500
G1 F2700 E49.48188
G1 F1500 X135.83 Y104.748 E49.48865
G1 X117.742 Y88.669 E50.61557
G1 X117.701 Y88.493 E50.62399
G1 X117.758 Y88.318 E50.63256
G1 X117.962 Y88.199 E50.64355
G1 X136.053 Y88.197 E51.48595
G1 X136.167 Y88.232 E51.4915
G1 X136.299 Y88.457 E51.50364
G1 X136.301 Y104.618 E52.25617
G1 X136.138 Y104.763 E52.26633
G1 X135.968 Y104.794 E52.27437
M204 S2000
G1 F2700 E51.47437
G0 F7500 X135.781 Y105.467
G0 X136.674 Y106.851
G0 X137.028 Y107.164
G0 X136.807 Y108.14
G0 X135.786 Y108.782
G0 X135.786 Y110.198
G0 X136.324 Y110.964
G0 X136.541 Y111.395
G0 X136.538 Y127.763
G0 X135.781 Y128.468
G0 X135.968 Y127.795
M204 S500
G1 F2700 E52.27437
G1 F1500 X135.83 Y127.749 E52.28115
G1 X117.742 Y111.669 E53.4081
G1 X117.698 Y111.575 E53.41293
G1 X117.746 Y111.337 E53.42424
G1 X117.946 Y111.203 E53.43545
G1 X136.094 Y111.201 E54.28049
G1 X136.186 Y111.246 E54.28526
