;FLAVOR:Marlin
;TIME:5207
;Filament used: 3.31137m
;Layer height: 0.2
;MINX:33.1
;MINY:54.728
;MINZ:0.28
;MAXX:186.9
;MAXY:148.398
;MAXZ:8.08
;TARGET_MACHINE.NAME:Creality Ender-3 S1
;Generated with Cura_SteamEngine 5.6.0
M82 ;absolute extrusion mode
; Ender 3 S1 Start G-code
; M413 S0 ; Disable power loss recovery
G92 E0 ; Reset Extruder

; Prep surfaces before auto home for better accuracy
M140 S60
M104 S205

G28 ; Home all axes
G1 Z10.0 F3000 ; Move Z Axis up little to prevent scratching of Heat Bed
G1 X0 Y0

M190 S60
M109 S205

G1 X0.1 Y20 Z0.3 F5000.0 ; Move to start position
G1 X0.1 Y200.0 Z0.3 F1500.0 E15 ; Draw the first line
G1 X0.4 Y200.0 Z0.3 F5000.0 ; Move to side a little
G1 X0.4 Y20 Z0.3 F1500.0 E30 ; Draw the second line
G92 E0 ; Reset Extruder
G1 Z2.0 F3000 ; Move Z Axis up little to prevent scratching of Heat Bed
G1 X5 Y20 Z0.3 F5000.0 ; Move over to prevent blob squish

G92 E0
G92 E0
G1 F2700 E-0.8
;LAYER_COUNT:40
;LAYER:0
M107
M204 S2000
G0 F7500 X38.921 Y72.913 Z0.28
M204 S500
;TYPE:SKIRT
G1 F2700 E0
G1 F1500 X39.799 Y72.492 E0.04534
G1 X40.712 Y72.15 E0.09074
G1 X41.648 Y71.891 E0.13596
G1 X42.536 Y71.725 E0.17803
G1 X43.169 Y71.65 E0.20771
G1 X43.871 Y71.59 E0.24051
G1 X46.436 Y71.332 E0.36055
G1 X48.931 Y71.01 E0.47769
G1 X51.447 Y70.612 E0.59631
G1 X53.866 Y70.16 E0.7109
G1 X56.389 Y69.613 E0.83111
G1 X58.74 Y69.034 E0.94385
G1 X61.248 Y68.342 E1.065
G1 X63.616 Y67.613 E1.18037
G1 X66.016 Y66.8 E1.29836
G1 X68.395 Y65.919 E1.41649
G1 X70.685 Y64.996 E1.53146
G1 X73.049 Y63.964 E1.65156
G1 X75.282 Y62.914 E1.76646
G1 X77.535 Y61.776 E1.884
G1 X79.772 Y60.565 E2.00244
G1 X81.959 Y59.3 E2.12009
G1 X84.077 Y57.991 E2.23603
G1 X86.322 Y56.521 E2.36098
G1 X87.162 Y56.025 E2.4064
G1 X88.042 Y55.607 E2.45177
G1 X88.887 Y55.29 E2.49379
G1 X89.893 Y55.011 E2.5424
G1 X90.858 Y54.837 E2.58806
G1 X91.912 Y54.747 E2.63732
G1 X92.63 Y54.728 E2.67077
G1 X126.424 Y54.728 E4.24436
G1 X127.308 Y54.741 E4.28552
G1 X128.28 Y54.8 E4.33087
G1 X129.243 Y54.946 E4.37622
G1 X130.19 Y55.177 E4.42161
G1 X131.079 Y55.478 E4.46531
G1 X131.976 Y55.872 E4.51093
G1 X133.146 Y56.538 E4.57362
G1 X134.282 Y57.283 E4.63688
G1 X136.482 Y58.678 E4.75818
G1 X138.666 Y59.979 E4.87655
G1 X140.866 Y61.207 E4.99387
G1 X143.09 Y62.366 E5.11065
G1 X145.323 Y63.451 E5.22625
G1 X147.652 Y64.504 E5.34527
G1 X149.97 Y65.472 E5.46224
G1 X152.335 Y66.382 E5.58023
G1 X154.687 Y67.21 E5.69634
G1 X157.102 Y67.985 E5.81444
G1 X159.51 Y68.685 E5.93121
G1 X161.947 Y69.317 E6.04844
G1 X164.407 Y69.883 E6.16598
G1 X166.901 Y70.382 E6.28441
G1 X169.323 Y70.796 E6.39883
G1 X171.876 Y71.159 E6.5189
G1 X174.311 Y71.434 E6.633
G1 X176.867 Y71.654 E6.75246
G1 X177.762 Y71.771 E6.79449
G1 X178.782 Y71.999 E6.84316
G1 X179.71 Y72.296 E6.88853
G1 X180.607 Y72.674 E6.93386
G1 X181.468 Y73.13 E6.97922
G1 X182.285 Y73.661 E7.0246
G1 X183.051 Y74.261 E7.0699
G1 X183.761 Y74.927 E7.11523
G1 X184.388 Y75.626 E7.15896
G1 X184.992 Y76.435 E7.20597
G1 X185.502 Y77.263 E7.25125
G1 X185.939 Y78.134 E7.29663
G1 X186.272 Y78.973 E7.33866
G1 X186.57 Y79.975 E7.38733
G1 X186.75 Y80.859 E7.42934
G1 X186.887 Y82.308 E7.49711
G1 X186.9 Y82.932 E7.52618
G1 X186.899 Y92.838 E7.98744
G1 X186.886 Y93.601 E8.02298
G1 X186.828 Y94.559 E8.06767
G1 X186.756 Y95.101 E8.09312
G1 X186.595 Y96.128 E8.14153
G1 X186.227 Y98.716 E8.26325
G1 X185.945 Y101.205 E8.37989
G1 X185.73 Y103.711 E8.49701
G1 X185.589 Y106.228 E8.61439
G1 X185.516 Y108.766 E8.73262
G1 X185.516 Y111.277 E8.84955
G1 X185.587 Y113.78 E8.96614
G1 X185.729 Y116.275 E9.08251
G1 X185.943 Y118.825 E9.20166
G1 X186.225 Y121.3 E9.31766
G1 X186.584 Y123.817 E9.43605
G1 X186.75 Y124.848 E9.48467
G1 X186.885 Y126.275 E9.55141
G1 X186.9 Y126.932 E9.58202
G1 X186.899 Y136.798 E10.04142
G1 X186.888 Y137.561 E10.07695
G1 X186.831 Y138.534 E10.12233
G1 X186.686 Y139.497 E10.16768
G1 X186.457 Y140.443 E10.213
G1 X186.146 Y141.367 E10.2584
G1 X185.754 Y142.258 E10.30373
G1 X185.286 Y143.11 E10.34899
G1 X184.764 Y143.891 E10.39273
G1 X184.131 Y144.676 E10.43969
G1 X183.506 Y145.327 E10.48171
G1 X182.717 Y146.015 E10.53046
G1 X181.957 Y146.565 E10.57414
G1 X181.09 Y147.082 E10.62114
G1 X180.212 Y147.504 E10.6665
G1 X179.301 Y147.846 E10.71181
G1 X178.362 Y148.107 E10.7572
G1 X177.396 Y148.285 E10.80293
G1 X176.245 Y148.383 E10.85672
G1 X175.57 Y148.398 E10.88816
G1 X44.664 Y148.397 E16.98369
G1 X43.931 Y148.386 E17.01783
G1 X42.959 Y148.329 E17.06317
G1 X41.996 Y148.183 E17.10852
G1 X41.05 Y147.954 E17.15384
G1 X40.126 Y147.642 E17.19926
G1 X39.236 Y147.25 E17.24454
G1 X38.413 Y146.799 E17.28824
G1 X37.574 Y146.238 E17.33523
G1 X36.87 Y145.672 E17.3773
G1 X36.117 Y144.947 E17.42597
G1 X35.48 Y144.211 E17.47129
G1 X34.95 Y143.48 E17.51334
G1 X34.414 Y142.583 E17.56199
G1 X33.992 Y141.705 E17.60736
G1 X33.65 Y140.793 E17.65271
G1 X33.39 Y139.855 E17.69803
G1 X33.212 Y138.886 E17.74391
G1 X33.114 Y137.707 E17.799
G1 X33.1 Y137.056 E17.82932
G1 X33.101 Y127.138 E18.29114
G1 X33.114 Y126.395 E18.32574
G1 X33.172 Y125.436 E18.37048
G1 X33.244 Y124.899 E18.39571
G1 X33.405 Y123.872 E18.44411
G1 X33.773 Y121.284 E18.56584
G1 X34.055 Y118.795 E18.68247
G1 X34.27 Y116.289 E18.79959
G1 X34.411 Y113.772 E18.91698
G1 X34.484 Y111.234 E19.03521
G1 X34.484 Y108.723 E19.15213
G1 X34.413 Y106.22 E19.26873
G1 X34.271 Y103.724 E19.38514
G1 X34.057 Y101.171 E19.50444
G1 X33.776 Y98.708 E19.61987
G1 X33.41 Y96.14 E19.74065
G1 X33.248 Y95.13 E19.78828
G1 X33.113 Y93.692 E19.85554
G1 X33.1 Y93.068 E19.8846
G1 X33.101 Y83.127 E20.34749
G1 X33.112 Y82.427 E20.38009
G1 X33.17 Y81.454 E20.42548
G1 X33.316 Y80.491 E20.47083
G1 X33.546 Y79.545 E20.51617
G1 X33.859 Y78.622 E20.56155
G1 X34.251 Y77.732 E20.60683
G1 X34.721 Y76.879 E20.65218
G1 X35.264 Y76.071 E20.69751
G1 X35.831 Y75.367 E20.7396
G1 X36.556 Y74.615 E20.78824
G1 X37.292 Y73.978 E20.83357
G1 X38.024 Y73.448 E20.87565
G1 X38.921 Y72.913 E20.92428
M204 S2000
G0 F7500 X39.095 Y73.273
M204 S500
G1 F1500 X39.94 Y72.866 E20.96796
G1 X40.819 Y72.535 E21.01169
G1 X41.722 Y72.284 E21.05533
G1 X42.61 Y72.118 E21.0974
G1 X43.203 Y72.049 E21.1252
G1 X43.905 Y71.989 E21.158
G1 X46.487 Y71.729 E21.27884
G1 X48.982 Y71.407 E21.39598
G1 X51.51 Y71.007 E21.51516
G1 X53.951 Y70.551 E21.63079
G1 X56.474 Y70.004 E21.751
G1 X58.847 Y69.42 E21.8648
G1 X61.355 Y68.727 E21.98595
G1 X63.744 Y67.992 E22.10234
G1 X66.144 Y67.179 E22.22033
G1 X68.534 Y66.294 E22.33901
G1 X70.845 Y65.363 E22.45502
G1 X73.209 Y64.331 E22.57513
G1 X75.452 Y63.276 E22.69055
G1 X77.725 Y62.128 E22.80912
G1 X79.962 Y60.917 E22.92757
G1 X82.159 Y59.646 E23.04576
G1 X84.296 Y58.326 E23.16272
G1 X86.526 Y56.865 E23.28686
G1 X87.334 Y56.386 E23.3306
G1 X88.182 Y55.982 E23.37434
G1 X89.027 Y55.665 E23.41636
G1 X89.965 Y55.405 E23.46168
G1 X90.892 Y55.236 E23.50556
G1 X91.946 Y55.146 E23.55482
G1 X92.64 Y55.128 E23.58714
G1 X126.418 Y55.128 E25.15999
G1 X127.284 Y55.14 E25.20032
G1 X128.221 Y55.196 E25.24403
G1 X129.149 Y55.335 E25.28772
G1 X130.062 Y55.556 E25.33146
G1 X130.918 Y55.844 E25.37352
G1 X131.815 Y56.238 E25.41913
G1 X132.927 Y56.873 E25.47876
G1 X134.068 Y57.621 E25.54229
G1 X136.277 Y59.022 E25.66409
G1 X138.461 Y60.323 E25.78247
G1 X140.681 Y61.562 E25.90085
G1 X142.915 Y62.726 E26.01815
G1 X145.158 Y63.816 E26.13427
G1 X147.487 Y64.868 E26.25327
G1 X149.826 Y65.845 E26.3713
G1 X152.195 Y66.757 E26.4895
G1 X154.565 Y67.591 E26.60649
G1 X156.983 Y68.367 E26.72474
G1 X159.398 Y69.069 E26.84185
G1 X161.857 Y69.707 E26.96014
G1 X164.317 Y70.273 E27.07768
G1 X166.82 Y70.774 E27.19654
G1 X169.267 Y71.192 E27.31214
G1 X171.82 Y71.555 E27.43221
G1 X174.277 Y71.833 E27.54735
G1 X176.815 Y72.051 E27.66596
G1 X177.71 Y72.168 E27.70799
G1 X178.661 Y72.38 E27.75336
G1 X179.555 Y72.665 E27.79706
G1 X180.42 Y73.028 E27.84074
G1 X181.251 Y73.466 E27.88448
G1 X182.039 Y73.976 E27.92818
G1 X182.778 Y74.553 E27.97184
G1 X183.463 Y75.194 E28.01553
G1 X184.09 Y75.893 E28.05925
G1 X184.652 Y76.645 E28.10296
G1 X185.145 Y77.443 E28.14664
G1 X185.567 Y78.282 E28.19037
G1 X185.9 Y79.121 E28.2324
G1 X186.178 Y80.055 E28.27778
G1 X186.358 Y80.939 E28.31979
G1 X186.487 Y82.316 E28.38419
G1 X186.5 Y82.932 E28.41288
G1 X186.499 Y92.832 E28.87386
G1 X186.487 Y93.577 E28.90856
G1 X186.431 Y94.507 E28.95194
G1 X186.361 Y95.039 E28.97693
G1 X186.2 Y96.066 E29.02533
G1 X185.831 Y98.66 E29.14734
G1 X185.546 Y101.171 E29.26501
G1 X185.332 Y103.677 E29.38212
G1 X185.189 Y106.216 E29.50054
G1 X185.116 Y108.754 E29.61877
G1 X185.116 Y111.277 E29.73625
G1 X185.187 Y113.791 E29.85336
G1 X185.33 Y116.309 E29.9708
G1 X185.545 Y118.859 E30.08996
G1 X185.829 Y121.356 E30.20698
G1 X186.189 Y123.881 E30.32574
G1 X186.355 Y124.912 E30.37436
G1 X186.485 Y126.284 E30.43854
G1 X186.5 Y126.932 E30.46872
G1 X186.499 Y136.793 E30.92789
G1 X186.489 Y137.538 E30.96258
G1 X186.435 Y138.475 E31.00628
G1 X186.297 Y139.404 E31.05002
G1 X186.078 Y140.316 E31.09369
G1 X185.78 Y141.206 E31.13739
G1 X185.403 Y142.066 E31.18112
G1 X184.953 Y142.888 E31.22475
G1 X184.431 Y143.669 E31.2685
G1 X183.842 Y144.399 E31.31217
G1 X183.217 Y145.05 E31.3542
G1 X182.482 Y145.691 E31.39961
G1 X181.722 Y146.241 E31.44329
G1 X180.916 Y146.722 E31.487
G1 X180.071 Y147.13 E31.53069
G1 X179.193 Y147.461 E31.57438
G1 X178.289 Y147.714 E31.61809
G1 X177.362 Y147.886 E31.66199
G1 X176.211 Y147.984 E31.71578
G1 X175.57 Y147.998 E31.74564
G1 X44.67 Y147.997 E37.84089
G1 X43.954 Y147.987 E37.87423
G1 X43.018 Y147.933 E37.91789
G1 X42.089 Y147.794 E37.96163
G1 X41.177 Y147.575 E38.0053
G1 X40.287 Y147.276 E38.04902
G1 X39.428 Y146.899 E38.0927
G1 X38.605 Y146.448 E38.1364
G1 X37.825 Y145.926 E38.18011
G1 X37.121 Y145.36 E38.22217
G1 X36.419 Y144.685 E38.26752
G1 X35.804 Y143.976 E38.31122
G1 X35.274 Y143.245 E38.35326
G1 X34.774 Y142.409 E38.39862
G1 X34.366 Y141.564 E38.44232
G1 X34.035 Y140.686 E38.48601
G1 X33.783 Y139.782 E38.52971
G1 X33.611 Y138.853 E38.5737
G1 X33.513 Y137.674 E38.62879
G1 X33.5 Y137.056 E38.65757
G1 X33.501 Y127.145 E39.11907
G1 X33.513 Y126.419 E39.15288
G1 X33.569 Y125.489 E39.19626
G1 X33.639 Y124.961 E39.22106
G1 X33.8 Y123.934 E39.26947
G1 X34.169 Y121.34 E39.39147
G1 X34.454 Y118.829 E39.50915
G1 X34.668 Y116.323 E39.62626
G1 X34.811 Y113.784 E39.74467
G1 X34.884 Y111.246 E39.8629
G1 X34.884 Y108.723 E39.98038
G1 X34.813 Y106.209 E40.09749
G1 X34.67 Y103.69 E40.21498
G1 X34.455 Y101.137 E40.33428
G1 X34.172 Y98.652 E40.45074
G1 X33.806 Y96.084 E40.57152
G1 X33.643 Y95.067 E40.61948
G1 X33.513 Y93.684 E40.68416
G1 X33.5 Y93.068 E40.71285
G1 X33.501 Y83.133 E41.17547
G1 X33.511 Y82.45 E41.20728
G1 X33.566 Y81.513 E41.25098
G1 X33.705 Y80.585 E41.29467
G1 X33.925 Y79.673 E41.33836
G1 X34.225 Y78.783 E41.38209
G1 X34.602 Y77.924 E41.42577
G1 X35.053 Y77.102 E41.46943
G1 X35.576 Y76.322 E41.51316
G1 X36.143 Y75.618 E41.55525
G1 X36.818 Y74.917 E41.60057
G1 X37.527 Y74.302 E41.64427
G1 X38.259 Y73.772 E41.68635
G1 X39.095 Y73.273 E41.73169
M204 S2000
G0 F7500 X39.269 Y73.633
M204 S500
G1 F1500 X40.082 Y73.24 E41.77373
G1 X40.927 Y72.92 E41.81581
G1 X41.796 Y72.677 E41.85782
G1 X42.684 Y72.511 E41.89989
G1 X43.237 Y72.448 E41.92581
G1 X43.939 Y72.388 E41.95861
G1 X46.538 Y72.126 E42.08025
G1 X49.033 Y71.804 E42.19739
G1 X51.573 Y71.402 E42.31713
G1 X54.036 Y70.942 E42.4338
G1 X56.559 Y70.395 E42.55401
G1 X58.954 Y69.806 E42.66886
G1 X61.462 Y69.112 E42.79003
G1 X63.872 Y68.371 E42.90744
G1 X66.272 Y67.558 E43.02543
G1 X68.673 Y66.669 E43.14465
G1 X71.005 Y65.73 E43.26171
G1 X73.369 Y64.698 E43.38181
G1 X75.622 Y63.638 E43.49776
G1 X77.915 Y62.48 E43.61737
G1 X80.152 Y61.269 E43.73582
G1 X82.359 Y59.992 E43.85455
G1 X84.515 Y58.661 E43.97253
G1 X86.731 Y57.209 E44.09589
G1 X87.507 Y56.747 E44.13795
G1 X88.322 Y56.357 E44.18002
G1 X89.167 Y56.04 E44.22204
G1 X90.037 Y55.798 E44.26409
G1 X90.926 Y55.635 E44.30618
G1 X91.98 Y55.545 E44.35543
G1 X92.65 Y55.528 E44.38664
G1 X126.413 Y55.528 E45.95879
G1 X127.261 Y55.539 E45.99828
G1 X128.163 Y55.592 E46.04035
G1 X129.056 Y55.724 E46.08239
G1 X129.934 Y55.935 E46.12443
G1 X130.79 Y56.223 E46.16649
G1 X131.617 Y56.585 E46.20852
G1 X132.708 Y57.208 E46.26702
G1 X133.854 Y57.959 E46.33082
G1 X136.072 Y59.366 E46.45313
G1 X138.256 Y60.667 E46.5715
G1 X140.496 Y61.917 E46.69095
G1 X142.74 Y63.086 E46.80877
G1 X144.993 Y64.181 E46.92541
G1 X147.322 Y65.232 E47.04439
G1 X149.682 Y66.218 E47.16349
G1 X152.055 Y67.131 E47.28188
G1 X154.443 Y67.972 E47.39977
G1 X156.864 Y68.749 E47.51816
G1 X159.291 Y69.454 E47.63585
G1 X161.767 Y70.097 E47.75496
G1 X164.227 Y70.663 E47.87251
G1 X166.739 Y71.166 E47.9918
G1 X169.211 Y71.588 E48.10857
G1 X171.764 Y71.951 E48.22864
G1 X174.243 Y72.232 E48.34481
G1 X176.763 Y72.448 E48.46259
G1 X177.658 Y72.565 E48.50462
G1 X178.54 Y72.761 E48.54669
G1 X179.401 Y73.034 E48.58875
G1 X180.234 Y73.382 E48.63078
G1 X181.034 Y73.802 E48.67286
G1 X181.793 Y74.292 E48.71492
G1 X182.505 Y74.846 E48.75693
G1 X183.166 Y75.462 E48.799
G1 X183.77 Y76.133 E48.84104
G1 X184.312 Y76.856 E48.88312
G1 X184.788 Y77.623 E48.92515
G1 X185.195 Y78.43 E48.96724
G1 X185.528 Y79.269 E49.00927
G1 X185.786 Y80.135 E49.05134
G1 X185.966 Y81.019 E49.09335
G1 X186.087 Y82.325 E49.15443
G1 X186.1 Y82.932 E49.1827
G1 X186.099 Y92.826 E49.6434
G1 X186.088 Y93.553 E49.67726
G1 X186.034 Y94.455 E49.71933
G1 X185.966 Y94.977 E49.74385
G1 X185.805 Y96.004 E49.79225
G1 X185.435 Y98.604 E49.91454
G1 X185.147 Y101.137 E50.03325
G1 X184.934 Y103.643 E50.15036
G1 X184.789 Y106.204 E50.2698
G1 X184.716 Y108.742 E50.38803
G1 X184.716 Y111.277 E50.50607
G1 X184.787 Y113.802 E50.62369
G1 X184.931 Y116.343 E50.7422
G1 X185.147 Y118.893 E50.86136
G1 X185.433 Y121.412 E50.97941
G1 X185.794 Y123.945 E51.09855
G1 X185.96 Y124.976 E51.14717
G1 X186.085 Y126.293 E51.20878
G1 X186.1 Y126.932 E51.23854
G1 X186.099 Y136.788 E51.69747
G1 X186.09 Y137.515 E51.73133
G1 X186.039 Y138.417 E51.7734
G1 X185.908 Y139.311 E51.81547
G1 X185.699 Y140.189 E51.8575
G1 X185.413 Y141.046 E51.89957
G1 X185.052 Y141.874 E51.94163
G1 X184.62 Y142.666 E51.98363
G1 X184.119 Y143.418 E52.02571
G1 X183.553 Y144.122 E52.06777
G1 X182.928 Y144.773 E52.10979
G1 X182.247 Y145.367 E52.15187
G1 X181.516 Y145.898 E52.19394
G1 X180.742 Y146.362 E52.23596
G1 X179.929 Y146.756 E52.27803
G1 X179.085 Y147.076 E52.32006
G1 X178.215 Y147.321 E52.36215
G1 X177.328 Y147.487 E52.40417
G1 X176.177 Y147.585 E52.45796
G1 X175.57 Y147.598 E52.48623
G1 X44.675 Y147.597 E58.58125
G1 X43.977 Y147.588 E58.61375
G1 X43.076 Y147.537 E58.65577
G1 X42.182 Y147.405 E58.69785
G1 X41.304 Y147.196 E58.73988
G1 X40.447 Y146.909 E58.78196
G1 X39.62 Y146.548 E58.82398
G1 X38.827 Y146.115 E58.86605
G1 X38.076 Y145.614 E58.90809
G1 X37.372 Y145.048 E58.95015
G1 X36.721 Y144.422 E58.9922
G1 X36.128 Y143.741 E59.03425
G1 X35.598 Y143.01 E59.0763
G1 X35.134 Y142.235 E59.11836
G1 X34.74 Y141.422 E59.16042
G1 X34.42 Y140.578 E59.20245
G1 X34.176 Y139.708 E59.24453
G1 X34.01 Y138.82 E59.28659
G1 X33.913 Y137.665 E59.34056
G1 X33.9 Y137.056 E59.36893
G1 X33.901 Y127.151 E59.83015
G1 X33.912 Y126.443 E59.86312
G1 X33.966 Y125.541 E59.90519
G1 X34.034 Y125.023 E59.92952
G1 X34.195 Y123.996 E59.97793
G1 X34.565 Y121.396 E60.10021
G1 X34.853 Y118.863 E60.21892
G1 X35.066 Y116.357 E60.33603
G1 X35.211 Y113.796 E60.45547
G1 X35.284 Y111.258 E60.5737
G1 X35.284 Y108.723 E60.69174
G1 X35.213 Y106.198 E60.80936
G1 X35.069 Y103.656 E60.92792
G1 X34.853 Y101.103 E61.04722
G1 X34.568 Y98.596 E61.16471
G1 X34.202 Y96.028 E61.2855
G1 X34.038 Y95.004 E61.33379
G1 X33.913 Y93.675 E61.39594
G1 X33.9 Y93.068 E61.42421
G1 X33.901 Y83.138 E61.8866
G1 X33.91 Y82.473 E61.91756
G1 X33.962 Y81.571 E61.95963
G1 X34.094 Y80.678 E62.00167
G1 X34.304 Y79.8 E62.0437
G1 X34.591 Y78.943 E62.08579
G1 X34.953 Y78.116 E62.12782
G1 X35.386 Y77.324 E62.16985
G1 X35.888 Y76.573 E62.21192
G1 X36.455 Y75.869 E62.25401
G1 X37.081 Y75.219 E62.29603
G1 X37.762 Y74.626 E62.33808
G1 X38.494 Y74.096 E62.38016
G1 X39.269 Y73.633 E62.4222
M204 S2000
G1 F2700 E61.6222
;MESH:wro thing (2).stl
G0 F7500 X91.655 Y73.633
G0 X126.92 Y76.328
M204 S500
;TYPE:WALL-OUTER
G1 F2700 E62.4222
