;FLAVOR:Marlin
;TIME:6272
;Filament used: 5.51867m
;Layer height: 0.2
;MINX:62.1
;MINY:34.1
;MINZ:0.28
;MAXX:157.9
;MAXY:185.9
;MAXZ:9.08
;TARGET_MACHINE.NAME:Creality Ender-3 S1
;Generated with Cura_SteamEngine 5.6.0
M82 ;absolute extrusion mode
; Ender 3 S1 Start G-code
; M413 S0 ; Disable power loss recovery
G92 E0 ; Reset Extruder

; Prep surfaces before auto home for better accuracy
M140 S60
M104 S205

G28 ; Home all axes
G1 Z10.0 F3000 ; Move Z Axis up little to prevent scratching of Heat Bed
G1 X0 Y0

M190 S60
M109 S205

G1 X0.1 Y20 Z0.3 F5000.0 ; Move to start position
G1 X0.1 Y200.0 Z0.3 F1500.0 E15 ; Draw the first line
G1 X0.4 Y200.0 Z0.3 F5000.0 ; Move to side a little
G1 X0.4 Y20 Z0.3 F1500.0 E30 ; Draw the second line
G92 E0 ; Reset Extruder
G1 Z2.0 F3000 ; Move Z Axis up little to prevent scratching of Heat Bed
G1 X5 Y20 Z0.3 F5000.0 ; Move over to prevent blob squish

G92 E0
G92 E0
G1 F2700 E-0.8
;LAYER_COUNT:45
;LAYER:0
M107
M204 S2000
G0 F7500 X71.74 Y39.348 Z0.28
M204 S500
;TYPE:SKIRT
G1 F2700 E0
G1 F1500 X72.286 Y38.542 E0.04533
G1 X72.855 Y37.84 E0.08741
G1 X73.582 Y37.091 E0.13601
G1 X74.32 Y36.455 E0.18138
G1 X75.053 Y35.927 E0.22344
G1 X75.953 Y35.394 E0.27215
G1 X76.832 Y34.976 E0.31747
G1 X77.712 Y34.648 E0.3612
G1 X78.684 Y34.381 E0.40814
G1 X79.65 Y34.207 E0.45384
G1 X80.805 Y34.113 E0.5078
G1 X81.412 Y34.1 E0.53607
G1 X146.204 Y34.1 E3.55306
G1 X147.084 Y34.113 E3.59404
G1 X148.056 Y34.172 E3.63938
G1 X149.019 Y34.318 E3.68474
G1 X149.966 Y34.549 E3.73013
G1 X150.854 Y34.849 E3.77377
G1 X151.746 Y35.239 E3.8191
G1 X152.629 Y35.726 E3.86606
G1 X153.38 Y36.228 E3.90812
G1 X154.195 Y36.886 E3.9569
G1 X154.893 Y37.564 E4.00221
G1 X155.529 Y38.301 E4.04754
G1 X156.099 Y39.091 E4.0929
G1 X156.561 Y39.867 E4.13495
G1 X157.015 Y40.809 E4.18364
G1 X157.344 Y41.687 E4.2273
G1 X157.613 Y42.659 E4.27426
G1 X157.79 Y43.625 E4.31999
G1 X157.885 Y44.755 E4.3728
G1 X157.9 Y45.43 E4.40423
G1 X157.899 Y174.3 E10.40496
G1 X157.888 Y175.063 E10.44049
G1 X157.831 Y176.036 E10.48588
G1 X157.686 Y176.999 E10.53123
G1 X157.457 Y177.945 E10.57655
G1 X157.146 Y178.869 E10.62194
G1 X156.754 Y179.76 E10.66727
G1 X156.286 Y180.612 E10.71253
G1 X155.764 Y181.393 E10.75628
G1 X155.131 Y182.178 E10.80323
G1 X154.506 Y182.829 E10.84525
G1 X153.717 Y183.517 E10.894
G1 X152.957 Y184.067 E10.93768
G1 X152.09 Y184.584 E10.98469
G1 X151.212 Y185.006 E11.03005
G1 X150.301 Y185.348 E11.07536
G1 X149.362 Y185.609 E11.12074
G1 X148.396 Y185.787 E11.16648
G1 X147.245 Y185.885 E11.22027
G1 X146.57 Y185.9 E11.25171
G1 X81.664 Y185.899 E14.274
G1 X80.931 Y185.888 E14.30814
G1 X79.959 Y185.831 E14.35347
G1 X78.996 Y185.685 E14.39883
G1 X78.05 Y185.456 E14.44415
G1 X77.126 Y185.144 E14.48956
G1 X76.236 Y184.752 E14.53485
G1 X75.413 Y184.301 E14.57855
G1 X74.574 Y183.74 E14.62554
G1 X73.87 Y183.174 E14.6676
G1 X73.117 Y182.449 E14.71628
G1 X72.48 Y181.713 E14.7616
G1 X71.95 Y180.982 E14.80364
G1 X71.414 Y180.085 E14.8523
G1 X70.992 Y179.207 E14.89766
G1 X70.65 Y178.295 E14.94302
G1 X70.39 Y177.357 E14.98834
G1 X70.212 Y176.388 E15.03422
G1 X70.112 Y175.15 E15.09205
G1 X70.042 Y171.857 E15.24542
G1 X69.919 Y169.409 E15.35955
G1 X69.72 Y166.868 E15.47824
G1 X69.448 Y164.323 E15.59742
G1 X69.12 Y161.905 E15.71104
G1 X68.705 Y159.379 E15.83024
G1 X68.228 Y156.911 E15.94729
G1 X67.685 Y154.477 E16.06341
G1 X67.062 Y152.02 E16.18144
G1 X66.373 Y149.588 E16.29914
G1 X65.618 Y147.188 E16.41629
G1 X64.792 Y144.798 E16.53404
G1 X63.909 Y142.459 E16.65046
G1 X62.912 Y140.019 E16.77319
G1 X62.588 Y139.101 E16.81852
G1 X62.344 Y138.156 E16.86397
G1 X62.187 Y137.195 E16.90931
G1 X62.113 Y136.194 E16.95605
G1 X62.1 Y135.57 E16.98511
G1 X62.101 Y104.636 E18.42553
G1 X62.114 Y103.892 E18.46017
G1 X62.175 Y102.919 E18.50557
G1 X62.322 Y101.957 E18.55088
G1 X62.534 Y101.079 E18.59294
G1 X62.906 Y99.994 E18.64635
G1 X63.198 Y99.268 E18.68279
G1 X63.681 Y98.112 E18.74113
G1 X64.578 Y95.786 E18.85721
G1 X65.42 Y93.4 E18.97503
G1 X66.198 Y90.985 E19.09317
G1 X66.896 Y88.587 E19.20947
G1 X67.538 Y86.122 E19.32808
G1 X68.105 Y83.66 E19.44572
G1 X68.593 Y81.234 E19.56095
G1 X69.023 Y78.727 E19.67939
G1 X69.377 Y76.239 E19.79641
G1 X69.658 Y73.772 E19.91202
G1 X69.876 Y71.245 E20.03013
G1 X70.016 Y68.739 E20.147
G1 X70.09 Y66.173 E20.26653
G1 X70.1 Y64.843 E20.32846
G1 X70.101 Y45.591 E21.22492
G1 X70.114 Y44.891 E21.25752
G1 X70.176 Y43.918 E21.30292
G1 X70.324 Y42.957 E21.34819
G1 X70.557 Y42.011 E21.39356
G1 X70.872 Y41.09 E21.43888
G1 X71.268 Y40.199 E21.48429
G1 X71.74 Y39.348 E21.5296
M204 S2000
G0 F7500 X72.072 Y39.572
M204 S500
G1 F1500 X72.597 Y38.794 E21.5733
G1 X73.166 Y38.092 E21.61538
G1 X73.843 Y37.394 E21.66066
G1 X74.554 Y36.78 E21.7044
G1 X75.287 Y36.252 E21.74647
G1 X76.125 Y35.755 E21.79183
G1 X76.972 Y35.351 E21.83553
G1 X77.818 Y35.034 E21.8776
G1 X78.756 Y34.775 E21.92291
G1 X79.683 Y34.606 E21.96679
G1 X80.814 Y34.513 E22.01963
G1 X81.421 Y34.5 E22.0479
G1 X146.198 Y34.5 E25.06419
G1 X147.06 Y34.512 E25.10433
G1 X147.997 Y34.568 E25.14804
G1 X148.925 Y34.707 E25.19173
G1 X149.838 Y34.928 E25.23547
G1 X150.694 Y35.216 E25.27753
G1 X151.586 Y35.606 E25.32286
G1 X152.407 Y36.059 E25.36652
G1 X153.158 Y36.561 E25.40858
G1 X153.917 Y37.173 E25.45398
G1 X154.591 Y37.826 E25.49768
G1 X155.205 Y38.535 E25.54136
G1 X155.755 Y39.296 E25.58508
G1 X156.217 Y40.072 E25.62713
G1 X156.64 Y40.949 E25.67247
G1 X156.969 Y41.827 E25.71613
G1 X157.22 Y42.732 E25.75986
G1 X157.391 Y43.659 E25.80375
G1 X157.486 Y44.789 E25.85656
G1 X157.5 Y45.43 E25.88641
G1 X157.499 Y174.295 E31.8869
G1 X157.489 Y175.04 E31.9216
G1 X157.435 Y175.977 E31.9653
G1 X157.297 Y176.906 E32.00903
G1 X157.078 Y177.818 E32.05271
G1 X156.78 Y178.708 E32.09641
G1 X156.403 Y179.568 E32.14013
G1 X155.953 Y180.39 E32.18377
G1 X155.431 Y181.171 E32.22751
G1 X154.842 Y181.901 E32.27119
G1 X154.217 Y182.552 E32.31321
G1 X153.482 Y183.193 E32.35862
G1 X152.722 Y183.743 E32.40231
G1 X151.916 Y184.224 E32.44601
G1 X151.071 Y184.632 E32.48971
G1 X150.193 Y184.963 E32.5334
G1 X149.289 Y185.216 E32.57711
G1 X148.362 Y185.388 E32.62101
G1 X147.211 Y185.486 E32.6748
G1 X146.57 Y185.5 E32.70465
G1 X81.67 Y185.499 E35.72667
G1 X80.954 Y185.489 E35.76001
G1 X80.018 Y185.435 E35.80367
G1 X79.089 Y185.296 E35.84741
G1 X78.177 Y185.077 E35.89108
G1 X77.287 Y184.778 E35.9348
G1 X76.428 Y184.401 E35.97848
G1 X75.605 Y183.95 E36.02218
G1 X74.825 Y183.428 E36.06589
G1 X74.121 Y182.862 E36.10795
G1 X73.419 Y182.187 E36.1533
G1 X72.804 Y181.478 E36.197
G1 X72.274 Y180.747 E36.23904
G1 X71.774 Y179.911 E36.2844
G1 X71.366 Y179.066 E36.32809
G1 X71.035 Y178.188 E36.37179
G1 X70.783 Y177.284 E36.41549
G1 X70.611 Y176.355 E36.45948
G1 X70.512 Y175.141 E36.5162
G1 X70.442 Y171.848 E36.66957
G1 X70.318 Y169.378 E36.78472
G1 X70.119 Y166.837 E36.90341
G1 X69.846 Y164.281 E37.0231
G1 X69.515 Y161.84 E37.1378
G1 X69.1 Y159.314 E37.257
G1 X68.62 Y156.835 E37.37458
G1 X68.073 Y154.379 E37.49174
G1 X67.45 Y151.922 E37.60977
G1 X66.758 Y149.479 E37.728
G1 X66 Y147.068 E37.84569
G1 X65.17 Y144.667 E37.96398
G1 X64.283 Y142.318 E38.0809
G1 X63.289 Y139.885 E38.20328
G1 X62.975 Y139 E38.247
G1 X62.739 Y138.091 E38.29073
G1 X62.586 Y137.165 E38.33444
G1 X62.513 Y136.186 E38.38015
G1 X62.5 Y135.57 E38.40884
G1 X62.501 Y104.643 E39.84893
G1 X62.513 Y103.916 E39.88279
G1 X62.57 Y102.979 E39.9265
G1 X62.711 Y102.051 E39.97021
G1 X62.923 Y101.173 E40.01226
G1 X63.277 Y100.143 E40.06298
G1 X63.567 Y99.422 E40.09917
G1 X64.05 Y98.266 E40.1575
G1 X64.951 Y95.93 E40.27409
G1 X65.801 Y93.523 E40.39295
G1 X66.579 Y91.108 E40.5111
G1 X67.28 Y88.699 E40.62792
G1 X67.925 Y86.223 E40.74706
G1 X68.495 Y83.75 E40.86523
G1 X68.985 Y81.313 E40.98098
G1 X69.417 Y78.795 E41.09994
G1 X69.773 Y76.295 E41.21753
G1 X70.057 Y73.806 E41.33418
G1 X70.274 Y71.279 E41.45228
G1 X70.416 Y68.751 E41.57018
G1 X70.49 Y66.185 E41.68971
G1 X70.5 Y64.846 E41.75206
G1 X70.501 Y45.598 E42.64833
G1 X70.513 Y44.916 E42.68009
G1 X70.571 Y43.979 E42.72381
G1 X70.713 Y43.052 E42.76748
G1 X70.936 Y42.14 E42.81119
G1 X71.238 Y41.252 E42.85487
G1 X71.618 Y40.393 E42.89861
G1 X72.072 Y39.572 E42.94229
M204 S2000
G0 F7500 X72.404 Y39.795
M204 S500
G1 F1500 X72.908 Y39.046 E42.98433
G1 X73.477 Y38.344 E43.02641
G1 X74.105 Y37.696 E43.06842
G1 X74.788 Y37.105 E43.11048
G1 X75.521 Y36.577 E43.15255
G1 X76.298 Y36.116 E43.19462
G1 X77.112 Y35.726 E43.23664
G1 X77.958 Y35.409 E43.27871
G1 X78.828 Y35.168 E43.32075
G1 X79.716 Y35.005 E43.36279
G1 X80.823 Y34.913 E43.41451
G1 X81.43 Y34.9 E43.44278
G1 X146.193 Y34.9 E46.45842
G1 X147.037 Y34.911 E46.49772
G1 X147.939 Y34.964 E46.5398
G1 X148.832 Y35.096 E46.58183
G1 X149.71 Y35.307 E46.62388
G1 X150.566 Y35.595 E46.66593
G1 X151.393 Y35.957 E46.70797
G1 X152.185 Y36.392 E46.75004
G1 X152.936 Y36.894 E46.79211
G1 X153.639 Y37.461 E46.83416
G1 X154.289 Y38.088 E46.87621
G1 X154.881 Y38.77 E46.91827
G1 X155.411 Y39.501 E46.96031
G1 X155.873 Y40.277 E47.00236
G1 X156.266 Y41.09 E47.04441
G1 X156.584 Y41.935 E47.08645
G1 X156.827 Y42.805 E47.12851
G1 X156.992 Y43.693 E47.17057
G1 X157.087 Y44.823 E47.22337
G1 X157.1 Y45.43 E47.25164
G1 X157.099 Y174.29 E53.25191
G1 X157.09 Y175.017 E53.28576
G1 X157.039 Y175.919 E53.32783
G1 X156.908 Y176.813 E53.3699
G1 X156.699 Y177.691 E53.41193
G1 X156.413 Y178.548 E53.454
G1 X156.052 Y179.376 E53.49606
G1 X155.62 Y180.168 E53.53806
G1 X155.119 Y180.92 E53.58014
G1 X154.553 Y181.624 E53.6222
G1 X153.928 Y182.275 E53.66422
G1 X153.247 Y182.869 E53.7063
G1 X152.516 Y183.4 E53.74837
G1 X151.742 Y183.864 E53.79039
G1 X150.929 Y184.258 E53.83246
G1 X150.085 Y184.578 E53.87449
G1 X149.215 Y184.823 E53.91658
G1 X148.328 Y184.989 E53.9586
G1 X147.177 Y185.087 E54.01239
G1 X146.57 Y185.1 E54.04066
G1 X81.675 Y185.099 E57.06244
G1 X80.977 Y185.09 E57.09495
G1 X80.076 Y185.039 E57.13697
G1 X79.182 Y184.907 E57.17905
G1 X78.304 Y184.698 E57.22107
G1 X77.447 Y184.411 E57.26316
G1 X76.62 Y184.05 E57.30517
G1 X75.827 Y183.617 E57.34725
G1 X75.076 Y183.116 E57.38928
G1 X74.372 Y182.55 E57.43134
G1 X73.721 Y181.924 E57.4734
G1 X73.128 Y181.243 E57.51545
G1 X72.598 Y180.512 E57.55749
G1 X72.134 Y179.737 E57.59955
G1 X71.74 Y178.924 E57.64162
G1 X71.42 Y178.08 E57.68365
G1 X71.176 Y177.21 E57.72572
G1 X71.01 Y176.322 E57.76779
G1 X70.911 Y175.108 E57.8245
G1 X70.842 Y171.84 E57.97671
G1 X70.717 Y169.347 E58.09294
G1 X70.518 Y166.806 E58.21162
G1 X70.244 Y164.239 E58.33183
G1 X69.91 Y161.775 E58.44762
G1 X69.495 Y159.249 E58.56681
G1 X69.012 Y156.759 E58.68492
G1 X68.461 Y154.281 E58.80312
G1 X67.838 Y151.824 E58.92115
G1 X67.143 Y149.37 E59.03991
G1 X66.382 Y146.948 E59.15813
G1 X65.548 Y144.536 E59.27697
G1 X64.657 Y142.177 E59.39439
G1 X63.666 Y139.75 E59.51645
G1 X63.362 Y138.899 E59.55853
G1 X63.134 Y138.025 E59.60059
G1 X62.985 Y137.135 E59.64261
G1 X62.913 Y136.177 E59.68735
G1 X62.9 Y135.57 E59.71562
G1 X62.901 Y104.649 E61.15543
G1 X62.912 Y103.94 E61.18845
G1 X62.966 Y103.038 E61.23052
G1 X63.1 Y102.145 E61.27257
G1 X63.312 Y101.267 E61.31463
G1 X63.648 Y100.292 E61.36265
G1 X63.936 Y99.576 E61.39858
G1 X64.419 Y98.42 E61.45692
G1 X65.324 Y96.074 E61.57401
G1 X66.182 Y93.646 E61.69392
G1 X66.96 Y91.231 E61.81206
G1 X67.664 Y88.811 E61.92942
G1 X68.312 Y86.324 E62.04909
G1 X68.885 Y83.84 E62.16779
G1 X69.377 Y81.392 E62.28406
G1 X69.811 Y78.863 E62.40354
G1 X70.169 Y76.351 E62.52169
G1 X70.456 Y73.84 E62.63938
G1 X70.672 Y71.313 E62.75747
G1 X70.816 Y68.763 E62.8764
G1 X70.89 Y66.197 E62.99594
G1 X70.9 Y64.849 E63.05871
G1 X70.901 Y45.605 E63.95479
G1 X70.912 Y44.94 E63.98576
G1 X70.967 Y44.039 E64.02779
G1 X71.102 Y43.146 E64.06984
G1 X71.315 Y42.268 E64.11191
G1 X71.604 Y41.413 E64.15394
G1 X71.968 Y40.586 E64.19601
G1 X72.404 Y39.795 E64.23807
M204 S2000
G1 F2700 E63.43807
;MESH:robotics_1.glb
G0 F7500 X90.714 Y50.833
G0 X91.425 Y52.487
G0 X92.514 Y53.575
G0 X93.818 Y53.987
G0 X93.998 Y53.314
M204 S500
;TYPE:WALL-OUTER
G1 F2700 E64.23807
G1 F1500 X92.847 Y53.005 E64.29356
G1 X91.996 Y52.156 E64.34954
G1 X91.687 Y51.004 E64.40507
G1 X92.004 Y49.835 E64.46147
G1 X92.844 Y48.996 E64.51676
G1 X94.001 Y48.685 E64.57254
G1 X95.156 Y48.996 E64.62824
G1 X95.996 Y49.835 E64.68352
G1 X96.311 Y50.988 E64.73918
G1 X96.003 Y52.157 E64.79547
G1 X95.149 Y53.006 E64.85154
G1 X93.998 Y53.314 E64.90702
M204 S2000
G1 F2700 E64.10702
G0 F7500 X93.818 Y53.987
G0 X95.486 Y53.575
G0 X96.716 Y52.827
G0 X131.284 Y52.827
G0 X132.391 Y53.5
G0 X133.819 Y53.988
G0 X134 Y53.313
M204 S500
G1 F2700 E64.90702
G1 F1500 X132.843 Y53.003 E64.9628
G1 X131.997 Y52.157 E65.01851
G1 X131.687 Y50.997 E65.07442
G1 X132.004 Y49.835 E65.1305
G1 X132.844 Y48.996 E65.18579
G1 X134.001 Y48.685 E65.24157
G1 X135.156 Y48.996 E65.29727
G1 X135.996 Y49.835 E65.35255
G1 X136.315 Y50.999 E65.40875
G1 X136.001 Y52.159 E65.46471
G1 X135.153 Y53.005 E65.52049
G1 X134 Y53.313 E65.57606
M204 S2000
G1 F2700 E64.77606
G0 F7500 X133.819 Y53.988
G0 X133.861 Y54.287
G0 X133.851 Y167.691
G0 X133.684 Y168.525
G0 X132.721 Y168.783
G0 X131.783 Y169.721
G0 X131.44 Y171
G0 X131.749 Y172.151
G0 X132.663 Y173.678
G0 X132.844 Y173.004
M204 S500
G1 F2700 E65.57606
G1 F1500 X131.996 Y172.156 E65.6319
G1 X131.688 Y170.991 E65.68801
G1 X131.998 Y169.841 E65.74347
G1 X132.844 Y168.997 E65.79912
G1 X134.002 Y168.686 E65.85495
G1 X135.153 Y168.995 E65.91044
G1 X136.002 Y169.843 E65.96632
G1 X136.314 Y171.005 E66.02234
G1 X136.004 Y172.156 E66.07785
G1 X135.156 Y173.004 E66.13369
G1 X133.999 Y173.315 E66.18948
G1 X132.844 Y173.004 E66.24517
M204 S2000
G1 F2700 E65.44517
G0 F7500 X132.663 Y173.678
G0 X132.162 Y173.715
G0 X95.838 Y173.715
G0 X95.336 Y173.679
G0 X95.156 Y173.004
M204 S500
G1 F2700 E66.24517
G1 F1500 X93.999 Y173.315 E66.30096
G1 X92.844 Y173.004 E66.35666
G1 X91.996 Y172.156 E66.4125
G1 X91.687 Y170.991 E66.46862
G1 X91.998 Y169.843 E66.52401
G1 X92.847 Y168.995 E66.57988
G1 X94 Y168.687 E66.63545
G1 X95.158 Y168.998 E66.69128
G1 X96.007 Y169.854 E66.74742
G1 X96.313 Y171.005 E66.80288
G1 X96.004 Y172.156 E66.85837
G1 X95.156 Y173.004 E66.91422
M204 S2000
G1 F2700 E66.11422
G0 F7500 X95.336 Y173.679
G0 X81.57 Y174.43
G0 X81.301 Y174.699
M204 S500
G1 F2700 E66.91422
G1 F1500 X146.7 Y174.7 E69.95947
G1 X146.7 Y45.3 E75.98487
G1 X81.301 Y45.301 E79.03012
G1 X81.301 Y174.699 E85.05544
M204 S2000
G0 F7500 X81.57 Y174.43
G0 X94.176 Y173.991
G0 X94.113 Y173.75
M204 S500
;TYPE:WALL-INNER
G1 F1181.1 X93.829 Y173.741 E85.07224
G1 F1315.8 X92.792 Y173.404 E85.13012
G1 F1500 X92.523 Y173.249 E85.14458
G1 X91.751 Y172.477 E85.19542
G1 X91.596 Y172.208 E85.20987
G1 X91.291 Y171.076 E85.26446
G1 X91.298 Y170.898 E85.27276
G1 X91.623 Y169.713 E85.32997
G1 X91.702 Y169.577 E85.3373
G1 X92.576 Y168.704 E85.39482
G1 X92.717 Y168.616 E85.40256
G1 X93.934 Y168.291 E85.46121
G1 X94.129 Y168.307 E85.47032
G1 X95.231 Y168.603 E85.52346
G1 X95.461 Y168.736 E85.53583
G1 X96.291 Y169.569 E85.59058
G1 X96.384 Y169.729 E85.5992
G1 X96.701 Y170.899 E85.65564
G1 X96.708 Y171.076 E85.66389
G1 X96.404 Y172.208 E85.71847
G1 X96.249 Y172.477 E85.73293
G1 X95.477 Y173.249 E85.78376
G1 X95.208 Y173.404 E85.79822
G1 F1327.4 X94.113 Y173.75 E85.85865
M204 S2000
G0 F7500 X94.176 Y173.991
G0 X95.326 Y174
G0 X95.326 Y174.3
M204 S500
G1 F1500 X132.674 Y174.3 E87.59772
G1 F1315.8 X133.763 Y174.244 E87.65561
G1 F1181.1 X134.156 Y174.249 E87.67885
G1 F1217 X134.237 Y174.259 E87.68353
G1 F1360.5 X135.326 Y174.3 E87.73948
G1 F1500 X146.3 Y174.3 E88.25048
G1 X146.3 Y45.7 E94.23863
G1 X81.701 Y45.701 E97.24663
G1 X81.701 Y174.299 E103.23469
G1 X92.674 Y174.3 E103.74564
G1 F1315.8 X93.763 Y174.244 E103.80352
G1 F1181.1 X94.156 Y174.249 E103.82677
G1 F1217 X94.237 Y174.259 E103.83145
G1 F1360.5 X95.326 Y174.3 E103.8874
M204 S2000
G0 F7500 X94.903 Y173.9
M204 S500
G1 F1500 X133.097 Y173.9 E105.66587
G1 X132.688 Y173.79 E105.68559
G1 X132.24 Y173.532 E105.70966
G1 X131.468 Y172.76 E105.7605
G1 X131.21 Y172.312 E105.78457
G1 X130.893 Y171.132 E105.84147
G1 X130.901 Y170.839 E105.85512
G1 X131.243 Y169.584 E105.91569
G1 X131.399 Y169.317 E105.93008
G1 X132.34 Y168.368 E105.99232
