;FLAVOR:Marlin
;TIME:8019
;Filament used: 5.65009m
;Layer height: 0.2
;MINX:33.1
;MINY:45.2
;MINZ:0.28
;MAXX:186.9
;MAXY:196.997
;MAXZ:10.48
;TARGET_MACHINE.NAME:Creality Ender-3 S1
;Generated with Cura_SteamEngine 5.6.0
M82 ;absolute extrusion mode
; Ender 3 S1 Start G-code
; M413 S0 ; Disable power loss recovery
G92 E0 ; Reset Extruder

; Prep surfaces before auto home for better accuracy
M140 S60
M104 S205

G28 ; Home all axes
G1 Z10.0 F3000 ; Move Z Axis up little to prevent scratching of Heat Bed
G1 X0 Y0

M190 S60
M109 S205

G1 X0.1 Y20 Z0.3 F5000.0 ; Move to start position
G1 X0.1 Y200.0 Z0.3 F1500.0 E15 ; Draw the first line
G1 X0.4 Y200.0 Z0.3 F5000.0 ; Move to side a little
G1 X0.4 Y20 Z0.3 F1500.0 E30 ; Draw the second line
G92 E0 ; Reset Extruder
G1 Z2.0 F3000 ; Move Z Axis up little to prevent scratching of Heat Bed
G1 X5 Y20 Z0.3 F5000.0 ; Move over to prevent blob squish

G92 E0
G92 E0
G1 F2700 E-0.8
;LAYER_COUNT:52
;LAYER:0
M107
M204 S2000
G0 F7500 X39.751 Y82.761 Z0.28
M204 S500
;TYPE:SKIRT
G1 F2700 E0
G1 F1500 X41.024 Y82.302 E0.06301
G1 X41.832 Y82.065 E0.10222
G1 X42.909 Y81.769 E0.15423
G1 X45.32 Y81.028 E0.27168
G1 X47.751 Y80.205 E0.39119
G1 X50.092 Y79.339 E0.50741
G1 X52.389 Y78.414 E0.62272
G1 X54.731 Y77.394 E0.74167
G1 X57.017 Y76.321 E0.85925
G1 X59.217 Y75.209 E0.97404
G1 X61.479 Y73.987 E1.09375
G1 X63.641 Y72.739 E1.20999
G1 X65.782 Y71.418 E1.32714
G1 X67.886 Y70.037 E1.44433
G1 X69.94 Y68.604 E1.56095
G1 X71.996 Y67.083 E1.68003
G1 X73.949 Y65.55 E1.79564
G1 X75.899 Y63.929 E1.91372
G1 X77.774 Y62.276 E2.03011
G1 X79.644 Y60.534 E2.14911
G1 X81.403 Y58.798 E2.26419
G1 X83.17 Y56.953 E2.38315
G1 X84.846 Y55.102 E2.49942
G1 X86.501 Y53.165 E2.61805
G1 X88.058 Y51.236 E2.73348
G1 X89.009 Y49.986 E2.80662
G1 X89.487 Y49.377 E2.84267
G1 X90.125 Y48.642 E2.88799
G1 X90.772 Y48.013 E2.93001
G1 X91.583 Y47.354 E2.97866
G1 X92.362 Y46.829 E3.02241
G1 X93.247 Y46.342 E3.06944
G1 X94.137 Y45.951 E3.11471
G1 X95.06 Y45.639 E3.16008
G1 X95.938 Y45.425 E3.20216
G1 X96.966 Y45.269 E3.25057
G1 X97.805 Y45.213 E3.28973
G1 X98.412 Y45.2 E3.318
G1 X121.204 Y45.2 E4.37929
G1 X122.087 Y45.213 E4.42041
G1 X123.059 Y45.272 E4.46575
G1 X124.022 Y45.418 E4.51111
G1 X124.969 Y45.649 E4.5565
G1 X125.89 Y45.962 E4.60179
G1 X126.782 Y46.356 E4.6472
G1 X127.635 Y46.827 E4.69257
G1 X128.441 Y47.371 E4.73785
G1 X129.198 Y47.984 E4.78321
G1 X129.848 Y48.611 E4.82526
G1 X130.643 Y49.541 E4.88223
G1 X131.181 Y50.246 E4.92352
G1 X132.778 Y52.279 E5.0439
G1 X134.376 Y54.202 E5.16033
G1 X136.023 Y56.07 E5.27629
G1 X137.795 Y57.971 E5.3973
G1 X139.503 Y59.7 E5.51047
G1 X141.362 Y61.482 E5.63038
G1 X143.198 Y63.143 E5.74567
G1 X145.152 Y64.812 E5.86533
G1 X147.079 Y66.367 E5.98063
G1 X149.082 Y67.891 E6.09782
G1 X151.139 Y69.367 E6.21571
G1 X153.234 Y70.782 E6.33343
G1 X155.326 Y72.11 E6.44881
G1 X157.532 Y73.424 E6.56837
G1 X159.68 Y74.624 E6.68294
G1 X161.942 Y75.804 E6.80174
G1 X164.211 Y76.907 E6.91922
G1 X166.494 Y77.94 E7.0359
G1 X168.799 Y78.904 E7.15224
G1 X171.199 Y79.829 E7.27201
G1 X173.51 Y80.644 E7.38611
G1 X175.959 Y81.431 E7.50589
G1 X178.975 Y82.302 E7.65207
G1 X179.897 Y82.616 E7.69742
G1 X180.788 Y83.011 E7.7428
G1 X181.639 Y83.482 E7.78809
G1 X182.446 Y84.027 E7.83344
G1 X183.203 Y84.642 E7.87885
G1 X183.9 Y85.321 E7.92416
G1 X184.535 Y86.059 E7.9695
G1 X185.104 Y86.85 E8.01487
G1 X185.6 Y87.689 E8.06025
G1 X185.991 Y88.503 E8.1023
G1 X186.358 Y89.48 E8.1509
G1 X186.608 Y90.384 E8.19457
G1 X186.791 Y91.386 E8.242
G1 X186.886 Y92.533 E8.2956
G1 X186.9 Y93.182 E8.32582
G1 X186.899 Y103.088 E8.78709
G1 X186.886 Y103.851 E8.82262
G1 X186.828 Y104.809 E8.86731
G1 X186.756 Y105.351 E8.89277
G1 X186.595 Y106.378 E8.94118
G1 X186.227 Y108.966 E9.0629
G1 X185.945 Y111.455 E9.17954
G1 X185.73 Y113.961 E9.29665
G1 X185.589 Y116.478 E9.41404
G1 X185.516 Y119.016 E9.53227
G1 X185.516 Y121.527 E9.64919
G1 X185.587 Y124.03 E9.76579
G1 X185.729 Y126.525 E9.88215
G1 X185.943 Y129.075 E10.00131
G1 X186.225 Y131.55 E10.1173
G1 X186.584 Y134.067 E10.23569
G1 X186.75 Y135.098 E10.28432
G1 X186.885 Y136.525 E10.35106
G1 X186.9 Y137.182 E10.38166
G1 X186.899 Y147.078 E10.84246
G1 X186.886 Y147.844 E10.87813
G1 X186.826 Y148.816 E10.92348
G1 X186.679 Y149.777 E10.96875
G1 X186.448 Y150.725 E11.01418
G1 X186.146 Y151.614 E11.0579
G1 X185.74 Y152.537 E11.10486
G1 X185.305 Y153.329 E11.14693
G1 X184.722 Y154.196 E11.19558
G1 X184.132 Y154.925 E11.23925
G1 X183.429 Y155.65 E11.28627
G1 X182.691 Y156.285 E11.33161
G1 X181.901 Y156.854 E11.37694
G1 X181.094 Y157.333 E11.42064
G1 X180.183 Y157.769 E11.46767
G1 X179.304 Y158.098 E11.51137
G1 X178.36 Y158.361 E11.557
G1 X177.234 Y158.62 E11.6108
G1 X174.752 Y159.231 E11.72982
G1 X172.265 Y159.917 E11.84995
G1 X169.912 Y160.641 E11.96459
G1 X167.504 Y161.455 E12.08295
G1 X165.124 Y162.336 E12.20112
G1 X162.839 Y163.257 E12.31584
G1 X160.477 Y164.287 E12.43582
G1 X158.221 Y165.347 E12.55189
G1 X155.967 Y166.486 E12.66949
G1 X153.76 Y167.68 E12.78633
G1 X151.578 Y168.941 E12.90368
G1 X149.455 Y170.251 E13.01984
G1 X147.33 Y171.646 E13.1382
G1 X145.245 Y173.101 E13.25659
G1 X143.266 Y174.567 E13.37127
G1 X141.267 Y176.136 E13.4896
G1 X139.34 Y177.74 E13.60635
G1 X137.438 Y179.417 E13.72442
G1 X135.583 Y181.147 E13.84254
G1 X133.833 Y182.873 E13.95699
G1 X132.058 Y184.728 E14.07654
G1 X130.374 Y186.589 E14.19341
G1 X128.727 Y188.516 E14.31144
G1 X127.179 Y190.433 E14.42618
G1 X125.478 Y192.671 E14.55707
G1 X124.853 Y193.418 E14.60242
G1 X124.19 Y194.082 E14.64612
G1 X123.417 Y194.731 E14.69311
G1 X122.619 Y195.287 E14.7384
G1 X121.836 Y195.738 E14.78048
G1 X120.921 Y196.162 E14.82744
G1 X119.971 Y196.503 E14.87444
G1 X119.097 Y196.733 E14.91652
G1 X118.063 Y196.908 E14.96535
G1 X117.042 Y196.984 E15.01302
G1 X116.418 Y196.997 E15.04209
G1 X82.498 Y196.996 E16.62154
G1 X81.762 Y196.984 E16.65582
G1 X80.79 Y196.925 E16.70116
G1 X79.827 Y196.779 E16.74652
G1 X78.879 Y196.548 E16.79195
G1 X78.023 Y196.26 E16.83401
G1 X77.067 Y195.841 E16.88261
G1 X76.214 Y195.37 E16.92798
G1 X75.407 Y194.825 E16.97332
G1 X74.652 Y194.212 E17.01861
G1 X73.953 Y193.534 E17.06395
G1 X73.316 Y192.796 E17.10935
G1 X72.771 Y192.041 E17.15271
G1 X72.421 Y191.478 E17.18358
G1 X70.876 Y188.792 E17.32786
G1 X69.572 Y186.679 E17.44348
G1 X68.188 Y184.571 E17.5609
G1 X66.743 Y182.504 E17.67834
G1 X65.247 Y180.483 E17.79542
G1 X63.687 Y178.496 E17.91305
G1 X62.101 Y176.592 E18.02844
G1 X60.401 Y174.664 E18.14813
G1 X58.684 Y172.822 E18.26538
G1 X56.954 Y171.069 E18.38007
G1 X55.103 Y169.298 E18.49935
G1 X53.241 Y167.613 E18.61629
G1 X51.331 Y165.983 E18.73321
G1 X49.366 Y164.396 E18.85082
G1 X47.368 Y162.877 E18.96769
G1 X45.328 Y161.414 E19.08459
G1 X43.242 Y160.005 E19.2018
G1 X41.12 Y158.659 E19.31881
G1 X38.464 Y157.082 E19.46264
G1 X37.65 Y156.545 E19.50805
G1 X36.889 Y155.94 E19.55332
G1 X36.232 Y155.319 E19.59542
G1 X35.539 Y154.536 E19.6441
G1 X34.964 Y153.752 E19.68938
G1 X34.458 Y152.918 E19.7348
G1 X34.03 Y152.044 E19.78011
G1 X33.681 Y151.136 E19.82541
G1 X33.411 Y150.2 E19.87077
G1 X33.238 Y149.313 E19.91285
G1 X33.115 Y147.969 E19.9757
G1 X33.1 Y147.312 E20.0063
G1 X33.101 Y137.388 E20.4684
G1 X33.114 Y136.645 E20.503
G1 X33.172 Y135.686 E20.54774
G1 X33.244 Y135.149 E20.57297
G1 X33.405 Y134.122 E20.62137
G1 X33.773 Y131.534 E20.74309
G1 X34.055 Y129.045 E20.85973
G1 X34.27 Y126.539 E20.97685
G1 X34.411 Y124.022 E21.09424
G1 X34.484 Y121.484 E21.21247
G1 X34.484 Y118.973 E21.32939
G1 X34.413 Y116.47 E21.44599
G1 X34.271 Y113.974 E21.5624
G1 X34.057 Y111.421 E21.68169
G1 X33.776 Y108.958 E21.79713
G1 X33.41 Y106.39 E21.91791
G1 X33.248 Y105.38 E21.96554
G1 X33.113 Y103.942 E22.0328
G1 X33.1 Y103.318 E22.06186
G1 X33.101 Y93.361 E22.5255
G1 X33.113 Y92.659 E22.55819
G1 X33.173 Y91.686 E22.60358
G1 X33.32 Y90.725 E22.64885
G1 X33.551 Y89.777 E22.69429
G1 X33.853 Y88.888 E22.73801
G1 X34.26 Y87.966 E22.78493
G1 X34.731 Y87.114 E22.83027
G1 X35.276 Y86.307 E22.87561
G1 X35.867 Y85.577 E22.91934
G1 X36.57 Y84.852 E22.96637
G1 X37.307 Y84.218 E23.01164
G1 X38.098 Y83.649 E23.05701
G1 X38.937 Y83.152 E23.10242
G1 X39.751 Y82.761 E23.14447
M204 S2000
G0 F7500 X39.924 Y83.122
M204 S500
G1 F1500 X41.136 Y82.686 E23.20444
G1 X41.938 Y82.451 E23.24336
G1 X43.015 Y82.154 E23.29538
G1 X45.448 Y81.407 E23.41389
G1 X47.879 Y80.584 E23.5334
G1 X50.231 Y79.714 E23.65017
G1 X52.549 Y78.781 E23.76652
G1 X54.891 Y77.761 E23.88547
G1 X57.187 Y76.683 E24.00357
G1 X59.407 Y75.561 E24.1194
G1 X61.669 Y74.339 E24.23912
G1 X63.841 Y73.085 E24.3559
G1 X65.992 Y71.758 E24.47358
G1 X68.115 Y70.365 E24.59182
G1 X70.178 Y68.926 E24.70894
G1 X72.234 Y67.405 E24.82803
G1 X74.205 Y65.858 E24.9447
G1 X76.155 Y64.236 E25.06281
G1 X78.047 Y62.569 E25.18022
G1 X79.917 Y60.827 E25.29923
G1 X81.684 Y59.083 E25.41483
G1 X83.459 Y57.23 E25.53431
G1 X85.143 Y55.37 E25.65115
G1 X86.805 Y53.425 E25.77028
G1 X88.369 Y51.487 E25.88624
G1 X89.323 Y50.233 E25.95961
G1 X89.79 Y49.639 E25.99479
G1 X90.404 Y48.929 E26.0385
G1 X91.051 Y48.3 E26.08052
G1 X91.807 Y47.686 E26.12587
G1 X92.586 Y47.161 E26.16961
G1 X93.408 Y46.708 E26.21331
G1 X94.266 Y46.33 E26.25697
G1 X95.155 Y46.028 E26.30069
G1 X96.033 Y45.814 E26.34277
G1 X96.993 Y45.668 E26.38798
G1 X97.814 Y45.613 E26.4263
G1 X98.421 Y45.6 E26.45457
G1 X121.198 Y45.6 E27.51516
G1 X122.063 Y45.612 E27.55544
G1 X123 Y45.668 E27.59915
G1 X123.928 Y45.807 E27.64285
G1 X124.841 Y46.028 E27.68659
G1 X125.729 Y46.328 E27.73023
G1 X126.589 Y46.706 E27.77397
G1 X127.412 Y47.159 E27.81772
G1 X128.19 Y47.682 E27.86137
G1 X128.92 Y48.272 E27.90508
G1 X129.57 Y48.899 E27.94713
G1 X130.325 Y49.784 E28.0013
G1 X130.866 Y50.493 E28.04282
G1 X132.47 Y52.535 E28.16373
G1 X134.069 Y54.458 E28.28019
G1 X135.73 Y56.343 E28.39718
G1 X137.502 Y58.244 E28.51819
G1 X139.226 Y59.989 E28.63241
G1 X141.085 Y61.771 E28.75232
G1 X142.938 Y63.447 E28.86866
G1 X144.892 Y65.116 E28.98832
G1 X146.837 Y66.685 E29.10468
G1 X148.849 Y68.216 E29.22241
G1 X150.906 Y69.692 E29.3403
G1 X153.02 Y71.12 E29.45909
G1 X155.121 Y72.454 E29.57497
G1 X157.327 Y73.768 E29.69454
G1 X159.495 Y74.979 E29.81017
G1 X161.767 Y76.164 E29.92949
G1 X164.036 Y77.267 E30.04696
G1 X166.34 Y78.309 E30.16471
G1 X168.655 Y79.277 E30.28155
G1 X171.059 Y80.203 E30.40151
G1 X173.388 Y81.025 E30.51651
G1 X175.837 Y81.812 E30.63629
G1 X178.847 Y82.681 E30.78217
G1 X179.736 Y82.982 E30.82588
G1 X180.595 Y83.361 E30.8696
G1 X181.416 Y83.814 E30.91326
G1 X182.194 Y84.338 E30.95694
G1 X182.924 Y84.929 E31.00067
G1 X183.597 Y85.582 E31.04434
G1 X184.211 Y86.293 E31.08808
G1 X184.76 Y87.054 E31.13177
G1 X185.239 Y87.862 E31.17551
G1 X185.63 Y88.676 E31.21756
G1 X185.972 Y89.587 E31.26287
G1 X186.222 Y90.491 E31.30655
G1 X186.392 Y91.419 E31.35048
G1 X186.487 Y92.566 E31.40407
G1 X186.5 Y93.182 E31.43276
G1 X186.499 Y103.082 E31.89374
G1 X186.487 Y103.827 E31.92844
G1 X186.431 Y104.757 E31.97182
G1 X186.361 Y105.289 E31.99681
G1 X186.2 Y106.316 E32.04521
G1 X185.831 Y108.91 E32.16722
G1 X185.546 Y111.421 E32.28489
G1 X185.332 Y113.927 E32.40201
G1 X185.189 Y116.466 E32.52042
G1 X185.116 Y119.004 E32.63865
G1 X185.116 Y121.527 E32.75613
G1 X185.187 Y124.041 E32.87324
G1 X185.33 Y126.559 E32.99068
G1 X185.545 Y129.109 E33.10984
G1 X185.829 Y131.606 E33.22686
G1 X186.189 Y134.131 E33.34562
G1 X186.355 Y135.162 E33.39425
G1 X186.485 Y136.534 E33.45842
G1 X186.5 Y137.182 E33.4886
G1 X186.499 Y147.072 E33.94912
G1 X186.487 Y147.82 E33.98395
G1 X186.43 Y148.756 E34.02762
G1 X186.29 Y149.683 E34.07127
G1 X186.069 Y150.596 E34.11501
G1 X185.767 Y151.485 E34.15873
G1 X185.389 Y152.344 E34.20243
G1 X184.954 Y153.136 E34.24451
G1 X184.411 Y153.944 E34.28984
G1 X183.821 Y154.673 E34.33351
G1 X183.168 Y155.347 E34.37721
G1 X182.457 Y155.961 E34.42095
G1 X181.696 Y156.51 E34.46464
G1 X180.921 Y156.972 E34.50666
G1 X180.043 Y157.394 E34.55202
G1 X179.164 Y157.723 E34.59572
G1 X178.27 Y157.971 E34.63892
G1 X177.144 Y158.231 E34.69273
G1 X174.645 Y158.845 E34.81256
G1 X172.158 Y159.532 E34.9327
G1 X169.784 Y160.262 E35.04835
G1 X167.376 Y161.076 E35.16671
G1 X164.974 Y161.965 E35.28597
G1 X162.679 Y162.89 E35.40119
G1 X160.317 Y163.92 E35.52118
G1 X158.051 Y164.985 E35.63776
G1 X155.777 Y166.134 E35.7564
G1 X153.57 Y167.328 E35.87324
G1 X151.378 Y168.595 E35.99114
G1 X149.235 Y169.917 E36.10838
G1 X147.11 Y171.312 E36.22675
G1 X145.016 Y172.773 E36.34564
G1 X143.019 Y174.252 E36.46135
G1 X141.02 Y175.821 E36.57968
G1 X139.075 Y177.44 E36.69752
G1 X137.173 Y179.117 E36.8156
G1 X135.31 Y180.854 E36.9342
G1 X133.552 Y182.588 E37.04918
G1 X131.769 Y184.451 E37.16926
G1 X130.077 Y186.321 E37.28669
G1 X128.423 Y188.256 E37.40522
G1 X126.868 Y190.182 E37.52048
G1 X125.171 Y192.415 E37.65108
G1 X124.57 Y193.135 E37.69475
G1 X123.907 Y193.799 E37.73844
G1 X123.188 Y194.403 E37.78217
G1 X122.419 Y194.94 E37.82584
G1 X121.636 Y195.391 E37.86792
G1 X120.785 Y195.786 E37.9116
G1 X119.869 Y196.116 E37.95694
G1 X118.995 Y196.346 E37.99902
G1 X118.033 Y196.509 E38.04446
G1 X117.034 Y196.584 E38.09111
G1 X116.418 Y196.597 E38.1198
G1 X82.504 Y196.596 E39.69897
G1 X81.786 Y196.585 E39.73241
G1 X80.849 Y196.529 E39.77612
G1 X79.921 Y196.39 E39.81981
G1 X79.007 Y196.169 E39.8636
G1 X78.151 Y195.881 E39.90565
G1 X77.26 Y195.491 E39.95094
G1 X76.437 Y195.038 E39.99469
G1 X75.659 Y194.514 E40.03836
G1 X74.93 Y193.924 E40.08203
G1 X74.255 Y193.272 E40.12573
G1 X73.64 Y192.562 E40.16947
G1 X73.111 Y191.83 E40.21153
G1 X72.768 Y191.278 E40.24179
G1 X71.222 Y188.592 E40.3861
G1 X69.912 Y186.469 E40.50226
G1 X68.516 Y184.342 E40.62073
G1 X67.065 Y182.266 E40.73866
G1 X65.569 Y180.245 E40.85575
G1 X64.002 Y178.249 E40.97391
G1 X62.401 Y176.327 E41.09039
G1 X60.701 Y174.399 E41.21008
G1 X58.977 Y172.549 E41.32783
G1 X57.239 Y170.788 E41.44304
G1 X55.38 Y169.009 E41.56285
G1 X53.509 Y167.316 E41.68035
G1 X51.591 Y165.679 E41.79776
G1 X49.617 Y164.085 E41.91591
G1 X47.601 Y162.552 E42.03384
G1 X45.561 Y161.089 E42.15073
G1 X43.456 Y159.667 E42.26902
G1 X41.334 Y158.321 E42.38603
G1 X38.684 Y156.748 E42.52952
G1 X37.899 Y156.232 E42.57327
G1 X37.164 Y155.649 E42.61695
G1 X36.507 Y155.028 E42.65905
G1 X35.861 Y154.299 E42.7044
G1 X35.306 Y153.544 E42.74804
G1 X34.817 Y152.741 E42.79181
G1 X34.403 Y151.9 E42.83546
G1 X34.065 Y151.025 E42.87914
G1 X33.804 Y150.123 E42.92286
G1 X33.631 Y149.236 E42.96494
G1 X33.515 Y147.96 E43.02461
G1 X33.5 Y147.312 E43.05479
G1 X33.501 Y137.395 E43.51656
G1 X33.513 Y136.669 E43.55037
G1 X33.569 Y135.739 E43.59376
G1 X33.639 Y135.211 E43.61856
G1 X33.8 Y134.184 E43.66696
G1 X34.169 Y131.59 E43.78897
G1 X34.454 Y129.079 E43.90664
G1 X34.668 Y126.573 E44.02376
G1 X34.811 Y124.034 E44.14217
G1 X34.884 Y121.496 E44.2604
G1 X34.884 Y118.973 E44.37788
G1 X34.813 Y116.459 E44.49499
G1 X34.67 Y113.94 E44.61247
G1 X34.455 Y111.387 E44.73177
G1 X34.172 Y108.902 E44.84823
G1 X33.806 Y106.334 E44.96902
G1 X33.643 Y105.317 E45.01698
G1 X33.513 Y103.934 E45.08166
G1 X33.5 Y103.318 E45.11035
G1 X33.501 Y93.367 E45.57371
G1 X33.512 Y92.683 E45.60556
G1 X33.569 Y91.746 E45.64927
G1 X33.709 Y90.819 E45.69293
G1 X33.93 Y89.906 E45.73667
G1 X34.232 Y89.017 E45.78039
G1 X34.61 Y88.159 E45.82405
G1 X35.063 Y87.337 E45.86775
G1 X35.587 Y86.559 E45.91143
G1 X36.178 Y85.829 E45.95516
G1 X36.831 Y85.155 E45.99886
G1 X37.541 Y84.542 E46.04254
G1 X38.302 Y83.993 E46.08623
G1 X39.11 Y83.513 E46.12999
G1 X39.924 Y83.122 E46.17204
M204 S2000
G0 F7500 X40.097 Y83.483
M204 S500
G1 F1500 X41.248 Y83.07 E46.22898
G1 X42.045 Y82.837 E46.26765
G1 X43.122 Y82.539 E46.31968
G1 X45.576 Y81.786 E46.43921
G1 X48.007 Y80.963 E46.55872
G1 X50.37 Y80.089 E46.67604
G1 X52.709 Y79.148 E46.79343
G1 X55.051 Y78.128 E46.91238
G1 X57.357 Y77.045 E47.03101
G1 X59.597 Y75.913 E47.14788
G1 X61.859 Y74.691 E47.26759
G1 X64.041 Y73.431 E47.38492
G1 X66.202 Y72.098 E47.50315
G1 X68.344 Y70.693 E47.62243
G1 X70.416 Y69.248 E47.74005
G1 X72.472 Y67.727 E47.85914
G1 X74.452 Y66.173 E47.97634
G1 X76.411 Y64.543 E48.09501
G1 X78.32 Y62.862 E48.21345
G1 X80.19 Y61.12 E48.33245
G1 X81.965 Y59.368 E48.44859
G1 X83.748 Y57.507 E48.5686
