;FLAVOR:Marlin
;TIME:13938
;Filament used: 11.0028m
;Layer height: 0.2
;MINX:32.844
;MINY:56.85
;MINZ:0.28
;MAXX:187.15
;MAXY:163.15
;MAXZ:11.48
;TARGET_MACHINE.NAME:Creality Ender-3 S1
;Generated with Cura_SteamEngine 5.6.0
M82 ;absolute extrusion mode
; Ender 3 S1 Start G-code
; M413 S0 ; Disable power loss recovery
G92 E0 ; Reset Extruder

; Prep surfaces before auto home for better accuracy
M140 S60
M104 S205

G28 ; Home all axes
G1 Z10.0 F3000 ; Move Z Axis up little to prevent scratching of Heat Bed
G1 X0 Y0

M190 S60
M109 S205

G1 X0.1 Y20 Z0.3 F5000.0 ; Move to start position
G1 X0.1 Y200.0 Z0.3 F1500.0 E15 ; Draw the first line
G1 X0.4 Y200.0 Z0.3 F5000.0 ; Move to side a little
G1 X0.4 Y20 Z0.3 F1500.0 E30 ; Draw the second line
G92 E0 ; Reset Extruder
G1 Z2.0 F3000 ; Move Z Axis up little to prevent scratching of Heat Bed
G1 X5 Y20 Z0.3 F5000.0 ; Move over to prevent blob squish

G92 E0
G92 E0
G1 F2700 E-0.8
;LAYER_COUNT:57
;LAYER:0
M107
M204 S2000
G0 F7500 X37.851 Y58.959 Z0.28
M204 S500
;TYPE:SKIRT
G1 F2700 E0
G1 F1500 X38.69 Y58.463 E0.04538
G1 X39.504 Y58.072 E0.08743
G1 X40.385 Y57.728 E0.13147
G1 X41.322 Y57.428 E0.17728
G1 X41.605 Y57.352 E0.19093
G1 X42.548 Y57.141 E0.23593
G1 X43.227 Y57.044 E0.26786
G1 X44.114 Y56.943 E0.30943
G1 X44.77 Y56.89 E0.34008
G1 X45.456 Y56.864 E0.37204
G1 X46.465 Y56.852 E0.41903
G1 X82.762 Y56.85 E2.10917
G1 X84.461 Y56.883 E2.1883
G1 X85.217 Y56.925 E2.22356
G1 X85.752 Y56.973 E2.24857
G1 X86.589 Y57.083 E2.28788
G1 X87.599 Y57.285 E2.33584
G1 X88.107 Y57.413 E2.36023
G1 X89.037 Y57.692 E2.40544
G1 X89.854 Y58.012 E2.4463
G1 X90.861 Y58.457 E2.49756
G1 X91.678 Y58.83 E2.53938
G1 X93.962 Y59.796 E2.65486
G1 X96.351 Y60.726 E2.77423
G1 X98.689 Y61.563 E2.88987
G1 X101.094 Y62.345 E3.00762
G1 X103.504 Y63.057 E3.12464
G1 X105.939 Y63.702 E3.24193
G1 X108.388 Y64.275 E3.35905
G1 X110.879 Y64.783 E3.47743
G1 X113.312 Y65.21 E3.59245
G1 X115.838 Y65.581 E3.71133
G1 X118.312 Y65.872 E3.82733
G1 X120.838 Y66.097 E3.94541
G1 X123.306 Y66.246 E4.06054
G1 X125.896 Y66.33 E4.18121
G1 X127.523 Y66.345 E4.25697
G1 X129.532 Y66.346 E4.35052
G1 X132.124 Y66.31 E4.47122
G1 X134.687 Y66.203 E4.59067
G1 X137.125 Y66.041 E4.70445
G1 X137.71 Y66.017 E4.73171
G1 X138.525 Y66.007 E4.76966
G1 X175.601 Y66.008 E6.49607
G1 X176.334 Y66.02 E6.53021
G1 X177.306 Y66.079 E6.57555
G1 X178.269 Y66.225 E6.62091
G1 X179.216 Y66.456 E6.6663
G1 X180.104 Y66.756 E6.70994
G1 X180.996 Y67.146 E6.75527
G1 X181.879 Y67.633 E6.80223
G1 X182.63 Y68.135 E6.84429
G1 X183.445 Y68.793 E6.89307
G1 X184.143 Y69.471 E6.93838
G1 X184.779 Y70.208 E6.98371
G1 X185.349 Y70.998 E7.02907
G1 X185.811 Y71.774 E7.07112
G1 X186.265 Y72.716 E7.11981
G1 X186.594 Y73.594 E7.16347
G1 X186.863 Y74.566 E7.21043
G1 X187.04 Y75.532 E7.25616
G1 X187.135 Y76.655 E7.30864
G1 X187.15 Y77.329 E7.34003
G1 X187.149 Y79.553 E7.44359
G1 X187.137 Y80.298 E7.47829
G1 X187.1 Y81.034 E7.5126
G1 X186.871 Y83.707 E7.63752
G1 X186.733 Y86.169 E7.75235
G1 X186.65 Y90.115 E7.93613
G1 X186.649 Y137.501 E10.14262
G1 X186.637 Y138.233 E10.17671
G1 X186.585 Y139.147 E10.21934
G1 X186.488 Y140.021 E10.26028
G1 X186.148 Y142.453 E10.37463
G1 X186.046 Y143.246 E10.41186
G1 X185.877 Y144.206 E10.45725
G1 X185.624 Y145.146 E10.50258
G1 X185.315 Y145.994 E10.5446
G1 X184.872 Y146.941 E10.59328
G1 X184.38 Y147.783 E10.63869
G1 X183.816 Y148.575 E10.68397
G1 X183.232 Y149.264 E10.72603
G1 X182.489 Y149.999 E10.77469
G1 X181.736 Y150.616 E10.82002
G1 X180.931 Y151.166 E10.86542
G1 X180.144 Y151.609 E10.90747
G1 X179.193 Y152.039 E10.95607
G1 X178.273 Y152.357 E11.0014
G1 X177.328 Y152.593 E11.04675
G1 X176.366 Y152.744 E11.09209
G1 X175.445 Y152.809 E11.13509
G1 X174.838 Y152.822 E11.16336
G1 X172.725 Y152.822 E11.26175
G1 X170.141 Y152.859 E11.38208
G1 X167.573 Y152.968 E11.50177
G1 X165.099 Y153.143 E11.61725
G1 X162.627 Y153.388 E11.73292
G1 X160.064 Y153.716 E11.85324
G1 X157.601 Y154.103 E11.96934
G1 X155.141 Y154.56 E12.08584
G1 X152.68 Y155.088 E12.20305
G1 X150.269 Y155.682 E12.31867
G1 X147.76 Y156.37 E12.43981
G1 X145.432 Y157.084 E12.5532
G1 X142.987 Y157.909 E12.67335
G1 X140.649 Y158.771 E12.78938
G1 X138.326 Y159.704 E12.90595
G1 X136.015 Y160.709 E13.0233
G1 X133.056 Y162.103 E13.1756
G1 X132.157 Y162.475 E13.22091
G1 X131.228 Y162.768 E13.26627
G1 X130.277 Y162.977 E13.3116
G1 X129.382 Y163.095 E13.35364
G1 X128.76 Y163.133 E13.38266
G1 X128.07 Y163.15 E13.4148
G1 X94.136 Y163.149 E14.99491
G1 X93.391 Y163.136 E15.0296
G1 X92.433 Y163.078 E15.07429
G1 X91.891 Y163.006 E15.09975
G1 X90.086 Y162.714 E15.18489
G1 X87.587 Y162.359 E15.30242
G1 X85.132 Y162.082 E15.41746
G1 X82.574 Y161.864 E15.53701
G1 X80.143 Y161.729 E15.65038
G1 X76.238 Y161.647 E15.83225
G1 X46.55 Y161.649 E17.21465
G1 X45.111 Y161.625 E17.28167
G1 X44.023 Y161.55 E17.33245
G1 X43.21 Y161.452 E17.37058
G1 X41.892 Y161.21 E17.43298
G1 X41.397 Y161.087 E17.45673
G1 X40.463 Y160.809 E17.5021
G1 X39.591 Y160.463 E17.54579
G1 X38.691 Y160.011 E17.59268
G1 X37.922 Y159.537 E17.63475
G1 X37.676 Y159.37 E17.64859
G1 X36.883 Y158.776 E17.69473
G1 X36.158 Y158.126 E17.74007
G1 X35.517 Y157.44 E17.78378
G1 X34.895 Y156.645 E17.83079
G1 X34.367 Y155.827 E17.87612
G1 X33.913 Y154.965 E17.92149
G1 X33.536 Y154.066 E17.96688
G1 X33.242 Y153.138 E18.01221
G1 X33.031 Y152.189 E18.05748
G1 X32.904 Y151.237 E18.1022
G1 X32.866 Y150.62 E18.13098
G1 X32.851 Y149.963 E18.16158
G1 X32.844 Y76.779 E21.56934
G1 X32.851 Y68.725 E21.94437
G1 X32.864 Y67.968 E21.97962
G1 X32.924 Y66.996 E22.02497
G1 X33.071 Y66.033 E22.07033
G1 X33.303 Y65.087 E22.11568
G1 X33.605 Y64.198 E22.1594
G1 X34.013 Y63.275 E22.20639
G1 X34.484 Y62.424 E22.25168
G1 X35.029 Y61.617 E22.29703
G1 X35.644 Y60.86 E22.34244
G1 X36.322 Y60.163 E22.38772
G1 X37.032 Y59.549 E22.43143
G1 X37.851 Y58.959 E22.47843
M204 S2000
G0 F7500 X38.055 Y59.303
M204 S500
G1 F1500 X38.863 Y58.824 E22.52217
G1 X39.677 Y58.433 E22.56422
G1 X40.507 Y58.109 E22.6057
G1 X41.426 Y57.814 E22.65065
G1 X41.693 Y57.742 E22.66352
G1 X42.605 Y57.537 E22.70705
G1 X43.272 Y57.441 E22.73843
G1 X44.146 Y57.342 E22.77939
G1 X44.785 Y57.29 E22.80924
G1 X45.461 Y57.264 E22.84074
G1 X46.465 Y57.252 E22.88749
G1 X82.754 Y57.25 E24.57726
G1 X84.439 Y57.282 E24.65574
G1 X85.181 Y57.323 E24.69034
G1 X85.7 Y57.37 E24.71461
G1 X86.537 Y57.48 E24.75391
G1 X87.502 Y57.673 E24.79974
G1 X87.993 Y57.796 E24.82331
G1 X88.891 Y58.064 E24.86695
G1 X89.692 Y58.378 E24.90701
G1 X90.695 Y58.821 E24.95806
G1 X91.512 Y59.194 E24.99988
G1 X93.817 Y60.169 E25.11642
G1 X96.216 Y61.103 E25.2363
G1 X98.554 Y61.939 E25.35191
G1 X100.981 Y62.729 E25.47076
G1 X103.394 Y63.442 E25.58792
G1 X105.837 Y64.088 E25.70559
G1 X108.308 Y64.667 E25.82377
G1 X110.801 Y65.176 E25.94225
G1 X113.254 Y65.606 E26.05821
G1 X115.78 Y65.977 E26.17709
G1 X118.265 Y66.269 E26.2936
G1 X120.814 Y66.496 E26.41276
G1 X123.293 Y66.646 E26.52841
G1 X125.883 Y66.73 E26.64907
G1 X127.519 Y66.745 E26.72525
G1 X129.538 Y66.746 E26.81927
G1 X132.141 Y66.71 E26.94048
G1 X134.704 Y66.603 E27.05993
G1 X137.152 Y66.44 E27.17417
G1 X137.715 Y66.417 E27.20041
G1 X138.525 Y66.407 E27.23813
G1 X175.595 Y66.408 E28.96427
G1 X176.31 Y66.419 E28.99756
G1 X177.247 Y66.475 E29.04127
G1 X178.175 Y66.614 E29.08496
G1 X179.088 Y66.835 E29.12871
G1 X179.944 Y67.123 E29.17076
G1 X180.836 Y67.513 E29.21609
G1 X181.657 Y67.966 E29.25975
G1 X182.408 Y68.468 E29.30182
G1 X183.167 Y69.08 E29.34722
G1 X183.841 Y69.733 E29.39092
G1 X184.455 Y70.442 E29.43459
G1 X185.005 Y71.203 E29.47831
G1 X185.467 Y71.979 E29.52036
G1 X185.89 Y72.856 E29.5657
G1 X186.219 Y73.734 E29.60936
G1 X186.47 Y74.639 E29.65309
G1 X186.641 Y75.566 E29.69699
G1 X186.736 Y76.689 E29.74946
G1 X186.75 Y77.329 E29.77927
G1 X186.749 Y79.546 E29.8825
G1 X186.737 Y80.278 E29.91659
G1 X186.701 Y81 E29.95026
G1 X186.473 Y83.673 E30.07517
G1 X186.333 Y86.161 E30.19121
G1 X186.25 Y90.107 E30.37499
G1 X186.249 Y137.495 E32.58157
G1 X186.238 Y138.21 E32.61487
G1 X186.187 Y139.103 E32.65652
G1 X186.092 Y139.966 E32.69695
G1 X185.752 Y142.398 E32.81129
G1 X185.652 Y143.177 E32.84787
G1 X185.491 Y144.102 E32.89159
G1 X185.248 Y145.009 E32.93531
G1 X184.939 Y145.857 E32.97733
G1 X184.526 Y146.74 E33.02273
G1 X184.054 Y147.551 E33.06642
G1 X183.511 Y148.316 E33.1101
G1 X182.927 Y149.005 E33.15216
G1 X182.235 Y149.69 E33.1975
G1 X181.51 Y150.286 E33.2412
G1 X180.735 Y150.817 E33.28495
G1 X179.948 Y151.26 E33.327
G1 X179.062 Y151.661 E33.37228
G1 X178.175 Y151.969 E33.41601
G1 X177.265 Y152.198 E33.4597
G1 X176.338 Y152.345 E33.5034
G1 X175.436 Y152.409 E33.54551
G1 X174.829 Y152.422 E33.57378
G1 X172.719 Y152.422 E33.67203
G1 X170.124 Y152.459 E33.79288
G1 X167.556 Y152.568 E33.91256
G1 X165.068 Y152.744 E34.0287
G1 X162.576 Y152.991 E34.14531
G1 X160.013 Y153.319 E34.26563
G1 X157.539 Y153.708 E34.38224
G1 X155.057 Y154.169 E34.49979
G1 X152.596 Y154.697 E34.61699
G1 X150.163 Y155.296 E34.73367
G1 X147.654 Y155.985 E34.85482
G1 X145.304 Y156.705 E34.96927
G1 X142.859 Y157.53 E35.08943
G1 X140.5 Y158.4 E35.2065
G1 X138.166 Y159.337 E35.32361
G1 X135.855 Y160.342 E35.44096
G1 X132.902 Y161.734 E35.59297
G1 X132.036 Y162.094 E35.63664
G1 X131.142 Y162.377 E35.68031
G1 X130.225 Y162.58 E35.72404
G1 X129.33 Y162.698 E35.76608
G1 X128.75 Y162.733 E35.79313
G1 X128.07 Y162.75 E35.82481
G1 X94.143 Y162.749 E37.40459
G1 X93.415 Y162.737 E37.43849
G1 X92.485 Y162.681 E37.48188
G1 X91.955 Y162.611 E37.50677
G1 X90.15 Y162.319 E37.59191
G1 X87.643 Y161.963 E37.70982
G1 X85.166 Y161.683 E37.82589
G1 X82.608 Y161.466 E37.94543
G1 X80.151 Y161.329 E38.06002
G1 X76.246 Y161.247 E38.24189
G1 X46.556 Y161.249 E39.62438
G1 X45.138 Y161.226 E39.69042
G1 X44.071 Y161.153 E39.74022
G1 X43.258 Y161.055 E39.77835
G1 X41.988 Y160.822 E39.83847
G1 X41.511 Y160.704 E39.86135
G1 X40.611 Y160.437 E39.90507
G1 X39.739 Y160.091 E39.94875
G1 X38.901 Y159.67 E39.99242
G1 X38.147 Y159.206 E40.03364
G1 X37.901 Y159.039 E40.04749
G1 X37.15 Y158.478 E40.09114
G1 X36.45 Y157.852 E40.13487
G1 X35.832 Y157.193 E40.17693
G1 X35.231 Y156.427 E40.22227
G1 X34.721 Y155.64 E40.26594
G1 X34.282 Y154.81 E40.30966
G1 X33.917 Y153.944 E40.35342
G1 X33.632 Y153.051 E40.39707
G1 X33.427 Y152.136 E40.44073
G1 X33.303 Y151.212 E40.48414
G1 X33.266 Y150.611 E40.51218
G1 X33.251 Y149.963 E40.54236
G1 X33.244 Y76.779 E43.95011
G1 X33.251 Y68.731 E44.32486
G1 X33.263 Y67.992 E44.35928
G1 X33.32 Y67.056 E44.40294
G1 X33.46 Y66.128 E44.44664
G1 X33.682 Y65.216 E44.49035
G1 X33.984 Y64.327 E44.53407
G1 X34.363 Y63.468 E44.57779
G1 X34.816 Y62.647 E44.62145
G1 X35.34 Y61.869 E44.66513
G1 X35.931 Y61.139 E44.70886
G1 X36.584 Y60.466 E44.75253
G1 X37.294 Y59.852 E44.79624
G1 X38.055 Y59.303 E44.83993
M204 S2000
G0 F7500 X38.26 Y59.647
M204 S500
G1 F1500 X39.036 Y59.185 E44.88198
G1 X39.85 Y58.794 E44.92403
G1 X40.63 Y58.49 E44.96301
G1 X41.531 Y58.2 E45.00709
G1 X41.781 Y58.132 E45.01915
G1 X42.662 Y57.933 E45.06121
G1 X43.317 Y57.838 E45.09203
G1 X44.179 Y57.741 E45.13242
G1 X44.801 Y57.69 E45.16148
G1 X45.466 Y57.664 E45.19247
G1 X46.465 Y57.652 E45.23899
G1 X82.747 Y57.65 E46.92843
G1 X84.417 Y57.681 E47.00621
G1 X85.145 Y57.721 E47.04016
G1 X85.648 Y57.767 E47.06367
G1 X86.485 Y57.877 E47.10298
G1 X87.405 Y58.061 E47.14667
G1 X87.879 Y58.179 E47.16942
G1 X88.745 Y58.436 E47.21148
G1 X89.53 Y58.744 E47.25075
G1 X90.529 Y59.185 E47.30159
G1 X91.346 Y59.558 E47.34341
G1 X93.672 Y60.542 E47.46102
G1 X96.081 Y61.48 E47.58139
G1 X98.419 Y62.315 E47.69699
G1 X100.868 Y63.113 E47.81693
G1 X103.284 Y63.827 E47.93424
G1 X105.735 Y64.474 E48.05228
G1 X108.228 Y65.059 E48.17152
G1 X110.723 Y65.568 E48.29009
G1 X113.196 Y66.002 E48.407
G1 X115.722 Y66.373 E48.52588
G1 X118.219 Y66.666 E48.64295
G1 X120.788 Y66.895 E48.76305
G1 X123.28 Y67.046 E48.8793
G1 X125.87 Y67.13 E48.99996
G1 X127.515 Y67.145 E49.07657
G1 X129.544 Y67.146 E49.17104
G1 X132.158 Y67.11 E49.29277
G1 X134.721 Y67.003 E49.41222
G1 X137.179 Y66.839 E49.52693
G1 X137.72 Y66.817 E49.55214
G1 X138.525 Y66.807 E49.58963
G1 X175.589 Y66.808 E51.31549
G1 X176.287 Y66.818 E51.34799
G1 X177.189 Y66.871 E51.39006
G1 X178.082 Y67.003 E51.4321
G1 X178.96 Y67.214 E51.47415
G1 X179.816 Y67.502 E51.5162
G1 X180.643 Y67.864 E51.55824
G1 X181.435 Y68.299 E51.60031
G1 X182.186 Y68.801 E51.64237
G1 X182.889 Y69.368 E51.68443
G1 X183.539 Y69.995 E51.72648
G1 X184.131 Y70.677 E51.76853
G1 X184.661 Y71.408 E51.81058
G1 X185.123 Y72.184 E51.85263
G1 X185.516 Y72.997 E51.89468
G1 X185.834 Y73.842 E51.93672
G1 X186.077 Y74.712 E51.97878
G1 X186.242 Y75.6 E52.02084
G1 X186.337 Y76.723 E52.07332
G1 X186.35 Y77.329 E52.10154
G1 X186.349 Y79.54 E52.20449
G1 X186.338 Y80.258 E52.23793
G1 X186.302 Y80.966 E52.27094
G1 X186.075 Y83.639 E52.39585
G1 X185.933 Y86.153 E52.5131
G1 X185.85 Y90.099 E52.69689
G1 X185.849 Y137.489 E54.90356
G1 X185.839 Y138.187 E54.93607
G1 X185.789 Y139.06 E54.97679
G1 X185.696 Y139.911 E55.01665
G1 X185.356 Y142.343 E55.13099
G1 X185.258 Y143.109 E55.16695
G1 X185.104 Y143.999 E55.20901
G1 X184.872 Y144.872 E55.25107
G1 X184.563 Y145.72 E55.2931
G1 X184.18 Y146.539 E55.3352
G1 X183.727 Y147.32 E55.37724
G1 X183.206 Y148.057 E55.41927
G1 X182.622 Y148.746 E55.46132
G1 X181.98 Y149.381 E55.50337
G1 X181.283 Y149.956 E55.54544
G1 X180.539 Y150.468 E55.5875
G1 X179.752 Y150.911 E55.62955
G1 X178.93 Y151.283 E55.67156
G1 X178.077 Y151.581 E55.71364
G1 X177.202 Y151.803 E55.75567
G1 X176.31 Y151.946 E55.79774
G1 X175.427 Y152.009 E55.83896
G1 X174.82 Y152.022 E55.86723
G1 X172.713 Y152.022 E55.96534
G1 X170.107 Y152.059 E56.0867
G1 X167.539 Y152.168 E56.20638
G1 X165.037 Y152.345 E56.32318
G1 X162.525 Y152.594 E56.44072
G1 X159.962 Y152.922 E56.56104
G1 X157.477 Y153.313 E56.67817
G1 X154.973 Y153.778 E56.79676
G1 X152.512 Y154.306 E56.91397
G1 X150.057 Y154.91 E57.03169
G1 X147.548 Y155.6 E57.15286
G1 X145.176 Y156.326 E57.26836
G1 X142.731 Y157.151 E57.38852
G1 X140.351 Y158.029 E57.50664
G1 X138.006 Y158.97 E57.6243
G1 X135.695 Y159.975 E57.74164
G1 X132.748 Y161.365 E57.89337
G1 X131.915 Y161.713 E57.9354
G1 X131.055 Y161.987 E57.97743
G1 X130.173 Y162.183 E58.0195
G1 X129.278 Y162.301 E58.06154
G1 X128.74 Y162.333 E58.08664
G1 X128.07 Y162.35 E58.11784
G1 X94.149 Y162.349 E59.69735
G1 X93.439 Y162.338 E59.73041
G1 X92.537 Y162.284 E59.77249
G1 X92.019 Y162.216 E59.79682
G1 X90.214 Y161.924 E59.88196
G1 X87.699 Y161.567 E60.00024
G1 X85.2 Y161.284 E60.11735
G1 X82.642 Y161.068 E60.23688
G1 X80.159 Y160.929 E60.35268
G1 X76.254 Y160.847 E60.53456
G1 X46.562 Y160.849 E61.91714
G1 X45.165 Y160.827 E61.9822
G1 X44.118 Y160.756 E62.03106
G1 X43.33 Y160.662 E62.06801
G1 X42.084 Y160.434 E62.127
G1 X41.624 Y160.32 E62.14906
G1 X40.758 Y160.065 E62.1911
G1 X39.918 Y159.733 E62.23316
G1 X39.111 Y159.329 E62.27518
G1 X38.357 Y158.865 E62.31641
G1 X38.14 Y158.718 E62.32861
G1 X37.416 Y158.179 E62.37064
G1 X36.742 Y157.578 E62.41269
G1 X36.124 Y156.919 E62.45476
G1 X35.566 Y156.209 E62.49681
G1 X35.074 Y155.452 E62.53885
G1 X34.65 Y154.654 E62.58092
G1 X34.298 Y153.822 E62.62299
G1 X34.022 Y152.963 E62.665
G1 X33.823 Y152.082 E62.70706
G1 X33.702 Y151.187 E62.74911
G1 X33.666 Y150.602 E62.77641
G1 X33.651 Y149.963 E62.80617
G1 X33.644 Y76.779 E66.21392
G1 X33.651 Y68.737 E66.58839
G1 X33.662 Y68.016 E66.62197
G1 X33.716 Y67.115 E66.664
G1 X33.849 Y66.222 E66.70604
G1 X34.061 Y65.344 E66.7481
G1 X34.35 Y64.488 E66.79017
G1 X34.713 Y63.661 E66.83222
G1 X35.148 Y62.87 E66.87425
G1 X35.651 Y62.12 E66.9163
G1 X36.218 Y61.417 E66.95836
G1 X36.846 Y60.768 E67.00041
