;FLAVOR:Marlin
;TIME:9067
;Filament used: 6.68836m
;Layer height: 0.2
;MINX:46.6
;MINY:60.475
;MINZ:0.28
;MAXX:173.399
;MAXY:159.525
;MAXZ:30.08
;TARGET_MACHINE.NAME:Creality Ender-3 S1
;Generated with Cura_SteamEngine 5.6.0
M82 ;absolute extrusion mode
; Ender 3 S1 Start G-code
; M413 S0 ; Disable power loss recovery
G92 E0 ; Reset Extruder

; Prep surfaces before auto home for better accuracy
M140 S60
M104 S205

G28 ; Home all axes
G1 Z10.0 F3000 ; Move Z Axis up little to prevent scratching of Heat Bed
G1 X0 Y0

M190 S60
M109 S205

G1 X0.1 Y20 Z0.3 F5000.0 ; Move to start position
G1 X0.1 Y200.0 Z0.3 F1500.0 E15 ; Draw the first line
G1 X0.4 Y200.0 Z0.3 F5000.0 ; Move to side a little
G1 X0.4 Y20 Z0.3 F1500.0 E30 ; Draw the second line
G92 E0 ; Reset Extruder
G1 Z2.0 F3000 ; Move Z Axis up little to prevent scratching of Heat Bed
G1 X5 Y20 Z0.3 F5000.0 ; Move over to prevent blob squish

G92 E0
G92 E0
G1 F2700 E-0.8
;LAYER_COUNT:150
;LAYER:0
M107
M204 S2000
G0 F7500 X50.792 Y62.851 Z0.28
M204 S500
;TYPE:SKIRT
G1 F2700 E0
G1 F1500 X51.524 Y62.321 E0.04208
G1 X52.421 Y61.786 E0.09071
G1 X53.299 Y61.365 E0.13605
G1 X54.212 Y61.023 E0.18145
G1 X55.149 Y60.764 E0.22672
G1 X56.116 Y60.586 E0.2725
G1 X57.255 Y60.49 E0.32573
G1 X57.912 Y60.475 E0.35633
G1 X161.704 Y60.475 E5.18932
G1 X162.584 Y60.488 E5.2303
G1 X163.556 Y60.547 E5.27564
G1 X164.519 Y60.693 E5.321
G1 X165.466 Y60.924 E5.36639
G1 X166.354 Y61.224 E5.41003
G1 X167.246 Y61.614 E5.45536
G1 X168.129 Y62.101 E5.50232
G1 X168.88 Y62.603 E5.54438
G1 X169.695 Y63.261 E5.59316
G1 X170.393 Y63.939 E5.63847
G1 X171.029 Y64.676 E5.6838
G1 X171.599 Y65.466 E5.72916
G1 X172.061 Y66.242 E5.77121
G1 X172.515 Y67.184 E5.8199
G1 X172.844 Y68.062 E5.86356
G1 X173.113 Y69.035 E5.91057
G1 X173.29 Y70.002 E5.95634
G1 X173.386 Y71.165 E6.01068
G1 X173.399 Y71.833 E6.04179
G1 X173.389 Y75.902 E6.23126
G1 X173.389 Y144.127 E9.4081
G1 X173.398 Y147.834 E9.58072
G1 X173.389 Y148.649 E9.61867
G1 X173.333 Y149.639 E9.66484
G1 X173.19 Y150.602 E9.71018
G1 X172.963 Y151.55 E9.75557
G1 X172.654 Y152.473 E9.80089
G1 X172.262 Y153.366 E9.8463
G1 X171.795 Y154.218 E9.89154
G1 X171.254 Y155.029 E9.93694
G1 X170.643 Y155.788 E9.98231
G1 X169.968 Y156.488 E10.02759
G1 X169.233 Y157.128 E10.07297
G1 X168.444 Y157.699 E10.11832
G1 X167.607 Y158.199 E10.16372
G1 X166.731 Y158.622 E10.20902
G1 X165.819 Y158.966 E10.2544
G1 X164.883 Y159.228 E10.29966
G1 X163.996 Y159.397 E10.34171
G1 X162.769 Y159.509 E10.39908
G1 X162.164 Y159.523 E10.42726
G1 X58.297 Y159.525 E15.26374
G1 X57.431 Y159.513 E15.30407
G1 X56.459 Y159.456 E15.34941
G1 X55.496 Y159.31 E15.39476
G1 X54.55 Y159.081 E15.44008
G1 X53.626 Y158.769 E15.4855
G1 X52.736 Y158.377 E15.53078
G1 X51.913 Y157.926 E15.57448
G1 X51.074 Y157.365 E15.62148
G1 X50.37 Y156.799 E15.66354
G1 X49.617 Y156.074 E15.71221
G1 X48.98 Y155.338 E15.75753
G1 X48.45 Y154.607 E15.79958
G1 X47.914 Y153.71 E15.84824
G1 X47.492 Y152.832 E15.8936
G1 X47.15 Y151.92 E15.93895
G1 X46.89 Y150.982 E15.98427
G1 X46.712 Y150.013 E16.03015
G1 X46.614 Y148.834 E16.08524
G1 X46.6 Y148.183 E16.11556
G1 X46.601 Y144.761 E16.2749
G1 X46.614 Y144.017 E16.30955
G1 X46.675 Y143.044 E16.35495
G1 X46.822 Y142.082 E16.40026
G1 X47.034 Y141.204 E16.44232
G1 X47.229 Y140.586 E16.47249
G1 X47.981 Y138.439 E16.57842
G1 X48.757 Y136.027 E16.69641
G1 X49.461 Y133.603 E16.81394
G1 X50.088 Y131.191 E16.92999
G1 X50.66 Y128.699 E17.04904
G1 X51.15 Y126.257 E17.16502
G1 X51.575 Y123.77 E17.2825
G1 X51.929 Y121.281 E17.39957
G1 X52.212 Y118.782 E17.51667
G1 X52.424 Y116.301 E17.63262
G1 X52.566 Y113.769 E17.75071
G1 X52.637 Y111.244 E17.86833
G1 X52.637 Y108.726 E17.98558
G1 X52.565 Y106.19 E18.10371
G1 X52.424 Y103.729 E18.21849
G1 X52.21 Y101.198 E18.33677
G1 X51.926 Y98.702 E18.45374
G1 X51.567 Y96.184 E18.57218
G1 X51.144 Y93.716 E18.68877
G1 X50.654 Y91.281 E18.80443
G1 X50.086 Y88.81 E18.92249
G1 X49.444 Y86.344 E19.04114
G1 X48.755 Y83.978 E19.15589
G1 X47.965 Y81.523 E19.27598
G1 X47.21 Y79.348 E19.38319
G1 X46.933 Y78.414 E19.42855
G1 X46.752 Y77.529 E19.47061
G1 X46.613 Y76.069 E19.5389
G1 X46.6 Y75.445 E19.56796
G1 X46.601 Y72 E19.72838
G1 X46.612 Y71.3 E19.76098
G1 X46.67 Y70.327 E19.80636
G1 X46.816 Y69.364 E19.85172
G1 X47.046 Y68.418 E19.89705
G1 X47.359 Y67.495 E19.94243
G1 X47.751 Y66.605 E19.98772
G1 X48.221 Y65.752 E20.03307
G1 X48.764 Y64.944 E20.0784
G1 X49.331 Y64.24 E20.12049
G1 X50.056 Y63.488 E20.16913
G1 X50.792 Y62.851 E20.21445
M204 S2000
G0 F7500 X51.027 Y63.175
M204 S500
G1 F1500 X51.759 Y62.645 E20.25653
G1 X52.595 Y62.146 E20.30187
G1 X53.44 Y61.739 E20.34554
G1 X54.319 Y61.408 E20.38928
G1 X55.222 Y61.157 E20.43292
G1 X56.15 Y60.985 E20.47687
G1 X57.289 Y60.889 E20.53009
G1 X57.921 Y60.875 E20.55953
G1 X161.698 Y60.875 E25.39182
G1 X162.56 Y60.887 E25.43196
G1 X163.497 Y60.943 E25.47567
G1 X164.425 Y61.082 E25.51936
G1 X165.338 Y61.303 E25.5631
G1 X166.194 Y61.591 E25.60516
G1 X167.086 Y61.981 E25.65049
G1 X167.907 Y62.434 E25.69415
G1 X168.658 Y62.936 E25.73622
G1 X169.417 Y63.548 E25.78162
G1 X170.091 Y64.201 E25.82531
G1 X170.705 Y64.91 E25.86899
G1 X171.255 Y65.671 E25.91271
G1 X171.717 Y66.447 E25.95476
G1 X172.14 Y67.324 E26.0001
G1 X172.469 Y68.202 E26.04376
G1 X172.72 Y69.107 E26.08749
G1 X172.891 Y70.035 E26.13143
G1 X172.987 Y71.198 E26.18577
G1 X172.999 Y71.832 E26.2153
G1 X172.989 Y75.901 E26.40477
G1 X172.989 Y144.126 E29.58161
G1 X172.998 Y147.83 E29.75408
G1 X172.989 Y148.645 E29.79203
G1 X172.937 Y149.581 E29.83568
G1 X172.801 Y150.51 E29.8794
G1 X172.584 Y151.423 E29.9231
G1 X172.287 Y152.313 E29.96679
G1 X171.911 Y153.174 E30.01054
G1 X171.462 Y153.997 E30.05419
G1 X170.942 Y154.779 E30.09792
G1 X170.355 Y155.511 E30.14161
G1 X169.705 Y156.187 E30.18528
G1 X168.998 Y156.804 E30.22897
G1 X168.238 Y157.356 E30.27271
G1 X167.433 Y157.839 E30.31643
G1 X166.589 Y158.248 E30.3601
G1 X165.711 Y158.581 E30.40382
G1 X164.808 Y158.835 E30.4475
G1 X163.921 Y159.004 E30.48955
G1 X162.76 Y159.109 E30.54383
G1 X162.164 Y159.123 E30.57159
G1 X58.302 Y159.125 E35.40784
G1 X57.454 Y159.114 E35.44733
G1 X56.518 Y159.06 E35.49099
G1 X55.589 Y158.921 E35.53473
G1 X54.677 Y158.702 E35.5784
G1 X53.787 Y158.403 E35.62212
G1 X52.928 Y158.026 E35.6658
G1 X52.105 Y157.575 E35.7095
G1 X51.325 Y157.053 E35.7532
G1 X50.621 Y156.487 E35.79526
G1 X49.919 Y155.812 E35.84061
G1 X49.304 Y155.103 E35.88431
G1 X48.774 Y154.372 E35.92636
G1 X48.274 Y153.536 E35.97172
G1 X47.866 Y152.691 E36.01541
G1 X47.535 Y151.813 E36.0591
G1 X47.283 Y150.909 E36.1028
G1 X47.111 Y149.98 E36.14679
G1 X47.013 Y148.801 E36.20188
G1 X47 Y148.183 E36.23067
G1 X47.001 Y144.768 E36.38968
G1 X47.013 Y144.041 E36.42354
G1 X47.07 Y143.104 E36.46725
G1 X47.211 Y142.176 E36.51096
G1 X47.423 Y141.298 E36.55302
G1 X47.607 Y140.718 E36.58135
G1 X48.359 Y138.571 E36.68728
G1 X49.138 Y136.149 E36.80575
G1 X49.845 Y133.715 E36.92377
G1 X50.475 Y131.292 E37.04034
G1 X51.05 Y128.789 E37.15993
G1 X51.542 Y126.336 E37.27643
G1 X51.969 Y123.837 E37.39448
G1 X52.325 Y121.337 E37.51206
G1 X52.611 Y118.816 E37.6302
G1 X52.822 Y116.335 E37.74615
G1 X52.966 Y113.78 E37.86531
G1 X53.037 Y111.255 E37.98293
G1 X53.037 Y108.726 E38.10069
G1 X52.965 Y106.179 E38.21934
G1 X52.823 Y103.695 E38.33519
G1 X52.608 Y101.164 E38.45347
G1 X52.322 Y98.646 E38.57147
G1 X51.963 Y96.128 E38.6899
G1 X51.538 Y93.648 E38.80707
G1 X51.044 Y91.191 E38.92377
G1 X50.476 Y88.72 E39.04183
G1 X49.831 Y86.243 E39.16101
G1 X49.136 Y83.855 E39.27682
G1 X48.346 Y81.4 E39.39691
G1 X47.593 Y79.234 E39.50369
G1 X47.325 Y78.334 E39.54741
G1 X47.144 Y77.449 E39.58948
G1 X47.013 Y76.061 E39.65439
G1 X47 Y75.445 E39.68308
G1 X47.001 Y72.006 E39.84322
G1 X47.011 Y71.323 E39.87503
G1 X47.066 Y70.386 E39.91873
G1 X47.205 Y69.458 E39.96242
G1 X47.425 Y68.546 E40.00611
G1 X47.725 Y67.656 E40.04984
G1 X48.102 Y66.797 E40.09352
G1 X48.553 Y65.975 E40.13718
G1 X49.076 Y65.195 E40.18091
G1 X49.643 Y64.491 E40.223
G1 X50.318 Y63.79 E40.26832
G1 X51.027 Y63.175 E40.31202
M204 S2000
G0 F7500 X51.262 Y63.499
M204 S500
G1 F1500 X51.994 Y62.969 E40.3541
G1 X52.769 Y62.506 E40.39614
G1 X53.582 Y62.113 E40.43819
G1 X54.427 Y61.793 E40.48026
G1 X55.296 Y61.55 E40.52228
G1 X56.184 Y61.384 E40.56434
G1 X57.323 Y61.288 E40.61757
G1 X57.93 Y61.275 E40.64584
G1 X161.693 Y61.275 E45.47748
G1 X162.537 Y61.286 E45.51678
G1 X163.439 Y61.339 E45.55885
G1 X164.332 Y61.471 E45.60089
G1 X165.21 Y61.682 E45.64293
G1 X166.066 Y61.97 E45.68499
G1 X166.893 Y62.332 E45.72703
G1 X167.685 Y62.767 E45.7691
G1 X168.436 Y63.269 E45.81116
G1 X169.139 Y63.836 E45.85322
G1 X169.789 Y64.463 E45.89527
G1 X170.381 Y65.145 E45.93732
G1 X170.911 Y65.876 E45.97937
G1 X171.373 Y66.652 E46.02142
G1 X171.766 Y67.465 E46.06347
G1 X172.084 Y68.31 E46.10551
G1 X172.327 Y69.18 E46.14757
G1 X172.492 Y70.068 E46.18963
G1 X172.588 Y71.231 E46.24397
G1 X172.599 Y71.831 E46.27191
G1 X172.589 Y75.9 E46.46138
G1 X172.589 Y144.125 E49.63822
G1 X172.598 Y147.826 E49.81055
G1 X172.59 Y148.623 E49.84767
G1 X172.541 Y149.524 E49.88968
G1 X172.412 Y150.418 E49.93174
G1 X172.204 Y151.297 E49.9738
G1 X171.92 Y152.154 E50.01584
G1 X171.56 Y152.983 E50.05793
G1 X171.129 Y153.776 E50.09996
G1 X170.63 Y154.529 E50.14202
G1 X170.066 Y155.234 E50.18406
G1 X169.441 Y155.886 E50.22611
G1 X168.762 Y156.481 E50.26815
G1 X168.032 Y157.013 E50.31021
G1 X167.258 Y157.479 E50.35228
G1 X166.446 Y157.874 E50.39433
G1 X165.602 Y158.196 E50.43639
G1 X164.733 Y158.442 E50.47845
G1 X163.846 Y158.611 E50.52049
G1 X162.75 Y158.709 E50.57173
G1 X162.164 Y158.723 E50.59902
G1 X58.307 Y158.725 E55.43504
G1 X57.477 Y158.715 E55.47369
G1 X56.576 Y158.664 E55.51571
G1 X55.682 Y158.532 E55.55779
G1 X54.804 Y158.323 E55.59982
G1 X53.947 Y158.036 E55.6419
G1 X53.12 Y157.675 E55.68392
G1 X52.327 Y157.242 E55.72599
G1 X51.576 Y156.741 E55.76803
G1 X50.872 Y156.175 E55.81009
G1 X50.221 Y155.549 E55.85214
G1 X49.628 Y154.868 E55.89419
G1 X49.098 Y154.137 E55.93624
G1 X48.634 Y153.362 E55.9783
G1 X48.24 Y152.549 E56.02036
G1 X47.92 Y151.705 E56.06239
G1 X47.676 Y150.835 E56.10447
G1 X47.51 Y149.947 E56.14653
G1 X47.413 Y148.792 E56.20051
G1 X47.4 Y148.183 E56.22887
G1 X47.401 Y144.774 E56.38761
G1 X47.412 Y144.065 E56.42062
G1 X47.466 Y143.163 E56.4627
G1 X47.6 Y142.27 E56.50475
G1 X47.812 Y141.392 E56.54681
G1 X47.985 Y140.85 E56.5733
G1 X48.737 Y138.703 E56.67923
G1 X49.519 Y136.271 E56.79818
G1 X50.229 Y133.827 E56.91669
G1 X50.862 Y131.393 E57.0338
G1 X51.44 Y128.879 E57.15391
G1 X51.934 Y126.415 E57.27093
G1 X52.363 Y123.904 E57.38955
G1 X52.721 Y121.393 E57.50765
G1 X53.01 Y118.85 E57.62683
G1 X53.22 Y116.369 E57.74277
G1 X53.366 Y113.791 E57.863
G1 X53.437 Y111.266 E57.98062
G1 X53.437 Y108.726 E58.09889
G1 X53.365 Y106.168 E58.21805
G1 X53.222 Y103.661 E58.33498
G1 X53.006 Y101.13 E58.45326
G1 X52.718 Y98.59 E58.57229
G1 X52.359 Y96.072 E58.69073
G1 X51.932 Y93.58 E58.80846
G1 X51.434 Y91.101 E58.92619
G1 X50.866 Y88.63 E59.04426
G1 X50.218 Y86.142 E59.16397
G1 X49.517 Y83.732 E59.28084
G1 X48.727 Y81.277 E59.40093
G1 X47.976 Y79.119 E59.50733
G1 X47.717 Y78.254 E59.54937
G1 X47.536 Y77.369 E59.59143
G1 X47.413 Y76.052 E59.65303
G1 X47.4 Y75.445 E59.6813
G1 X47.401 Y72.011 E59.8412
G1 X47.41 Y71.346 E59.87217
G1 X47.462 Y70.444 E59.91424
G1 X47.594 Y69.551 E59.95627
G1 X47.804 Y68.673 E59.99831
G1 X48.091 Y67.816 E60.04039
G1 X48.453 Y66.989 E60.08243
G1 X48.886 Y66.197 E60.12446
G1 X49.388 Y65.446 E60.16652
G1 X49.955 Y64.742 E60.20861
G1 X50.581 Y64.092 E60.25063
G1 X51.262 Y63.499 E60.29268
M204 S2000
G1 F2700 E59.49268
;MESH:camera holder v5.stl
G0 F7500 X132.943 Y93.699
G0 X134.713 Y95.013
G0 X135.365 Y95.231
G0 X135.701 Y95.09
G0 X135.318 Y94.499
M204 S500
;TYPE:WALL-OUTER
G1 F2700 E60.29268
G1 F1500 X135.181 Y94.5 E60.29906
G1 X135.053 Y94.446 E60.30553
G1 X116.659 Y76.056 E61.51667
G1 X116.606 Y75.963 E61.52166
G1 X116.65 Y75.712 E61.53352
G1 X116.867 Y75.577 E61.54542
G1 X135.344 Y75.575 E62.40579
G1 X135.43 Y75.633 E62.41062
G1 X135.534 Y75.835 E62.4212
G1 X135.538 Y94.31 E63.28147
G1 X135.318 Y94.499 E63.29498
M204 S2000
G1 F2700 E62.49498
G0 F7500 X135.701 Y95.09
G0 X135.657 Y95.42
G0 X137.466 Y95.949
G0 X137.809 Y101.947
G0 X137.927 Y102.326
G0 X138.573 Y102.011
M204 S500
G1 F2700 E63.29498
G1 F1500 X138.449 Y101.786 E63.30694
G1 X138.447 Y95.89 E63.58148
G1 X138.53 Y95.785 E63.58772
G1 X138.707 Y95.702 E63.59682
G1 X140.579 Y95.699 E63.68399
G1 X140.716 Y95.783 E63.69147
G1 X140.8 Y95.964 E63.70076
G1 X140.802 Y101.822 E63.97353
G1 X140.737 Y101.952 E63.9803
G1 X140.531 Y102.051 E63.99094
G1 X138.655 Y102.053 E64.0783
G1 X138.573 Y102.011 E64.08259
M204 S2000
G1 F2700 E63.28259
G0 F7500 X137.927 Y102.326
G0 X138.176 Y102.686
G0 X140.696 Y102.691
G0 X141.361 Y102.361
G0 X141.779 Y101.912
G0 X157.951 Y101.974
G0 X158.409 Y102.413
G0 X159.042 Y102.104
M204 S500
G1 F2700 E64.08259
G1 F1500 X158.948 Y101.893 E64.09335
G1 X158.954 Y96.021 E64.36677
G1 X159.038 Y95.905 E64.37344
G1 X159.198 Y95.829 E64.38169
G1 X161.053 Y95.823 E64.46806
G1 X161.233 Y95.935 E64.47794
G1 X161.304 Y96.125 E64.48738
G1 X161.301 Y101.963 E64.75922
G1 X161.191 Y102.108 E64.7677
G1 X161.001 Y102.178 E64.77713
G1 X159.15 Y102.173 E64.86332
G1 X159.042 Y102.104 E64.86928
M204 S2000
G1 F2700 E64.06928
G0 F7500 X158.409 Y102.413
G0 X158.923 Y103.106
G0 X161.224 Y103.101
G0 X161.219 Y116.072
G0 X158.415 Y116.292
G0 X158.315 Y116.677
G0 X158.31 Y123.197
G0 X158.42 Y123.56
G0 X159.059 Y123.248
M204 S500
G1 F2700 E64.86928
G1 F1500 X158.948 Y123.021 E64.88105
G1 X158.948 Y117.133 E65.15522
G1 X159.038 Y117.03 E65.16159
G1 X159.198 Y116.954 E65.16984
G1 X161.052 Y116.948 E65.25617
G1 X161.231 Y117.057 E65.26593
G1 X161.304 Y117.248 E65.27545
G1 X161.301 Y123.088 E65.54738
G1 X161.191 Y123.233 E65.55586
G1 X161.001 Y123.303 E65.56529
G1 X159.151 Y123.298 E65.65143
G1 X159.059 Y123.248 E65.65631
M204 S2000
G1 F2700 E64.85631
G0 F7500 X158.42 Y123.56
G0 X157.953 Y123.117
G0 X141.548 Y123.122
G0 X141.185 Y123.699
G0 X140.446 Y124.066
G0 X137.926 Y124.061
G0 X137.675 Y123.697
G0 X138.319 Y123.383
M204 S500
G1 F2700 E65.65631
G1 F1500 X138.203 Y123.178 E65.66727
G1 X138.197 Y117.323 E65.93991
G1 X138.232 Y117.209 E65.94546
G1 X138.499 Y117.073 E65.95941
G1 X140.336 Y117.075 E66.04495
G1 X140.428 Y117.116 E66.04964
G1 X140.552 Y117.355 E66.06218
G1 X140.55 Y123.209 E66.33477
G1 X140.503 Y123.311 E66.33999
G1 X140.278 Y123.427 E66.35178
G1 X138.408 Y123.425 E66.43886
G1 X138.319 Y123.383 E66.44344
M204 S2000
G1 F2700 E65.64344
G0 F7500 X137.675 Y123.697
G0 X137.736 Y124.172
G0 X135.738 Y125.697
G0 X135.599 Y125.332
G0 X135.059 Y125.212
G0 X116.449 Y143.816
G0 X116.336 Y144.158
G0 X116.812 Y145.125
G0 X116.812 Y144.425
M204 S500
G1 F2700 E66.44344
G1 F1500 X116.63 Y144.24 E66.45552
G1 X116.602 Y144.134 E66.46063
G1 X116.667 Y143.94 E66.47016
G1 X135.057 Y125.546 E67.6813
G1 X135.15 Y125.493 E67.68628
G1 X135.386 Y125.53 E67.69741
G1 X135.468 Y125.601 E67.70246
G1 X135.534 Y125.749 E67.71
G1 X135.534 Y144.218 E68.57
G1 X135.482 Y144.315 E68.57512
G1 X135.271 Y144.423 E68.58616
G1 X116.812 Y144.425 E69.44569
M204 S2000
G1 F2700 E68.64569
G0 F7500 X116.812 Y145.125
G0 X116.484 Y145.073
G0 X115.67 Y144.475
G0 X114.378 Y143.183
G0 X111.634 Y145.125
G0 X111.634 Y144.423
M204 S500
G1 F2700 E69.44569
G1 F1500 X57.8 Y144.425 E71.95243
G1 X57.8 Y148.325 E72.13403
G1 X162.2 Y148.325 E76.99533
G1 X162.2 Y71.675 E80.56447
G1 X57.8 Y71.675 E85.42577
G1 X57.8 Y75.575 E85.60737
G1 X111.599 Y75.575 E88.11248
