;FLAVOR:Marlin
;TIME:9061
;Filament used: 6.88004m
;Layer height: 0.2
;MINX:46.6
;MINY:60.475
;MINZ:0.28
;MAXX:173.4
;MAXY:159.525
;MAXZ:30.08
;TARGET_MACHINE.NAME:Creality Ender-3 S1
;Generated with Cura_SteamEngine 5.6.0
M82 ;absolute extrusion mode
; Ender 3 S1 Start G-code
; M413 S0 ; Disable power loss recovery
G92 E0 ; Reset Extruder

; Prep surfaces before auto home for better accuracy
M140 S60
M104 S205

G28 ; Home all axes
G1 Z10.0 F3000 ; Move Z Axis up little to prevent scratching of Heat Bed
G1 X0 Y0

M190 S60
M109 S205

G1 X0.1 Y20 Z0.3 F5000.0 ; Move to start position
G1 X0.1 Y200.0 Z0.3 F1500.0 E15 ; Draw the first line
G1 X0.4 Y200.0 Z0.3 F5000.0 ; Move to side a little
G1 X0.4 Y20 Z0.3 F1500.0 E30 ; Draw the second line
G92 E0 ; Reset Extruder
G1 Z2.0 F3000 ; Move Z Axis up little to prevent scratching of Heat Bed
G1 X5 Y20 Z0.3 F5000.0 ; Move over to prevent blob squish

G92 E0
G92 E0
G1 F2700 E-0.8
;LAYER_COUNT:150
;LAYER:0
M107
M204 S2000
G0 F7500 X50.792 Y62.851 Z0.28
M204 S500
;TYPE:SKIRT
G1 F2700 E0
G1 F1500 X51.524 Y62.321 E0.04208
G1 X52.421 Y61.786 E0.09071
G1 X53.299 Y61.365 E0.13605
G1 X54.212 Y61.023 E0.18145
G1 X55.149 Y60.764 E0.22672
G1 X56.116 Y60.586 E0.2725
G1 X57.255 Y60.49 E0.32573
G1 X57.912 Y60.475 E0.35633
G1 X161.704 Y60.475 E5.18932
G1 X162.584 Y60.488 E5.2303
G1 X163.556 Y60.547 E5.27564
G1 X164.519 Y60.693 E5.321
G1 X165.466 Y60.924 E5.36639
G1 X166.354 Y61.224 E5.41003
G1 X167.246 Y61.614 E5.45536
G1 X168.129 Y62.101 E5.50232
G1 X168.88 Y62.603 E5.54438
G1 X169.695 Y63.261 E5.59316
G1 X170.393 Y63.939 E5.63847
G1 X171.029 Y64.676 E5.6838
G1 X171.599 Y65.466 E5.72916
G1 X172.061 Y66.242 E5.77121
G1 X172.515 Y67.184 E5.8199
G1 X172.844 Y68.062 E5.86356
G1 X173.113 Y69.034 E5.91052
G1 X173.29 Y70 E5.95625
G1 X173.385 Y71.13 E6.00906
G1 X173.4 Y71.805 E6.04049
G1 X173.399 Y147.925 E9.58496
G1 X173.388 Y148.688 E9.62049
G1 X173.331 Y149.661 E9.66588
G1 X173.186 Y150.624 E9.71122
G1 X172.957 Y151.57 E9.75655
G1 X172.646 Y152.494 E9.80194
G1 X172.254 Y153.385 E9.84727
G1 X171.786 Y154.237 E9.89253
G1 X171.264 Y155.018 E9.93628
G1 X170.631 Y155.803 E9.98323
G1 X170.006 Y156.454 E10.02525
G1 X169.217 Y157.142 E10.074
G1 X168.457 Y157.692 E10.11768
G1 X167.59 Y158.209 E10.16469
G1 X166.712 Y158.631 E10.21005
G1 X165.801 Y158.973 E10.25536
G1 X164.862 Y159.234 E10.30074
G1 X163.896 Y159.412 E10.34648
G1 X162.745 Y159.51 E10.40027
G1 X162.07 Y159.525 E10.4317
G1 X58.164 Y159.524 E15.27
G1 X57.431 Y159.513 E15.30414
G1 X56.459 Y159.456 E15.34948
G1 X55.496 Y159.31 E15.39483
G1 X54.55 Y159.081 E15.44015
G1 X53.626 Y158.769 E15.48556
G1 X52.736 Y158.377 E15.53085
G1 X51.913 Y157.926 E15.57455
G1 X51.074 Y157.365 E15.62154
G1 X50.37 Y156.799 E15.66361
G1 X49.617 Y156.074 E15.71228
G1 X48.98 Y155.338 E15.7576
G1 X48.45 Y154.607 E15.79965
G1 X47.914 Y153.71 E15.8483
G1 X47.492 Y152.832 E15.89366
G1 X47.15 Y151.92 E15.93902
G1 X46.89 Y150.982 E15.98434
G1 X46.712 Y150.013 E16.03022
G1 X46.614 Y148.834 E16.08531
G1 X46.6 Y148.183 E16.11563
G1 X46.601 Y144.761 E16.27497
G1 X46.614 Y144.017 E16.30962
G1 X46.675 Y143.044 E16.35502
G1 X46.822 Y142.082 E16.40033
G1 X47.034 Y141.204 E16.44239
G1 X47.229 Y140.586 E16.47256
G1 X47.981 Y138.439 E16.57849
G1 X48.757 Y136.027 E16.69647
G1 X49.461 Y133.603 E16.81401
G1 X50.088 Y131.191 E16.93006
G1 X50.66 Y128.699 E17.04911
G1 X51.15 Y126.257 E17.16509
G1 X51.575 Y123.77 E17.28257
G1 X51.929 Y121.281 E17.39964
G1 X52.212 Y118.782 E17.51674
G1 X52.424 Y116.301 E17.63269
G1 X52.566 Y113.769 E17.75078
G1 X52.637 Y111.244 E17.8684
G1 X52.637 Y108.726 E17.98565
G1 X52.565 Y106.19 E18.10378
G1 X52.424 Y103.729 E18.21856
G1 X52.21 Y101.198 E18.33684
G1 X51.926 Y98.702 E18.45381
G1 X51.567 Y96.184 E18.57224
G1 X51.144 Y93.716 E18.68884
G1 X50.654 Y91.281 E18.8045
G1 X50.086 Y88.81 E18.92256
G1 X49.444 Y86.344 E19.04121
G1 X48.755 Y83.978 E19.15596
G1 X47.965 Y81.523 E19.27605
G1 X47.21 Y79.348 E19.38325
G1 X46.933 Y78.414 E19.42862
G1 X46.752 Y77.529 E19.47068
G1 X46.613 Y76.069 E19.53897
G1 X46.6 Y75.445 E19.56803
G1 X46.601 Y72 E19.72845
G1 X46.612 Y71.3 E19.76105
G1 X46.67 Y70.327 E19.80643
G1 X46.816 Y69.364 E19.85179
G1 X47.046 Y68.418 E19.89712
G1 X47.359 Y67.495 E19.9425
G1 X47.751 Y66.605 E19.98779
G1 X48.221 Y65.752 E20.03314
G1 X48.764 Y64.944 E20.07847
G1 X49.331 Y64.24 E20.12056
G1 X50.056 Y63.488 E20.1692
G1 X50.792 Y62.851 E20.21452
M204 S2000
G0 F7500 X51.027 Y63.175
M204 S500
G1 F1500 X51.759 Y62.645 E20.2566
G1 X52.595 Y62.146 E20.30194
G1 X53.44 Y61.739 E20.34561
G1 X54.319 Y61.408 E20.38935
G1 X55.222 Y61.157 E20.43299
G1 X56.15 Y60.985 E20.47694
G1 X57.289 Y60.889 E20.53016
G1 X57.921 Y60.875 E20.5596
G1 X161.698 Y60.875 E25.39189
G1 X162.56 Y60.887 E25.43203
G1 X163.497 Y60.943 E25.47574
G1 X164.425 Y61.082 E25.51943
G1 X165.338 Y61.303 E25.56317
G1 X166.194 Y61.591 E25.60523
G1 X167.086 Y61.981 E25.65056
G1 X167.907 Y62.434 E25.69422
G1 X168.658 Y62.936 E25.73628
G1 X169.417 Y63.548 E25.78168
G1 X170.091 Y64.201 E25.82538
G1 X170.705 Y64.91 E25.86906
G1 X171.255 Y65.671 E25.91278
G1 X171.717 Y66.447 E25.95483
G1 X172.14 Y67.324 E26.00017
G1 X172.469 Y68.202 E26.04383
G1 X172.72 Y69.107 E26.08756
G1 X172.891 Y70.034 E26.13145
G1 X172.986 Y71.164 E26.18426
G1 X173 Y71.805 E26.21411
G1 X172.999 Y147.92 E29.75834
G1 X172.989 Y148.665 E29.79304
G1 X172.935 Y149.602 E29.83674
G1 X172.797 Y150.531 E29.88047
G1 X172.578 Y151.443 E29.92415
G1 X172.28 Y152.333 E29.96785
G1 X171.903 Y153.193 E30.01157
G1 X171.453 Y154.015 E30.05521
G1 X170.931 Y154.796 E30.09895
G1 X170.342 Y155.526 E30.14263
G1 X169.717 Y156.177 E30.18465
G1 X168.982 Y156.818 E30.23006
G1 X168.222 Y157.368 E30.27375
G1 X167.416 Y157.849 E30.31745
G1 X166.571 Y158.257 E30.36115
G1 X165.693 Y158.588 E30.40484
G1 X164.789 Y158.841 E30.44855
G1 X163.862 Y159.013 E30.49245
G1 X162.711 Y159.111 E30.54624
G1 X162.07 Y159.125 E30.57609
G1 X58.17 Y159.124 E35.41411
G1 X57.454 Y159.114 E35.44746
G1 X56.518 Y159.06 E35.49111
G1 X55.589 Y158.921 E35.53485
G1 X54.677 Y158.702 E35.57853
G1 X53.787 Y158.403 E35.62225
G1 X52.928 Y158.026 E35.66593
G1 X52.105 Y157.575 E35.70963
G1 X51.325 Y157.053 E35.75333
G1 X50.621 Y156.487 E35.79539
G1 X49.919 Y155.812 E35.84074
G1 X49.304 Y155.103 E35.88444
G1 X48.774 Y154.372 E35.92649
G1 X48.274 Y153.536 E35.97184
G1 X47.866 Y152.691 E36.01554
G1 X47.535 Y151.813 E36.05923
G1 X47.283 Y150.909 E36.10293
G1 X47.111 Y149.98 E36.14692
G1 X47.013 Y148.801 E36.20201
G1 X47 Y148.183 E36.23079
G1 X47.001 Y144.768 E36.38981
G1 X47.013 Y144.041 E36.42367
G1 X47.07 Y143.104 E36.46738
G1 X47.211 Y142.176 E36.51109
G1 X47.423 Y141.298 E36.55314
G1 X47.607 Y140.718 E36.58148
G1 X48.359 Y138.571 E36.68741
G1 X49.138 Y136.149 E36.80587
G1 X49.845 Y133.715 E36.9239
G1 X50.475 Y131.292 E37.04047
G1 X51.05 Y128.789 E37.16006
G1 X51.542 Y126.336 E37.27656
G1 X51.969 Y123.837 E37.39461
G1 X52.325 Y121.337 E37.51219
G1 X52.611 Y118.816 E37.63033
G1 X52.822 Y116.335 E37.74627
G1 X52.966 Y113.78 E37.86543
G1 X53.037 Y111.255 E37.98306
G1 X53.037 Y108.726 E38.10082
G1 X52.965 Y106.179 E38.21946
G1 X52.823 Y103.695 E38.33532
G1 X52.608 Y101.164 E38.4536
G1 X52.322 Y98.646 E38.5716
G1 X51.963 Y96.128 E38.69003
G1 X51.538 Y93.648 E38.8072
G1 X51.044 Y91.191 E38.92389
G1 X50.476 Y88.72 E39.04195
G1 X49.831 Y86.243 E39.16114
G1 X49.136 Y83.855 E39.27695
G1 X48.346 Y81.4 E39.39704
G1 X47.593 Y79.234 E39.50382
G1 X47.325 Y78.334 E39.54754
G1 X47.144 Y77.449 E39.5896
G1 X47.013 Y76.061 E39.65452
G1 X47 Y75.445 E39.68321
G1 X47.001 Y72.006 E39.84335
G1 X47.011 Y71.323 E39.87515
G1 X47.066 Y70.386 E39.91886
G1 X47.205 Y69.458 E39.96255
G1 X47.425 Y68.546 E40.00624
G1 X47.725 Y67.656 E40.04997
G1 X48.102 Y66.797 E40.09365
G1 X48.553 Y65.975 E40.13731
G1 X49.076 Y65.195 E40.18104
G1 X49.643 Y64.491 E40.22313
G1 X50.318 Y63.79 E40.26844
G1 X51.027 Y63.175 E40.31215
M204 S2000
G0 F7500 X51.262 Y63.499
M204 S500
G1 F1500 X51.994 Y62.969 E40.35423
G1 X52.769 Y62.506 E40.39627
G1 X53.582 Y62.113 E40.43831
G1 X54.427 Y61.793 E40.48039
G1 X55.296 Y61.55 E40.5224
G1 X56.184 Y61.384 E40.56447
G1 X57.323 Y61.288 E40.61769
G1 X57.93 Y61.275 E40.64596
G1 X161.693 Y61.275 E45.4776
G1 X162.537 Y61.286 E45.51691
G1 X163.439 Y61.339 E45.55898
G1 X164.332 Y61.471 E45.60102
G1 X165.21 Y61.682 E45.64306
G1 X166.066 Y61.97 E45.68512
G1 X166.893 Y62.332 E45.72715
G1 X167.685 Y62.767 E45.76923
G1 X168.436 Y63.269 E45.81129
G1 X169.139 Y63.836 E45.85335
G1 X169.789 Y64.463 E45.8954
G1 X170.381 Y65.145 E45.93745
G1 X170.911 Y65.876 E45.9795
G1 X171.373 Y66.652 E46.02155
G1 X171.766 Y67.465 E46.0636
G1 X172.084 Y68.31 E46.10564
G1 X172.327 Y69.18 E46.1477
G1 X172.492 Y70.068 E46.18975
G1 X172.587 Y71.198 E46.24256
G1 X172.6 Y71.805 E46.27083
G1 X172.599 Y147.915 E49.81483
G1 X172.59 Y148.642 E49.84868
G1 X172.539 Y149.544 E49.89075
G1 X172.408 Y150.438 E49.93282
G1 X172.199 Y151.316 E49.97485
G1 X171.913 Y152.173 E50.01692
G1 X171.552 Y153.001 E50.05898
G1 X171.12 Y153.793 E50.10099
G1 X170.619 Y154.545 E50.14306
G1 X170.053 Y155.249 E50.18513
G1 X169.428 Y155.9 E50.22715
G1 X168.747 Y156.494 E50.26923
G1 X168.016 Y157.025 E50.3113
G1 X167.242 Y157.489 E50.35332
G1 X166.429 Y157.883 E50.39539
G1 X165.585 Y158.203 E50.43742
G1 X164.715 Y158.448 E50.4795
G1 X163.828 Y158.614 E50.52152
G1 X162.677 Y158.712 E50.57531
G1 X162.07 Y158.725 E50.60358
G1 X58.175 Y158.724 E55.44137
G1 X57.477 Y158.715 E55.47387
G1 X56.576 Y158.664 E55.51589
G1 X55.682 Y158.532 E55.55797
G1 X54.804 Y158.323 E55.6
G1 X53.947 Y158.036 E55.64208
G1 X53.12 Y157.675 E55.6841
G1 X52.327 Y157.242 E55.72617
G1 X51.576 Y156.741 E55.76821
G1 X50.872 Y156.175 E55.81027
G1 X50.221 Y155.549 E55.85233
G1 X49.628 Y154.868 E55.89437
G1 X49.098 Y154.137 E55.93642
G1 X48.634 Y153.362 E55.97848
G1 X48.24 Y152.549 E56.02055
G1 X47.92 Y151.705 E56.06258
G1 X47.676 Y150.835 E56.10465
G1 X47.51 Y149.947 E56.14671
G1 X47.413 Y148.792 E56.20069
G1 X47.4 Y148.183 E56.22905
G1 X47.401 Y144.774 E56.38779
G1 X47.412 Y144.065 E56.42081
G1 X47.466 Y143.163 E56.46288
G1 X47.6 Y142.27 E56.50493
G1 X47.812 Y141.392 E56.54699
G1 X47.985 Y140.85 E56.57348
G1 X48.737 Y138.703 E56.67941
G1 X49.519 Y136.271 E56.79836
G1 X50.229 Y133.827 E56.91687
G1 X50.862 Y131.393 E57.03398
G1 X51.44 Y128.879 E57.15409
G1 X51.934 Y126.415 E57.27111
G1 X52.363 Y123.904 E57.38973
G1 X52.721 Y121.393 E57.50783
G1 X53.01 Y118.85 E57.62701
G1 X53.22 Y116.369 E57.74295
G1 X53.366 Y113.791 E57.86318
G1 X53.437 Y111.266 E57.9808
G1 X53.437 Y108.726 E58.09908
G1 X53.365 Y106.168 E58.21823
G1 X53.222 Y103.661 E58.33516
G1 X53.006 Y101.13 E58.45344
G1 X52.718 Y98.59 E58.57247
G1 X52.359 Y96.072 E58.69091
G1 X51.932 Y93.58 E58.80864
G1 X51.434 Y91.101 E58.92638
G1 X50.866 Y88.63 E59.04444
G1 X50.218 Y86.142 E59.16415
G1 X49.517 Y83.732 E59.28102
G1 X48.727 Y81.277 E59.40111
G1 X47.976 Y79.119 E59.50751
G1 X47.717 Y78.254 E59.54955
G1 X47.536 Y77.369 E59.59161
G1 X47.413 Y76.052 E59.65321
G1 X47.4 Y75.445 E59.68148
G1 X47.401 Y72.011 E59.84138
G1 X47.41 Y71.346 E59.87235
G1 X47.462 Y70.444 E59.91442
G1 X47.594 Y69.551 E59.95645
G1 X47.804 Y68.673 E59.99849
G1 X48.091 Y67.816 E60.04057
G1 X48.453 Y66.989 E60.08261
G1 X48.886 Y66.197 E60.12464
G1 X49.388 Y65.446 E60.1667
G1 X49.955 Y64.742 E60.20879
G1 X50.581 Y64.092 E60.25081
G1 X51.262 Y63.499 E60.29286
M204 S2000
G1 F2700 E59.49286
;MESH:camera base.stl
G0 F7500 X132.955 Y93.711
G0 X134.725 Y95.025
G0 X135.377 Y95.243
G0 X135.708 Y95.105
G0 X135.325 Y94.513
M204 S500
;TYPE:WALL-OUTER
G1 F2700 E60.29286
G1 F1500 X135.193 Y94.512 E60.29901
G1 X135.065 Y94.458 E60.30548
G1 X116.659 Y76.056 E61.51741
G1 X116.607 Y75.963 E61.52237
G1 X116.65 Y75.712 E61.53423
G1 X116.867 Y75.577 E61.54613
G1 X135.356 Y75.575 E62.40706
G1 X135.442 Y75.633 E62.41189
G1 X135.546 Y75.835 E62.42247
G1 X135.543 Y94.32 E63.2832
G1 X135.49 Y94.407 E63.28795
G1 X135.325 Y94.513 E63.29708
M204 S2000
G1 F2700 E62.49708
G0 F7500 X135.708 Y95.105
G0 X135.377 Y95.243
G0 X134.849 Y95.067
G0 X132.955 Y93.711
G0 X117.414 Y141.83
G0 X116.1 Y143.6
G0 X115.882 Y144.252
G0 X116.406 Y145.06
G0 X116.812 Y145.125
G0 X116.812 Y144.425
M204 S500
G1 F2700 E63.29708
G1 F1500 X116.63 Y144.24 E63.30916
G1 X116.602 Y144.134 E63.31427
G1 X116.667 Y143.94 E63.3238
G1 X135.069 Y125.534 E64.53573
G1 X135.162 Y125.482 E64.54069
G1 X135.415 Y125.527 E64.55266
G1 X135.549 Y125.75 E64.56477
G1 X135.546 Y144.218 E65.42472
G1 X135.494 Y144.315 E65.42984
G1 X135.283 Y144.423 E65.44088
G1 X116.812 Y144.425 E66.30097
M204 S2000
G1 F2700 E65.50097
G0 F7500 X116.812 Y145.125
G0 X116.484 Y145.073
G0 X115.67 Y144.475
G0 X114.378 Y143.183
G0 X111.634 Y145.125
G0 X111.634 Y144.423
M204 S500
G1 F2700 E66.30097
G1 F1500 X57.8 Y144.425 E68.80771
G1 X57.8 Y148.325 E68.98931
G1 X162.2 Y148.325 E73.85061
G1 X162.2 Y71.675 E77.41975
G1 X57.8 Y71.675 E82.28105
G1 X57.8 Y75.575 E82.46265
G1 X111.599 Y75.575 E84.96776
G1 X111.774 Y75.627 E84.97626
G1 X135.489 Y99.342 E86.53794
G1 X135.545 Y99.477 E86.54474
G1 X135.543 Y120.53 E87.52506
G1 X135.49 Y120.652 E87.53125
G1 X111.808 Y144.339 E89.09092
G1 X111.634 Y144.423 E89.09991
M204 S2000
G0 F7500 X111.679 Y144.825
M204 S500
;TYPE:WALL-INNER
G1 F1500 X58.2 Y144.825 E91.59012
G1 X58.2 Y147.925 E91.73447
G1 X161.8 Y147.925 E96.55852
G1 X161.8 Y72.075 E100.09041
G1 X58.2 Y72.075 E104.91446
G1 X58.2 Y75.175 E105.05881
G1 X111.599 Y75.175 E107.54529
G1 X111.831 Y75.221 E107.5563
G1 X112.091 Y75.378 E107.57045
G1 X135.824 Y99.111 E109.13331
G1 X135.946 Y99.448 E109.14999
G1 X135.949 Y120.597 E110.13478
G1 X135.81 Y120.903 E110.15043
G1 X112.091 Y144.622 E111.71237
G1 X111.898 Y144.751 E111.72318
G1 X111.679 Y144.825 E111.73394
M204 S2000
G0 F7500 X111.729 Y145.225
M204 S500
G1 F1500 X58.6 Y145.225 E114.20785
G1 X58.6 Y147.525 E114.31495
G1 X161.4 Y147.525 E119.10175
G1 X161.4 Y72.475 E122.59639
G1 X58.6 Y72.475 E127.38319
G1 X58.6 Y74.775 E127.49028
G1 X111.599 Y74.775 E129.95814
G1 X112.018 Y74.858 E129.97803
G1 X112.374 Y75.095 E129.99794
G1 X136.1 Y98.821 E131.56034
G1 X136.305 Y99.227 E131.58152
G1 X136.348 Y99.461 E131.5926
G1 X136.348 Y120.647 E132.57911
G1 X136.22 Y120.983 E132.59585
G1 X136.03 Y121.249 E132.61107
G1 X112.374 Y144.905 E134.16886
G1 X112.052 Y145.12 E134.18689
G1 X111.729 Y145.225 E134.2027
M204 S2000
G1 F2700 E133.4027
G0 F7500 X114.449 Y143.112
G0 X115.697 Y143.699
G0 X115.801 Y144.013
G0 X116.204 Y144.867
G0 X116.48 Y144.689
M204 S500
G1 F2700 E134.2027
G1 F1500 X116.36 Y144.557 E134.21101
G1 X116.226 Y144.308 E134.22418
G1 X116.202 Y144.132 E134.23245
G1 X116.237 Y143.933 E134.24186
G1 X116.35 Y143.686 E134.2545
G1 X134.786 Y125.251 E135.46851
G1 X135.064 Y125.094 E135.48338
G1 X135.345 Y125.09 E135.49646
G1 X135.619 Y125.183 E135.50994
G1 X135.815 Y125.37 E135.52255
G1 X135.949 Y125.697 E135.53901
G1 X135.95 Y144.265 E136.40361
G1 X135.782 Y144.593 E136.42077
G1 X135.615 Y144.714 E136.43037
G1 X135.328 Y144.825 E136.4447
G1 X116.861 Y144.825 E137.3046
G1 X116.652 Y144.788 E137.31449
G1 X116.48 Y144.689 E137.32373
M204 S2000
G0 F7500 X116.513 Y145.164
M204 S500
G1 F1500 X116.226 Y144.999 E137.33914
G1 X115.975 Y144.72 E137.35662
G1 X115.843 Y144.423 E137.37175
G1 X115.802 Y144.129 E137.38557
G1 X115.867 Y143.76 E137.40302
G1 X116.036 Y143.434 E137.42012
G1 X134.503 Y124.968 E138.63617
G1 X134.966 Y124.706 E138.66094
G1 X135.475 Y124.699 E138.68465
G1 X135.824 Y124.839 E138.70215
G1 X136.103 Y125.057 E138.71864
G1 X136.287 Y125.424 E138.73776
G1 X136.348 Y125.711 E138.75142
G1 X136.35 Y144.324 E139.61812
