;FLAVOR:Marlin
;TIME:11846
;Filament used: 8.35102m
;Layer height: 0.2
;MINX:46.475
;MINY:60.475
;MINZ:0.28
;MAXX:173.525
;MAXY:159.525
;MAXZ:30.08
;TARGET_MACHINE.NAME:Creality Ender-3 S1
;Generated with Cura_SteamEngine 5.6.0
M82 ;absolute extrusion mode
; Ender 3 S1 Start G-code
; M413 S0 ; Disable power loss recovery
G92 E0 ; Reset Extruder

; Prep surfaces before auto home for better accuracy
M140 S60
M104 S205

G28 ; Home all axes
G1 Z10.0 F3000 ; Move Z Axis up little to prevent scratching of Heat Bed
G1 X0 Y0

M190 S60
M109 S205

G1 X0.1 Y20 Z0.3 F5000.0 ; Move to start position
G1 X0.1 Y200.0 Z0.3 F1500.0 E15 ; Draw the first line
G1 X0.4 Y200.0 Z0.3 F5000.0 ; Move to side a little
G1 X0.4 Y20 Z0.3 F1500.0 E30 ; Draw the second line
G92 E0 ; Reset Extruder
G1 Z2.0 F3000 ; Move Z Axis up little to prevent scratching of Heat Bed
G1 X5 Y20 Z0.3 F5000.0 ; Move over to prevent blob squish

G92 E0
G92 E0
G1 F2700 E-0.8
;LAYER_COUNT:150
;LAYER:0
M107
M204 S2000
G0 F7500 X50.667 Y62.851 Z0.28
M204 S500
;TYPE:SKIRT
G1 F2700 E0
G1 F1500 X51.399 Y62.321 E0.04208
G1 X52.296 Y61.786 E0.09071
G1 X53.174 Y61.365 E0.13605
G1 X54.087 Y61.023 E0.18145
G1 X55.024 Y60.764 E0.22672
G1 X55.991 Y60.586 E0.2725
G1 X57.13 Y60.49 E0.32573
G1 X57.787 Y60.475 E0.35633
G1 X161.579 Y60.475 E5.18932
G1 X162.459 Y60.488 E5.2303
G1 X163.431 Y60.547 E5.27564
G1 X164.394 Y60.693 E5.321
G1 X165.341 Y60.924 E5.36639
G1 X166.229 Y61.224 E5.41003
G1 X167.121 Y61.614 E5.45536
G1 X168.004 Y62.101 E5.50232
G1 X168.755 Y62.603 E5.54438
G1 X169.57 Y63.261 E5.59316
G1 X170.268 Y63.939 E5.63847
G1 X170.904 Y64.676 E5.6838
G1 X171.474 Y65.466 E5.72916
G1 X171.936 Y66.242 E5.77121
G1 X172.39 Y67.184 E5.8199
G1 X172.719 Y68.062 E5.86356
G1 X172.988 Y69.034 E5.91052
G1 X173.165 Y70 E5.95625
G1 X173.26 Y71.13 E6.00906
G1 X173.275 Y71.787 E6.03966
G1 X173.275 Y75.218 E6.19942
G1 X173.263 Y76.774 E6.27187
G1 X173.263 Y86.294 E6.71517
G1 X173.3 Y88.878 E6.8355
G1 X173.409 Y91.458 E6.95574
G1 X173.491 Y92.726 E7.01491
G1 X173.511 Y93.246 E7.03914
G1 X173.524 Y94.107 E7.07924
G1 X173.525 Y124.828 E8.50974
G1 X173.514 Y125.691 E8.54992
G1 X173.497 Y126.14 E8.57085
G1 X173.345 Y128.838 E8.69668
G1 X173.272 Y131.392 E8.81565
G1 X173.263 Y132.696 E8.87637
G1 X173.263 Y143.04 E9.35803
G1 X173.275 Y144.632 E9.43216
G1 X173.274 Y147.941 E9.58624
G1 X173.262 Y148.702 E9.62168
G1 X173.204 Y149.675 E9.66707
G1 X173.058 Y150.638 E9.71242
G1 X172.827 Y151.585 E9.75781
G1 X172.514 Y152.507 E9.80315
G1 X172.122 Y153.398 E9.84848
G1 X171.67 Y154.22 E9.89216
G1 X171.108 Y155.058 E9.93914
G1 X170.518 Y155.788 E9.98285
G1 X169.815 Y156.514 E10.02991
G1 X169.079 Y157.15 E10.0752
G1 X168.289 Y157.72 E10.12056
G1 X167.513 Y158.183 E10.16264
G1 X166.573 Y158.636 E10.21123
G1 X165.66 Y158.978 E10.25662
G1 X164.722 Y159.237 E10.30193
G1 X163.756 Y159.414 E10.34766
G1 X162.62 Y159.51 E10.40075
G1 X161.945 Y159.525 E10.43219
G1 X58.039 Y159.524 E15.27049
G1 X57.306 Y159.513 E15.30462
G1 X56.334 Y159.456 E15.34996
G1 X55.371 Y159.31 E15.39531
G1 X54.425 Y159.081 E15.44064
G1 X53.501 Y158.769 E15.48605
G1 X52.611 Y158.377 E15.53133
G1 X51.788 Y157.926 E15.57503
G1 X50.949 Y157.365 E15.62203
G1 X50.245 Y156.799 E15.66409
G1 X49.492 Y156.074 E15.71276
G1 X48.855 Y155.338 E15.75809
G1 X48.325 Y154.607 E15.80013
G1 X47.789 Y153.71 E15.84879
G1 X47.367 Y152.832 E15.89415
G1 X47.025 Y151.92 E15.9395
G1 X46.765 Y150.982 E15.98483
G1 X46.587 Y150.013 E16.0307
G1 X46.489 Y148.834 E16.08579
G1 X46.475 Y148.183 E16.11611
G1 X46.476 Y144.761 E16.27545
G1 X46.489 Y144.017 E16.3101
G1 X46.55 Y143.044 E16.3555
G1 X46.697 Y142.082 E16.40081
G1 X46.909 Y141.204 E16.44287
G1 X47.104 Y140.586 E16.47305
G1 X47.856 Y138.439 E16.57898
G1 X48.632 Y136.027 E16.69696
G1 X49.336 Y133.603 E16.81449
G1 X49.963 Y131.191 E16.93054
G1 X50.535 Y128.699 E17.04959
G1 X51.025 Y126.257 E17.16557
G1 X51.45 Y123.77 E17.28305
G1 X51.804 Y121.281 E17.40012
G1 X52.087 Y118.782 E17.51723
G1 X52.299 Y116.301 E17.63317
G1 X52.441 Y113.769 E17.75126
G1 X52.512 Y111.244 E17.86888
G1 X52.512 Y108.726 E17.98613
G1 X52.44 Y106.19 E18.10426
G1 X52.299 Y103.729 E18.21905
G1 X52.085 Y101.198 E18.33732
G1 X51.801 Y98.702 E18.45429
G1 X51.442 Y96.184 E18.57273
G1 X51.019 Y93.716 E18.68932
G1 X50.529 Y91.281 E18.80498
G1 X49.961 Y88.81 E18.92304
G1 X49.319 Y86.344 E19.0417
G1 X48.63 Y83.978 E19.15644
G1 X47.84 Y81.523 E19.27653
G1 X47.085 Y79.348 E19.38374
G1 X46.808 Y78.414 E19.4291
G1 X46.627 Y77.529 E19.47116
G1 X46.488 Y76.069 E19.53945
G1 X46.475 Y75.445 E19.56852
G1 X46.476 Y72 E19.72893
G1 X46.487 Y71.3 E19.76153
G1 X46.545 Y70.327 E19.80692
G1 X46.691 Y69.364 E19.85227
G1 X46.921 Y68.418 E19.8976
G1 X47.234 Y67.495 E19.94299
G1 X47.626 Y66.605 E19.98827
G1 X48.096 Y65.752 E20.03362
G1 X48.639 Y64.944 E20.07895
G1 X49.206 Y64.24 E20.12104
G1 X49.931 Y63.488 E20.16968
G1 X50.667 Y62.851 E20.21501
M204 S2000
G0 F7500 X50.902 Y63.175
M204 S500
G1 F1500 X51.634 Y62.645 E20.25709
G1 X52.47 Y62.146 E20.30242
G1 X53.315 Y61.739 E20.34609
G1 X54.194 Y61.408 E20.38983
G1 X55.097 Y61.157 E20.43347
G1 X56.025 Y60.985 E20.47742
G1 X57.164 Y60.889 E20.53064
G1 X57.796 Y60.875 E20.56008
G1 X161.573 Y60.875 E25.39237
G1 X162.435 Y60.887 E25.43251
G1 X163.372 Y60.943 E25.47622
G1 X164.3 Y61.082 E25.51992
G1 X165.213 Y61.303 E25.56366
G1 X166.069 Y61.591 E25.60571
G1 X166.961 Y61.981 E25.65104
G1 X167.782 Y62.434 E25.69471
G1 X168.533 Y62.936 E25.73677
G1 X169.292 Y63.548 E25.78217
G1 X169.966 Y64.201 E25.82587
G1 X170.58 Y64.91 E25.86954
G1 X171.13 Y65.671 E25.91326
G1 X171.592 Y66.447 E25.95531
G1 X172.015 Y67.324 E26.00065
G1 X172.344 Y68.202 E26.04431
G1 X172.595 Y69.107 E26.08804
G1 X172.766 Y70.034 E26.13194
G1 X172.861 Y71.164 E26.18474
G1 X172.875 Y71.796 E26.21418
G1 X172.875 Y75.215 E26.37338
G1 X172.863 Y76.771 E26.44583
G1 X172.863 Y86.294 E26.88927
G1 X172.9 Y88.895 E27.01039
G1 X173.009 Y91.475 E27.13063
G1 X173.091 Y92.742 E27.18975
G1 X173.111 Y93.252 E27.21352
G1 X173.124 Y94.107 E27.25334
G1 X173.125 Y124.823 E28.6836
G1 X173.114 Y125.676 E28.72333
G1 X173.098 Y126.117 E28.74387
G1 X172.945 Y128.827 E28.87026
G1 X172.872 Y131.381 E28.98924
G1 X172.863 Y132.693 E29.05033
G1 X172.863 Y143.04 E29.53213
G1 X172.875 Y144.632 E29.60626
G1 X172.874 Y147.935 E29.76006
G1 X172.863 Y148.679 E29.79471
G1 X172.808 Y149.616 E29.83842
G1 X172.669 Y150.544 E29.88211
G1 X172.448 Y151.457 E29.92585
G1 X172.148 Y152.346 E29.96954
G1 X171.771 Y153.205 E30.01322
G1 X171.319 Y154.027 E30.0569
G1 X170.796 Y154.807 E30.10063
G1 X170.23 Y155.51 E30.14266
G1 X169.553 Y156.212 E30.18807
G1 X168.845 Y156.826 E30.23171
G1 X168.084 Y157.376 E30.27543
G1 X167.308 Y157.839 E30.31751
G1 X166.432 Y158.262 E30.3628
G1 X165.553 Y158.593 E30.40654
G1 X164.649 Y158.844 E30.45022
G1 X163.722 Y159.015 E30.49412
G1 X162.586 Y159.111 E30.5472
G1 X161.945 Y159.125 E30.57706
G1 X58.045 Y159.124 E35.41508
G1 X57.329 Y159.114 E35.44842
G1 X56.393 Y159.06 E35.49208
G1 X55.464 Y158.921 E35.53582
G1 X54.552 Y158.702 E35.57949
G1 X53.662 Y158.403 E35.62321
G1 X52.803 Y158.026 E35.66689
G1 X51.98 Y157.575 E35.71059
G1 X51.2 Y157.053 E35.75429
G1 X50.496 Y156.487 E35.79635
G1 X49.794 Y155.812 E35.8417
G1 X49.179 Y155.103 E35.88541
G1 X48.649 Y154.372 E35.92745
G1 X48.149 Y153.536 E35.97281
G1 X47.741 Y152.691 E36.0165
G1 X47.41 Y151.813 E36.06019
G1 X47.158 Y150.909 E36.10389
G1 X46.986 Y149.98 E36.14789
G1 X46.888 Y148.801 E36.20297
G1 X46.875 Y148.183 E36.23176
G1 X46.876 Y144.768 E36.39077
G1 X46.888 Y144.041 E36.42463
G1 X46.945 Y143.104 E36.46834
G1 X47.086 Y142.176 E36.51205
G1 X47.298 Y141.298 E36.55411
G1 X47.482 Y140.718 E36.58244
G1 X48.234 Y138.571 E36.68837
G1 X49.013 Y136.149 E36.80684
G1 X49.72 Y133.715 E36.92486
G1 X50.35 Y131.292 E37.04144
G1 X50.925 Y128.789 E37.16102
G1 X51.417 Y126.336 E37.27752
G1 X51.844 Y123.837 E37.39557
G1 X52.2 Y121.337 E37.51315
G1 X52.486 Y118.816 E37.6313
G1 X52.697 Y116.335 E37.74724
G1 X52.841 Y113.78 E37.8664
G1 X52.912 Y111.255 E37.98402
G1 X52.912 Y108.726 E38.10178
G1 X52.84 Y106.179 E38.22043
G1 X52.698 Y103.695 E38.33628
G1 X52.483 Y101.164 E38.45456
G1 X52.197 Y98.646 E38.57256
G1 X51.838 Y96.128 E38.691
G1 X51.413 Y93.648 E38.80816
G1 X50.919 Y91.191 E38.92486
G1 X50.351 Y88.72 E39.04292
G1 X49.706 Y86.243 E39.1621
G1 X49.011 Y83.855 E39.27791
G1 X48.221 Y81.4 E39.398
G1 X47.468 Y79.234 E39.50478
G1 X47.2 Y78.334 E39.54851
G1 X47.019 Y77.449 E39.59057
G1 X46.888 Y76.061 E39.65549
G1 X46.875 Y75.445 E39.68418
G1 X46.876 Y72.006 E39.84431
G1 X46.886 Y71.323 E39.87612
G1 X46.941 Y70.386 E39.91982
G1 X47.08 Y69.458 E39.96352
G1 X47.3 Y68.546 E40.0072
G1 X47.6 Y67.656 E40.05093
G1 X47.977 Y66.797 E40.09462
G1 X48.428 Y65.975 E40.13827
G1 X48.951 Y65.195 E40.182
G1 X49.518 Y64.491 E40.22409
G1 X50.193 Y63.79 E40.26941
G1 X50.902 Y63.175 E40.31311
M204 S2000
G0 F7500 X51.137 Y63.499
M204 S500
G1 F1500 X51.869 Y62.969 E40.35519
G1 X52.644 Y62.506 E40.39723
G1 X53.457 Y62.113 E40.43928
G1 X54.302 Y61.793 E40.48135
G1 X55.171 Y61.55 E40.52337
G1 X56.059 Y61.384 E40.56543
G1 X57.198 Y61.288 E40.61866
G1 X57.805 Y61.275 E40.64693
G1 X161.568 Y61.275 E45.47857
G1 X162.412 Y61.286 E45.51787
G1 X163.314 Y61.339 E45.55995
G1 X164.207 Y61.471 E45.60198
G1 X165.085 Y61.682 E45.64403
G1 X165.941 Y61.97 E45.68608
G1 X166.768 Y62.332 E45.72812
G1 X167.56 Y62.767 E45.77019
G1 X168.311 Y63.269 E45.81225
G1 X169.014 Y63.836 E45.85431
G1 X169.664 Y64.463 E45.89636
G1 X170.256 Y65.145 E45.93842
G1 X170.786 Y65.876 E45.98046
G1 X171.248 Y66.652 E46.02251
G1 X171.641 Y67.465 E46.06456
G1 X171.959 Y68.31 E46.1066
G1 X172.202 Y69.18 E46.14866
G1 X172.367 Y70.068 E46.19072
G1 X172.462 Y71.198 E46.24352
G1 X172.475 Y71.805 E46.27179
G1 X172.475 Y75.212 E46.43044
G1 X172.463 Y76.768 E46.50289
G1 X172.463 Y86.294 E46.94646
G1 X172.5 Y88.912 E47.06838
G1 X172.609 Y91.492 E47.18862
G1 X172.691 Y92.758 E47.2477
G1 X172.711 Y93.258 E47.271
G1 X172.724 Y94.107 E47.31054
G1 X172.725 Y124.818 E48.74057
G1 X172.714 Y125.662 E48.77987
G1 X172.699 Y126.094 E48.8
G1 X172.545 Y128.816 E48.92695
G1 X172.472 Y131.37 E49.04592
G1 X172.463 Y132.69 E49.10739
G1 X172.463 Y143.04 E49.58933
G1 X172.475 Y144.632 E49.66346
G1 X172.474 Y147.929 E49.81698
G1 X172.464 Y148.656 E49.85084
G1 X172.412 Y149.558 E49.89291
G1 X172.28 Y150.451 E49.93494
G1 X172.069 Y151.33 E49.97704
G1 X171.782 Y152.186 E50.01908
G1 X171.42 Y153.013 E50.06111
G1 X170.986 Y153.805 E50.10316
G1 X170.484 Y154.556 E50.14523
G1 X169.918 Y155.259 E50.18725
G1 X169.291 Y155.91 E50.22934
G1 X168.61 Y156.502 E50.27136
G1 X167.879 Y157.032 E50.3134
G1 X167.103 Y157.495 E50.35548
G1 X166.29 Y157.888 E50.39752
G1 X165.445 Y158.208 E50.4396
G1 X164.576 Y158.451 E50.48161
G1 X163.688 Y158.616 E50.52367
G1 X162.552 Y158.712 E50.57676
G1 X161.945 Y158.725 E50.60503
G1 X58.05 Y158.724 E55.44281
G1 X57.352 Y158.715 E55.47532
G1 X56.451 Y158.664 E55.51734
G1 X55.557 Y158.532 E55.55942
G1 X54.679 Y158.323 E55.60145
G1 X53.822 Y158.036 E55.64353
G1 X52.995 Y157.675 E55.68555
G1 X52.202 Y157.242 E55.72762
G1 X51.451 Y156.741 E55.76966
G1 X50.747 Y156.175 E55.81172
G1 X50.096 Y155.549 E55.85377
G1 X49.503 Y154.868 E55.89582
G1 X48.973 Y154.137 E55.93786
G1 X48.509 Y153.362 E55.97992
G1 X48.115 Y152.549 E56.02199
G1 X47.795 Y151.705 E56.06402
G1 X47.551 Y150.835 E56.1061
G1 X47.385 Y149.947 E56.14816
G1 X47.288 Y148.792 E56.20213
G1 X47.275 Y148.183 E56.2305
G1 X47.276 Y144.774 E56.38923
G1 X47.287 Y144.065 E56.42225
G1 X47.341 Y143.163 E56.46433
G1 X47.475 Y142.27 E56.50637
G1 X47.687 Y141.392 E56.54843
G1 X47.86 Y140.85 E56.57493
G1 X48.612 Y138.703 E56.68085
G1 X49.394 Y136.271 E56.79981
G1 X50.104 Y133.827 E56.91832
G1 X50.737 Y131.393 E57.03542
G1 X51.315 Y128.879 E57.15554
G1 X51.809 Y126.415 E57.27256
G1 X52.238 Y123.904 E57.39117
G1 X52.596 Y121.393 E57.50928
G1 X52.885 Y118.85 E57.62845
G1 X53.095 Y116.369 E57.74439
G1 X53.241 Y113.791 E57.86463
G1 X53.312 Y111.266 E57.98225
G1 X53.312 Y108.726 E58.10052
G1 X53.24 Y106.168 E58.21968
G1 X53.097 Y103.661 E58.33661
G1 X52.881 Y101.13 E58.45489
G1 X52.593 Y98.59 E58.57392
G1 X52.234 Y96.072 E58.69235
G1 X51.807 Y93.58 E58.81008
G1 X51.309 Y91.101 E58.92782
G1 X50.741 Y88.63 E59.04588
G1 X50.093 Y86.142 E59.1656
G1 X49.392 Y83.732 E59.28247
G1 X48.602 Y81.277 E59.40256
G1 X47.851 Y79.119 E59.50895
G1 X47.592 Y78.254 E59.551
G1 X47.411 Y77.369 E59.59306
G1 X47.288 Y76.052 E59.65465
G1 X47.275 Y75.445 E59.68292
G1 X47.276 Y72.011 E59.84283
G1 X47.285 Y71.346 E59.87379
G1 X47.337 Y70.444 E59.91586
G1 X47.469 Y69.551 E59.9579
G1 X47.679 Y68.673 E59.99993
G1 X47.966 Y67.816 E60.04202
G1 X48.328 Y66.989 E60.08405
G1 X48.761 Y66.197 E60.12608
G1 X49.263 Y65.446 E60.16815
G1 X49.83 Y64.742 E60.21024
G1 X50.456 Y64.092 E60.25226
G1 X51.137 Y63.499 E60.29431
M204 S2000
G1 F2700 E59.49431
;MESH:camera holder v6.stl
G0 F7500 X56.822 Y76.428
G0 X77.133 Y120.178
G0 X79.072 Y120.178
G0 X80.144 Y119.528
G0 X80.194 Y144.947
G0 X79.88 Y144.302
M204 S500
;TYPE:WALL-OUTER
G1 F2700 E60.29431
G1 F1500 X79.658 Y144.423 E60.30608
G1 X57.675 Y144.425 E61.3297
G1 X57.675 Y148.325 E61.5113
G1 X162.075 Y148.325 E66.3726
G1 X162.075 Y144.185 E66.56538
G1 X162.063 Y144.141 E66.5675
G1 X162.063 Y125.575 E67.43201
G1 X162.095 Y125.465 E67.43735
G1 X162.325 Y125.334 E67.44967
G1 X162.325 Y123.747 E67.52357
G1 F1250 X162.245 Y123.149 E67.55728
G1 F1075.3 X162.247 Y117.248 E67.94059
G1 F1250 X162.323 Y116.868 E67.96225
G1 F1492.5 X162.325 Y102.622 E68.62892
G1 F1250 X162.245 Y102.024 E68.66263
G1 F1075.3 X162.247 Y96.125 E69.04581
G1 F1255.2 X162.325 Y95.753 E69.06696
G1 F1500 X162.325 Y93.656 E69.16461
G1 X162.127 Y93.551 E69.17504
G1 X162.063 Y93.373 E69.18385
G1 X162.063 Y75.86 E69.99933
G1 X162.076 Y75.808 E70.00182
G1 X162.075 Y71.675 E70.19427
G1 X57.675 Y71.675 E75.05557
G1 X57.675 Y75.575 E75.23717
G1 X79.725 Y75.575 E76.26392
G1 X79.833 Y75.651 E76.27006
G1 X79.919 Y75.827 E76.27919
G1 X79.923 Y99.71 E77.39128
G1 X79.867 Y99.817 E77.3969
G1 X79.673 Y99.925 E77.40724
G1 X77.986 Y99.925 E77.48579
G1 X77.986 Y119.325 E78.38914
G1 X79.727 Y119.325 E78.47021
G1 X79.805 Y119.373 E78.47447
G1 X79.925 Y119.625 E78.48747
G1 X79.925 Y144.19 E79.63132
G1 X79.88 Y144.302 E79.63694
M204 S2000
G1 F2700 E78.83694
G0 F7500 X80.194 Y144.947
G0 X80.816 Y144.676
G0 X82.771 Y144.645
G0 X83.36 Y145.058
G0 X94.658 Y145.125
G0 X94.658 Y144.423
M204 S500
G1 F2700 E79.63694
G1 F1500 X83.831 Y144.425 E80.14109
G1 X83.723 Y144.349 E80.14724
G1 X83.631 Y144.143 E80.15774
G1 X83.636 Y75.78 E83.34101
G1 X83.676 Y75.698 E83.34526
G1 X83.898 Y75.577 E83.35703
G1 X94.725 Y75.575 E83.86118
G1 X94.833 Y75.651 E83.86733
G1 X94.919 Y75.827 E83.87645
G1 X94.925 Y144.19 E87.05972
G1 X94.88 Y144.302 E87.06534
G1 X94.658 Y144.423 E87.07712
M204 S2000
G1 F2700 E86.27712
G0 F7500 X94.658 Y145.125
G0 X95.798 Y144.669
G0 X97.771 Y144.645
G0 X98.36 Y145.058
G0 X109.158 Y145.125
G0 X109.158 Y144.423
M204 S500
G1 F2700 E87.07712
G1 F1500 X98.831 Y144.425 E87.55798
G1 X98.723 Y144.349 E87.56413
G1 X98.631 Y144.143 E87.57464
G1 X98.636 Y75.78 E90.75791
G1 X98.676 Y75.698 E90.76215
G1 X98.898 Y75.577 E90.77393
G1 X109.231 Y75.575 E91.25508
G1 X109.317 Y75.633 E91.25991
G1 X109.426 Y75.84 E91.2708
G1 X109.422 Y144.215 E94.45463
G1 X109.36 Y144.323 E94.46042
G1 X109.158 Y144.423 E94.47092
M204 S2000
G1 F2700 E93.67092
G0 F7500 X109.158 Y145.125
G0 X110.058 Y144.696
G0 X110.406 Y143.143
G0 X112.209 Y142.561
G0 X113.273 Y143.145
G0 X113.425 Y142.464
M204 S500
G1 F2700 E94.47092
