;FLAVOR:Marlin
;TIME:1390
;Filament used: 0.892621m
;Layer height: 0.2
;MINX:81.6
;MINY:60.005
;MINZ:0.28
;MAXX:138.4
;MAXY:126.9
;MAXZ:8.08
;TARGET_MACHINE.NAME:Creality Ender-3 S1
;Generated with Cura_SteamEngine 5.6.0
M82 ;absolute extrusion mode
; Ender 3 S1 Start G-code
; M413 S0 ; Disable power loss recovery
G92 E0 ; Reset Extruder

; Prep surfaces before auto home for better accuracy
M140 S60
M104 S205

G28 ; Home all axes
G1 Z10.0 F3000 ; Move Z Axis up little to prevent scratching of Heat Bed
G1 X0 Y0

M190 S60
M109 S205

G1 X0.1 Y20 Z0.3 F5000.0 ; Move to start position
G1 X0.1 Y200.0 Z0.3 F1500.0 E15 ; Draw the first line
G1 X0.4 Y200.0 Z0.3 F5000.0 ; Move to side a little
G1 X0.4 Y20 Z0.3 F1500.0 E30 ; Draw the second line
G92 E0 ; Reset Extruder
G1 Z2.0 F3000 ; Move Z Axis up little to prevent scratching of Heat Bed
G1 X5 Y20 Z0.3 F5000.0 ; Move over to prevent blob squish

G92 E0
G92 E0
G1 F2700 E-0.8
;LAYER_COUNT:40
;LAYER:0
M107
M204 S2000
G0 F7500 X89.565 Y64.458 Z0.28
M204 S500
;TYPE:SKIRT
G1 F2700 E0
G1 F1500 X90.18 Y63.701 E0.04542
G1 X90.859 Y63.004 E0.09073
G1 X91.597 Y62.368 E0.13609
G1 X92.387 Y61.801 E0.18137
G1 X93.195 Y61.322 E0.22511
G1 X94.106 Y60.886 E0.27214
G1 X95.018 Y60.546 E0.31746
G1 X95.922 Y60.296 E0.36113
G1 X96.924 Y60.113 E0.40856
G1 X98.091 Y60.018 E0.46308
G1 X98.698 Y60.005 E0.49135
G1 X122.24 Y60.005 E1.58757
G1 X123.12 Y60.018 E1.62855
G1 X124.092 Y60.077 E1.67389
G1 X125.055 Y60.223 E1.71924
G1 X126.002 Y60.454 E1.76463
G1 X126.89 Y60.754 E1.80828
G1 X127.782 Y61.144 E1.85361
G1 X128.665 Y61.631 E1.90057
G1 X129.416 Y62.133 E1.94263
G1 X130.231 Y62.791 E1.9914
G1 X130.929 Y63.469 E2.03671
G1 X131.565 Y64.206 E2.08204
G1 X132.135 Y64.996 E2.1274
G1 X132.597 Y65.772 E2.16946
G1 X133.051 Y66.714 E2.21815
G1 X133.38 Y67.592 E2.26181
G1 X133.649 Y68.564 E2.30877
G1 X133.826 Y69.53 E2.3545
G1 X133.921 Y70.66 E2.4073
G1 X133.936 Y71.317 E2.4379
G1 X133.936 Y74.488 E2.58556
G1 X133.973 Y77.062 E2.70543
G1 X134.082 Y79.627 E2.82497
G1 X134.256 Y82.09 E2.93995
G1 X134.505 Y84.607 E3.05772
G1 X134.826 Y87.115 E3.17546
G1 X135.212 Y89.576 E3.29145
G1 X135.67 Y92.041 E3.4082
G1 X136.207 Y94.533 E3.5269
G1 X136.8 Y96.957 E3.6431
G1 X137.48 Y99.427 E3.76239
G1 X137.947 Y101.012 E3.83933
G1 X138.179 Y101.958 E3.88469
G1 X138.326 Y102.917 E3.92986
G1 X138.385 Y103.773 E3.96982
G1 X138.4 Y104.43 E4.00042
G1 X138.399 Y115.3 E4.50657
G1 X138.388 Y116.063 E4.5421
G1 X138.331 Y117.036 E4.58749
G1 X138.186 Y117.999 E4.63283
G1 X137.957 Y118.945 E4.67816
G1 X137.646 Y119.869 E4.72355
G1 X137.254 Y120.76 E4.76888
G1 X136.786 Y121.612 E4.81414
G1 X136.264 Y122.393 E4.85788
G1 X135.631 Y123.178 E4.90484
G1 X135.006 Y123.829 E4.94686
G1 X134.217 Y124.517 E4.99561
G1 X133.457 Y125.067 E5.03929
G1 X132.59 Y125.584 E5.0863
G1 X131.712 Y126.006 E5.13166
G1 X130.801 Y126.348 E5.17697
G1 X129.862 Y126.609 E5.22235
G1 X128.896 Y126.787 E5.26809
G1 X127.745 Y126.885 E5.32188
G1 X127.07 Y126.9 E5.35331
G1 X93.164 Y126.899 E6.93212
G1 X92.431 Y126.888 E6.96625
G1 X91.459 Y126.831 E7.01159
G1 X90.496 Y126.685 E7.05695
G1 X89.55 Y126.456 E7.10227
G1 X88.626 Y126.144 E7.14768
G1 X87.736 Y125.752 E7.19296
G1 X86.913 Y125.301 E7.23666
G1 X86.074 Y124.74 E7.28366
G1 X85.37 Y124.174 E7.32572
G1 X84.617 Y123.449 E7.37439
G1 X83.98 Y122.713 E7.41972
G1 X83.45 Y121.982 E7.46176
G1 X82.914 Y121.085 E7.51042
G1 X82.492 Y120.207 E7.55578
G1 X82.15 Y119.295 E7.60113
G1 X81.89 Y118.357 E7.64646
G1 X81.712 Y117.388 E7.69233
G1 X81.614 Y116.209 E7.74742
G1 X81.6 Y115.558 E7.77774
G1 X81.601 Y104.636 E8.28632
G1 X81.614 Y103.892 E8.32097
G1 X81.675 Y102.919 E8.36636
G1 X81.822 Y101.957 E8.41168
G1 X82.041 Y101.053 E8.45499
G1 X82.204 Y100.537 E8.48019
G1 X82.728 Y99.006 E8.55554
G1 X83.507 Y96.577 E8.67431
G1 X84.21 Y94.153 E8.79184
G1 X84.834 Y91.751 E8.9074
G1 X85.413 Y89.227 E9.02798
G1 X85.899 Y86.8 E9.14323
G1 X86.327 Y84.298 E9.26143
G1 X86.677 Y81.828 E9.37759
G1 X86.954 Y79.373 E9.49263
G1 X87.174 Y76.8 E9.61288
G1 X87.312 Y74.319 E9.72858
G1 X87.384 Y71.763 E9.84765
G1 X87.4 Y70.809 E9.89208
G1 X87.46 Y69.837 E9.93742
G1 X87.607 Y68.874 E9.98278
G1 X87.839 Y67.928 E10.02814
G1 X88.141 Y67.039 E10.07186
G1 X88.549 Y66.116 E10.11885
G1 X89.02 Y65.265 E10.16414
G1 X89.565 Y64.458 E10.20948
M204 S2000
G0 F7500 X89.876 Y64.71
M204 S500
G1 F1500 X90.467 Y63.98 E10.25322
G1 X91.12 Y63.307 E10.29688
G1 X91.831 Y62.693 E10.34063
G1 X92.592 Y62.145 E10.38429
G1 X93.368 Y61.683 E10.42635
G1 X94.246 Y61.261 E10.47171
G1 X95.125 Y60.932 E10.51541
G1 X96.029 Y60.682 E10.55908
G1 X96.957 Y60.512 E10.60301
G1 X98.1 Y60.418 E10.65642
G1 X98.707 Y60.405 E10.68469
G1 X122.234 Y60.405 E11.7802
G1 X123.096 Y60.417 E11.82034
G1 X124.033 Y60.473 E11.86405
G1 X124.961 Y60.612 E11.90775
G1 X125.874 Y60.833 E11.95149
G1 X126.73 Y61.121 E11.99354
G1 X127.622 Y61.511 E12.03887
G1 X128.443 Y61.964 E12.08254
G1 X129.194 Y62.466 E12.1246
G1 X129.953 Y63.078 E12.17
G1 X130.627 Y63.731 E12.2137
G1 X131.241 Y64.44 E12.25737
G1 X131.791 Y65.201 E12.30109
G1 X132.253 Y65.977 E12.34314
G1 X132.676 Y66.854 E12.38848
G1 X133.005 Y67.732 E12.43214
G1 X133.256 Y68.637 E12.47587
G1 X133.427 Y69.564 E12.51977
G1 X133.522 Y70.694 E12.57257
G1 X133.536 Y71.326 E12.60201
G1 X133.536 Y74.488 E12.74924
G1 X133.573 Y77.079 E12.8699
G1 X133.682 Y79.644 E12.98945
G1 X133.858 Y82.129 E13.10545
G1 X134.108 Y84.658 E13.22378
G1 X134.429 Y87.166 E13.34152
G1 X134.819 Y89.649 E13.45856
G1 X135.279 Y92.125 E13.57582
G1 X135.818 Y94.628 E13.69504
G1 X136.414 Y97.063 E13.81177
G1 X137.096 Y99.54 E13.93141
G1 X137.559 Y101.108 E14.00754
G1 X137.784 Y102.019 E14.05123
G1 X137.927 Y102.945 E14.09486
G1 X137.985 Y103.782 E14.13393
G1 X138 Y104.43 E14.16411
G1 X137.999 Y115.295 E14.67003
G1 X137.989 Y116.04 E14.70472
G1 X137.935 Y116.977 E14.74842
G1 X137.797 Y117.906 E14.79216
G1 X137.578 Y118.818 E14.83583
G1 X137.28 Y119.708 E14.87954
G1 X136.903 Y120.568 E14.92326
G1 X136.453 Y121.39 E14.9669
G1 X135.931 Y122.171 E15.01064
G1 X135.342 Y122.901 E15.05431
G1 X134.717 Y123.552 E15.09634
G1 X133.982 Y124.193 E15.14175
G1 X133.222 Y124.743 E15.18543
G1 X132.416 Y125.224 E15.22914
G1 X131.571 Y125.632 E15.27283
G1 X130.693 Y125.963 E15.31652
G1 X129.789 Y126.216 E15.36023
G1 X128.862 Y126.388 E15.40413
G1 X127.711 Y126.486 E15.45792
G1 X127.07 Y126.5 E15.48778
G1 X93.17 Y126.499 E17.06631
G1 X92.454 Y126.489 E17.09965
G1 X91.518 Y126.435 E17.1433
G1 X90.589 Y126.296 E17.18704
G1 X89.677 Y126.077 E17.23072
G1 X88.787 Y125.778 E17.27444
G1 X87.928 Y125.401 E17.31812
G1 X87.105 Y124.95 E17.36182
G1 X86.325 Y124.428 E17.40552
G1 X85.621 Y123.862 E17.44758
G1 X84.919 Y123.187 E17.49293
G1 X84.304 Y122.478 E17.53663
G1 X83.774 Y121.747 E17.57868
G1 X83.274 Y120.911 E17.62404
G1 X82.866 Y120.066 E17.66773
G1 X82.535 Y119.188 E17.71142
G1 X82.283 Y118.284 E17.75512
G1 X82.111 Y117.355 E17.79911
G1 X82.013 Y116.176 E17.8542
G1 X82 Y115.558 E17.88298
G1 X82.001 Y104.643 E18.39123
G1 X82.013 Y103.916 E18.42509
G1 X82.07 Y102.979 E18.4688
G1 X82.211 Y102.051 E18.51251
G1 X82.43 Y101.147 E18.55582
G1 X82.582 Y100.667 E18.57926
G1 X83.106 Y99.136 E18.65461
G1 X83.888 Y96.699 E18.77379
G1 X84.594 Y94.264 E18.89184
G1 X85.221 Y91.852 E19.00789
G1 X85.803 Y89.316 E19.12905
G1 X86.291 Y86.879 E19.24478
G1 X86.721 Y84.365 E19.36354
G1 X87.073 Y81.884 E19.48022
G1 X87.353 Y79.407 E19.59629
G1 X87.572 Y76.834 E19.71654
G1 X87.712 Y74.33 E19.83332
G1 X87.784 Y71.774 E19.95238
G1 X87.799 Y70.833 E19.9962
G1 X87.856 Y69.897 E20.03987
G1 X87.996 Y68.969 E20.08357
G1 X88.218 Y68.057 E20.12728
G1 X88.52 Y67.168 E20.171
G1 X88.899 Y66.309 E20.21471
G1 X89.352 Y65.488 E20.25838
G1 X89.876 Y64.71 E20.30205
M204 S2000
G0 F7500 X90.187 Y64.961
M204 S500
G1 F1500 X90.755 Y64.258 E20.34414
G1 X91.382 Y63.609 E20.38616
G1 X92.065 Y63.017 E20.42825
G1 X92.797 Y62.489 E20.47027
G1 X93.573 Y62.027 E20.51232
G1 X94.387 Y61.635 E20.55439
G1 X95.232 Y61.317 E20.59644
G1 X96.102 Y61.075 E20.63848
G1 X96.99 Y60.911 E20.68053
G1 X98.109 Y60.818 E20.73282
G1 X98.716 Y60.805 E20.76109
G1 X122.229 Y60.805 E21.85595
G1 X123.073 Y60.816 E21.89526
G1 X123.975 Y60.869 E21.93733
G1 X124.868 Y61.001 E21.97936
G1 X125.746 Y61.212 E22.02141
G1 X126.602 Y61.5 E22.06346
G1 X127.429 Y61.862 E22.1055
G1 X128.221 Y62.297 E22.14758
G1 X128.972 Y62.799 E22.18964
G1 X129.675 Y63.366 E22.23169
G1 X130.325 Y63.993 E22.27375
G1 X130.917 Y64.675 E22.3158
G1 X131.447 Y65.406 E22.35784
G1 X131.909 Y66.182 E22.3999
G1 X132.302 Y66.995 E22.44194
G1 X132.62 Y67.84 E22.48398
G1 X132.863 Y68.71 E22.52605
G1 X133.028 Y69.598 E22.5681
G1 X133.123 Y70.728 E22.6209
G1 X133.136 Y71.335 E22.64918
G1 X133.136 Y74.488 E22.79599
G1 X133.173 Y77.096 E22.91744
G1 X133.282 Y79.661 E23.03699
G1 X133.46 Y82.168 E23.15402
G1 X133.711 Y84.709 E23.27292
G1 X134.032 Y87.217 E23.39065
G1 X134.426 Y89.722 E23.50873
G1 X134.888 Y92.209 E23.62651
G1 X135.429 Y94.723 E23.74626
G1 X136.028 Y97.169 E23.86352
G1 X136.712 Y99.654 E23.98353
G1 X137.171 Y101.205 E24.05885
G1 X137.389 Y102.081 E24.10088
G1 X137.528 Y102.973 E24.14292
G1 X137.585 Y103.791 E24.1811
G1 X137.6 Y104.43 E24.21087
G1 X137.599 Y115.29 E24.71655
G1 X137.59 Y116.017 E24.75041
G1 X137.539 Y116.919 E24.79248
G1 X137.408 Y117.813 E24.83455
G1 X137.199 Y118.691 E24.87657
G1 X136.913 Y119.548 E24.91864
G1 X136.552 Y120.376 E24.9607
G1 X136.12 Y121.168 E25.00271
G1 X135.619 Y121.92 E25.04479
G1 X135.053 Y122.624 E25.08685
G1 X134.428 Y123.275 E25.12887
G1 X133.747 Y123.869 E25.17095
G1 X133.016 Y124.4 E25.21302
G1 X132.242 Y124.864 E25.25504
G1 X131.429 Y125.258 E25.29711
G1 X130.585 Y125.578 E25.33914
G1 X129.715 Y125.823 E25.38123
G1 X128.828 Y125.989 E25.42325
G1 X127.677 Y126.087 E25.47704
G1 X127.07 Y126.1 E25.50531
G1 X93.175 Y126.099 E27.0836
G1 X92.477 Y126.09 E27.1161
G1 X91.576 Y126.039 E27.15813
G1 X90.682 Y125.907 E27.2002
G1 X89.804 Y125.698 E27.24223
G1 X88.947 Y125.411 E27.28431
G1 X88.12 Y125.05 E27.32633
G1 X87.327 Y124.617 E27.3684
G1 X86.576 Y124.116 E27.41044
G1 X85.872 Y123.55 E27.4525
G1 X85.221 Y122.924 E27.49456
G1 X84.628 Y122.243 E27.5366
G1 X84.098 Y121.512 E27.57865
G1 X83.634 Y120.737 E27.62071
G1 X83.24 Y119.924 E27.66278
G1 X82.92 Y119.08 E27.70481
G1 X82.676 Y118.21 E27.74688
G1 X82.51 Y117.322 E27.78895
G1 X82.413 Y116.167 E27.84292
G1 X82.4 Y115.558 E27.87128
G1 X82.401 Y104.649 E28.37925
G1 X82.412 Y103.94 E28.41227
G1 X82.466 Y103.038 E28.45434
G1 X82.6 Y102.145 E28.49639
G1 X82.812 Y101.267 E28.53845
G1 X82.96 Y100.797 E28.56139
G1 X83.484 Y99.266 E28.63674
G1 X84.269 Y96.821 E28.75632
G1 X84.978 Y94.375 E28.8749
G1 X85.608 Y91.953 E28.99143
G1 X86.193 Y89.406 E29.11312
G1 X86.683 Y86.958 E29.22937
G1 X87.115 Y84.432 E29.3487
G1 X87.469 Y81.94 E29.4659
G1 X87.752 Y79.441 E29.58301
G1 X87.97 Y76.868 E29.70325
G1 X88.112 Y74.341 E29.8211
G1 X88.184 Y71.785 E29.94017
G1 X88.198 Y70.857 E29.98338
G1 X88.252 Y69.956 E30.02541
G1 X88.385 Y69.063 E30.06745
G1 X88.597 Y68.185 E30.10951
G1 X88.886 Y67.329 E30.15158
G1 X89.249 Y66.502 E30.19364
G1 X89.684 Y65.711 E30.23567
G1 X90.187 Y64.961 E30.27772
M204 S2000
G1 F2700 E29.47772
;MESH:camera holder v3.stl
G0 F7500 X97.721 Y72.981
G0 X98.787 Y72.981
G0 X98.811 Y73.368
G0 X99.021 Y73.78
G0 X100.201 Y74.899
G0 X100.3 Y74.209
M204 S500
;TYPE:WALL-OUTER
G1 F2700 E30.27772
G1 F1500 X99.891 Y74.15 E30.29696
G1 X99.51 Y73.955 E30.31689
G1 X99.237 Y73.682 E30.33487
G1 F1477.8 X99.025 Y73.287 E30.35606
G1 F1474.2 X98.986 Y72.892 E30.37486
G1 X99.025 Y72.522 E30.39249
G1 F1467 X99.237 Y72.128 E30.41379
G1 F1485.1 X99.51 Y71.855 E30.43195
G1 F1445.8 X99.919 Y71.642 E30.45423
G1 F1449.3 X100.334 Y71.604 E30.47431
G1 F1452.8 X100.65 Y71.642 E30.48961
G1 X101.062 Y71.855 E30.51191
G1 F1500 X101.336 Y72.129 E30.52996
G1 X101.531 Y72.51 E30.54988
G1 X101.591 Y72.886 E30.56761
G1 X101.531 Y73.3 E30.58709
G1 X101.33 Y73.685 E30.60732
G1 X101.061 Y73.956 E30.6251
G1 X100.671 Y74.15 E30.64538
G1 X100.3 Y74.209 E30.66287
M204 S2000
G1 F2700 E29.86287
G0 F7500 X100.201 Y74.899
G0 X102.27 Y75.551
G0 X103.427 Y76.14
G0 X104.301 Y77.014
G0 X104.889 Y78.17
G0 X105.083 Y79.388
G0 X104.89 Y80.639
G0 X104.301 Y81.796
G0 X103.427 Y82.67
G0 X100.563 Y84.102
G0 X100.048 Y84.443
G0 X101.528 Y85.484
G0 X101.761 Y85.941
G0 X101.833 Y86.386
G0 X101.762 Y86.866
G0 X101.528 Y87.326
G0 X101.268 Y87.586
G0 X100.712 Y87.855
G0 X100.668 Y87.666
M204 S500
G1 F2700 E30.66287
G1 F1474.2 X100.273 Y87.705 E30.68168
G1 X99.903 Y87.666 E30.69931
G1 F1467 X99.509 Y87.454 E30.72061
G1 F1485.1 X99.237 Y87.182 E30.7387
G1 F1470.6 X99.025 Y86.787 E30.75999
G1 F1474.2 X98.986 Y86.392 E30.7788
G1 X99.025 Y86.022 E30.79642
G1 F1467 X99.237 Y85.628 E30.81773
G1 F1485.1 X99.511 Y85.354 E30.83595
G1 F1496.3 X99.912 Y85.157 E30.85681
G1 F1500 X100.302 Y85.1 E30.87516
G1 X100.67 Y85.159 E30.89251
G1 X101.063 Y85.355 E30.91296
G1 X101.336 Y85.633 E30.9311
G1 X101.531 Y86.011 E30.95091
G1 X101.591 Y86.386 E30.96859
G1 X101.531 Y86.8 E30.98807
G1 X101.336 Y87.181 E31.008
G1 X101.063 Y87.454 E31.02598
G1 F1477.8 X100.668 Y87.666 E31.04717
M204 S2000
G1 F2700 E30.24717
G0 F7500 X100.712 Y87.855
G0 X100.362 Y87.904
G0 X98.586 Y88.105
M204 S500
G1 F2700 E31.04717
G1 F1500 X99.385 Y88.104 E31.08437
G1 F1452.8 X99.896 Y88.092 E31.10895
G1 X100.245 Y88.105 E31.12574
G1 X100.682 Y88.091 E31.14676
G1 X101.187 Y88.104 E31.17105
G1 F1500 X120.135 Y88.104 E32.05334
G1 F1452.8 X120.646 Y88.092 E32.07792
G1 X120.995 Y88.105 E32.09471
G1 X121.432 Y88.091 E32.11573
G1 X121.937 Y88.104 E32.14002
G1 F1500 X122.736 Y88.105 E32.17722
G1 X122.736 Y87.306 E32.21443
G1 F1452.8 X122.723 Y86.796 E32.23895
G1 F1456.3 X122.737 Y86.389 E32.25849
G1 F1452.8 X122.723 Y86.008 E32.27682
G1 X122.736 Y85.504 E32.30105
G1 F1500 X122.736 Y82.501 E32.44089
G1 X121.701 Y83.028 E32.49497
G1 X120.549 Y83.207 E32.54925
G1 X119.374 Y83.026 E32.60461
G1 X118.289 Y82.477 E32.66123
G1 X117.465 Y81.648 E32.71566
G1 X116.913 Y80.57 E32.77205
G1 X116.735 Y79.403 E32.82702
G1 X116.915 Y78.243 E32.88168
G1 X117.465 Y77.162 E32.93816
G1 X118.29 Y76.332 E32.99265
G1 X119.382 Y75.781 E33.04961
G1 X120.528 Y75.603 E33.10361
G1 X121.701 Y75.782 E33.15886
G1 X122.736 Y76.309 E33.21294
G1 X122.736 Y73.556 E33.34114
G1 F1452.8 X122.723 Y73.046 E33.36566
G1 F1456.3 X122.737 Y72.639 E33.38519
G1 F1452.8 X122.723 Y72.258 E33.40352
G1 X122.736 Y71.754 E33.42776
G1 F1500 X122.736 Y71.205 E33.45333
G1 X121.877 Y71.206 E33.49333
G1 F1333.3 X121.424 Y71.304 E33.51761
G1 X121.835 Y71.628 E33.54502
G1 F1477.8 X122.085 Y71.878 E33.56173
G1 F1428.6 X122.299 Y72.291 E33.58447
G1 F1449.3 X122.337 Y72.607 E33.59981
G1 X122.299 Y73.022 E33.6199
G1 F1428.6 X122.085 Y73.432 E33.64251
G1 F1477.8 X121.811 Y73.706 E33.66082
G1 F1500 X121.434 Y73.896 E33.68048
G1 X121.056 Y73.956 E33.6983
G1 X120.646 Y73.902 E33.71756
G1 X120.259 Y73.705 E33.73778
G1 X119.982 Y73.421 E33.75625
G1 X119.793 Y73.047 E33.77576
G1 X119.732 Y72.67 E33.79355
G1 X119.79 Y72.263 E33.81269
G1 X119.987 Y71.878 E33.83283
G1 X120.237 Y71.628 E33.84929
G1 F1200 X120.663 Y71.306 E33.88037
G1 X120.195 Y71.206 E33.90823
G1 F1500 X101.187 Y71.206 E34.79332
G1 F1452.8 X100.683 Y71.219 E34.81756
G1 F1456.3 X100.302 Y71.204 E34.83585
G1 F1452.8 X99.883 Y71.218 E34.856
G1 X99.385 Y71.206 E34.87995
G1 F1500 X98.586 Y71.205 E34.91716
G1 X98.587 Y72.004 E34.95436
G1 F1452.8 X98.599 Y72.515 E34.97894
G1 X98.586 Y72.864 E34.99573
G1 X98.6 Y73.301 E35.01675
G1 X98.587 Y73.806 E35.04103
G1 F1500 X98.587 Y76.536 E35.16815
G1 X98.789 Y76.333 E35.18149
